(.../pcb-gcode-3_6_0_4/pcb-gcode.ulp)
(Copyright 2005 - 2012 by John Johnson)
(See readme.txt for licensing terms.)
(This file generated from the board:)
(.../Documents/eagle/Globe V3/Globe V3.brd)
(Current profile is .../pcb-gcode-3_6_0_4/profiles/generic.pp  )
(This file generated 12.03.2018 15:20)
(Settings from pcb-machine.h)
(  Tool Size)
(0.8000 )
(Z Axis Settings)
(  High     Up        Down     Drill)
(25.0000 	2.0000 	-0.1000 	-1.5000 )
(spindle on time = 3.0000)
(milling depth = -0.2540)
(text depth = -0.1270)
(tool change at 1.0000 1.0000 25.0000 )
(feed rate xy = F100.00 )
(feed rate z  = F50.00 )
(Settings from pcb-defaults.h)
(isolate min = 0.0025)
(isolate max = 1.1000)
(isolate step = 0.9000)
(Generated bottom outlines, bottom drill, )
(Unit of measure: mm)
( Tool|       Size       |  Min Sub |  Max Sub |   Count )
( T01  3.302mm 0.1300in 0.0000in 0.0000in )
( T02  0.813mm 0.0320in 0.0000in 0.0000in )
( T03  1.016mm 0.0400in 0.0000in 0.0000in )
(Metric Mode)
G21
(Absolute Coordinates)
G90
M05
G00 Z25.0000 
G00 X1.0000 Y1.0000 
M06 T01  ; 3.3020 
G01 Z0.0000 F50.00 
M06 T01  ; 3.3020 
G00 Z2.0000 
M03
G04 P3.000000
G00 Z2.000000
G00 X63.5000 Y59.4360 
G01 Z-1.5000 F50.00 
G01 Z2.000000
(R2.0000  P1.000000)
(G00 Z2.000000)
G00 X30.4800 Y59.4360 
G01 Z-1.500000
G01 Z2.000000
M05
G00 Z25.0000 
M06 T02  ; 0.8128 
G01 Z0.0000 F50.00 
M06 T02  ; 0.8128 
G00 Z2.0000 
M03
G04 P3.000000
G00 Z2.000000
G00 X40.6400 Y43.1800 
G01 Z-1.5000 F50.00 
G01 Z2.000000
(R2.0000  P1.000000)
(G00 Z2.000000)
G00 X40.6400 Y48.2600 
G01 Z-1.500000
G01 Z2.000000
(G00 Z2.000000)
G00 X52.0700 Y43.1800 
G01 Z-1.500000
G01 Z2.000000
(G00 Z2.000000)
G00 X52.0700 Y45.7200 
G01 Z-1.500000
G01 Z2.000000
(G00 Z2.000000)
G00 X76.2000 Y44.4500 
G01 Z-1.500000
G01 Z2.000000
(G00 Z2.000000)
G00 X76.2000 Y46.9900 
G01 Z-1.500000
G01 Z2.000000
(G00 Z2.000000)
G00 X8.8900 Y36.8300 
G01 Z-1.500000
G01 Z2.000000
(G00 Z2.000000)
G00 X8.8900 Y46.9900 
G01 Z-1.500000
G01 Z2.000000
(G00 Z2.000000)
G00 X16.5100 Y43.1800 
G01 Z-1.500000
G01 Z2.000000
(G00 Z2.000000)
G00 X16.5100 Y45.7200 
G01 Z-1.500000
G01 Z2.000000
M05
G00 Z25.0000 
M06 T03  ; 1.0160 
G01 Z0.0000 F50.00 
M06 T03  ; 1.0160 
G00 Z2.0000 
M03
G04 P3.000000
G00 Z2.000000
G00 X31.7500 Y33.0300 
G01 Z-1.5000 F50.00 
G01 Z2.000000
(R2.0000  P1.000000)
(G00 Z2.000000)
G00 X31.7500 Y7.6200 
G01 Z-1.500000
G01 Z2.000000
(G00 Z2.000000)
G00 X33.0200 Y44.4500 
G01 Z-1.500000
G01 Z2.000000
(G00 Z2.000000)
G00 X34.2900 Y33.0200 
G01 Z-1.500000
G01 Z2.000000
(G00 Z2.000000)
G00 X34.2900 Y7.6200 
G01 Z-1.500000
G01 Z2.000000
(G00 Z2.000000)
G00 X36.8300 Y33.0200 
G01 Z-1.500000
G01 Z2.000000
(G00 Z2.000000)
G00 X36.8300 Y7.6200 
G01 Z-1.500000
G01 Z2.000000
(G00 Z2.000000)
G00 X39.3700 Y33.0200 
G01 Z-1.500000
G01 Z2.000000
(G00 Z2.000000)
G00 X39.3700 Y7.6200 
G01 Z-1.500000
G01 Z2.000000
(G00 Z2.000000)
G00 X41.9100 Y33.0200 
G01 Z-1.500000
G01 Z2.000000
(G00 Z2.000000)
G00 X41.9100 Y7.6200 
G01 Z-1.500000
G01 Z2.000000
(G00 Z2.000000)
G00 X44.4500 Y33.0200 
G01 Z-1.500000
G01 Z2.000000
(G00 Z2.000000)
G00 X44.4500 Y7.6200 
G01 Z-1.500000
G01 Z2.000000
(G00 Z2.000000)
G00 X46.9900 Y33.0200 
G01 Z-1.500000
G01 Z2.000000
(G00 Z2.000000)
G00 X46.9900 Y7.6200 
G01 Z-1.500000
G01 Z2.000000
(G00 Z2.000000)
G00 X49.5300 Y33.0200 
G01 Z-1.500000
G01 Z2.000000
(G00 Z2.000000)
G00 X49.5300 Y7.6200 
G01 Z-1.500000
G01 Z2.000000
(G00 Z2.000000)
G00 X52.0700 Y33.0200 
G01 Z-1.500000
G01 Z2.000000
(G00 Z2.000000)
G00 X52.0700 Y7.6200 
G01 Z-1.500000
G01 Z2.000000
(G00 Z2.000000)
G00 X54.6100 Y33.0200 
G01 Z-1.500000
G01 Z2.000000
(G00 Z2.000000)
G00 X54.6100 Y7.6200 
G01 Z-1.500000
G01 Z2.000000
(G00 Z2.000000)
G00 X57.1500 Y33.0200 
G01 Z-1.500000
G01 Z2.000000
(G00 Z2.000000)
G00 X57.1500 Y7.6200 
G01 Z-1.500000
G01 Z2.000000
(G00 Z2.000000)
G00 X59.6900 Y33.0200 
G01 Z-1.500000
G01 Z2.000000
(G00 Z2.000000)
G00 X59.6900 Y7.6200 
G01 Z-1.500000
G01 Z2.000000
(G00 Z2.000000)
G00 X60.9600 Y44.4500 
G01 Z-1.500000
G01 Z2.000000
(G00 Z2.000000)
G00 X62.2300 Y33.0200 
G01 Z-1.500000
G01 Z2.000000
(G00 Z2.000000)
G00 X62.2300 Y7.6200 
G01 Z-1.500000
G01 Z2.000000
(G00 Z2.000000)
G00 X63.5000 Y44.4500 
G01 Z-1.500000
G01 Z2.000000
(G00 Z2.000000)
G00 X64.7700 Y33.0200 
G01 Z-1.500000
G01 Z2.000000
(G00 Z2.000000)
G00 X64.7700 Y7.6200 
G01 Z-1.500000
G01 Z2.000000
(G00 Z2.000000)
G00 X66.0400 Y44.4500 
G01 Z-1.500000
G01 Z2.000000
(G00 Z2.000000)
G00 X67.3100 Y33.0200 
G01 Z-1.500000
G01 Z2.000000
(G00 Z2.000000)
G00 X67.3100 Y7.6200 
G01 Z-1.500000
G01 Z2.000000
(G00 Z2.000000)
G00 X69.8500 Y33.0200 
G01 Z-1.500000
G01 Z2.000000
(G00 Z2.000000)
G00 X69.8500 Y7.6200 
G01 Z-1.500000
G01 Z2.000000
(G00 Z2.000000)
G00 X72.3900 Y33.0200 
G01 Z-1.500000
G01 Z2.000000
(G00 Z2.000000)
G00 X72.3900 Y7.6200 
G01 Z-1.500000
G01 Z2.000000
(G00 Z2.000000)
G00 X74.9300 Y33.0200 
G01 Z-1.500000
G01 Z2.000000
(G00 Z2.000000)
G00 X74.9300 Y7.6200 
G01 Z-1.500000
G01 Z2.000000
(G00 Z2.000000)
G00 X77.4700 Y33.0200 
G01 Z-1.500000
G01 Z2.000000
(G00 Z2.000000)
G00 X77.4700 Y7.6200 
G01 Z-1.500000
G01 Z2.000000
(G00 Z2.000000)
G00 X87.6300 Y44.4500 
G01 Z-1.500000
G01 Z2.000000
(G00 Z2.000000)
G00 X87.6300 Y46.9900 
G01 Z-1.500000
G01 Z2.000000
(G00 Z2.000000)
G00 X87.6300 Y16.5100 
G01 Z-1.500000
G01 Z2.000000
(G00 Z2.000000)
G00 X87.6300 Y19.0500 
G01 Z-1.500000
G01 Z2.000000
(G00 Z2.000000)
G00 X87.6300 Y21.5900 
G01 Z-1.500000
G01 Z2.000000
(G00 Z2.000000)
G00 X87.6300 Y24.1300 
G01 Z-1.500000
G01 Z2.000000
(G00 Z2.000000)
G00 X8.8900 Y27.9400 
G01 Z-1.500000
G01 Z2.000000
(G00 Z2.000000)
G00 X8.8900 Y30.4800 
G01 Z-1.500000
G01 Z2.000000
(G00 Z2.000000)
G00 X27.9400 Y44.4500 
G01 Z-1.500000
G01 Z2.000000
(G00 Z2.000000)
G00 X30.4800 Y44.4500 
G01 Z-1.500000
G01 Z2.000000
T01 
G00 Z25.0000 
M05
M02
