(.../pcb-gcode-3.6.0.4/pcb-gcode.ulp)
(Copyright 2005 - 2012 by John Johnson)
(See readme.txt for licensing terms.)
(This file generated from the board:)
(.../Documents/eagle/Globe V2/Globe V2.brd)
(Current profile is .../pcb-gcode-3.6.0.4/profiles/generic.pp  )
(This file generated 27.01.2018 15:32)
(Settings from pcb-machine.h)
(  Tool Size)
(0.9000 )
(Z Axis Settings)
(  High     Up        Down     Drill)
(22.0000 	22.0000 	-0.1000 	-1.4000 )
(spindle on time = 3.0000)
(milling depth = -0.2000)
(text depth = -0.1000)
(tool change at 20.0000 -15.0000 40.0000 )
(feed rate xy = F50.00 )
(feed rate z  = F30.00 )
(Settings from pcb-defaults.h)
(isolate min = 0.0200)
(isolate max = 1.0000)
(isolate step = 0.1000)
(Generated top outlines, top drill, )
(Unit of measure: mm)
(Metric Mode)
G21
(Absolute Coordinates)
G90
G00 Z22.0000 
G00 X0.0000 Y0.0000 
M03
G04 P3.000000
G00 Z22.0000 
G00 X14.7392 Y21.1008 
G01 Z-0.1000 F30.00 
G01 X14.3332 Y20.6948 F50.00 
G01 X13.8358 Y20.4076 
G01 X13.2811 Y20.2590 
G01 X12.7069 Y20.2590 
G01 X12.1522 Y20.4076 
G01 X11.6548 Y20.6948 
G01 X11.2488 Y21.1008 
G01 X10.9616 Y21.5982 
G01 X10.8130 Y22.1529 
G01 X10.8130 Y22.7271 
G01 X10.9616 Y23.2818 
G01 X11.2488 Y23.7792 
G01 X11.6548 Y24.1852 
G01 X12.1522 Y24.4724 
G01 X12.7069 Y24.6210 
G01 X13.2811 Y24.6210 
G01 X13.8358 Y24.4724 
G01 X14.3332 Y24.1852 
G01 X14.7392 Y23.7792 
G01 X15.0264 Y23.2818 
G01 X15.1750 Y22.7271 
G01 X15.1750 Y22.1529 
G01 X15.0264 Y21.5982 
G01 X14.7392 Y21.1008 
G00 Z22.0000 
G00 X66.4217 Y28.7051 
G01 Z-0.1000 F30.00 
G01 X66.4817 Y28.8895 F50.00 
G01 X66.5120 Y29.0810 
G01 X66.5120 Y30.7990 
G01 X66.4817 Y30.9905 
G01 X66.4217 Y31.1749 
G01 X66.4153 Y31.1876 
G01 X66.4323 Y31.1946 
G01 X66.4804 Y31.2268 
G01 X66.5310 Y31.2551 
G01 X66.5604 Y31.2802 
G01 X66.5925 Y31.3017 
G01 X66.6334 Y31.3426 
G01 X66.6775 Y31.3802 
G01 X66.7014 Y31.4105 
G01 X67.0881 Y31.7973 
G01 X67.5630 Y31.9940 
G01 X68.0968 Y31.9940 
G01 X68.2477 Y31.9640 
G01 X68.4403 Y31.9640 
G01 X68.6261 Y32.0009 
G01 X68.6293 Y32.0016 
G01 X68.7625 Y32.0568 
G01 X68.8072 Y32.0753 
G01 X68.9129 Y32.1459 
G01 X68.9674 Y32.1823 
G01 X69.1015 Y32.3164 
G01 X69.1667 Y32.4128 
G01 X69.2107 Y32.4787 
G01 X69.2351 Y32.5377 
G01 X69.2844 Y32.6567 
G01 X69.2917 Y32.6932 
G01 X69.3220 Y32.8456 
G01 X69.3220 Y35.6765 
G01 X69.4800 Y36.0580 
G01 X69.5491 Y36.1270 
G01 X69.6554 Y36.2851 
G01 X69.6583 Y36.2894 
G01 X69.7132 Y36.4221 
G01 X69.7320 Y36.4674 
G01 X69.7464 Y36.5399 
G01 X70.4669 Y37.2604 
G01 X71.4531 Y37.2604 
G01 X72.1504 Y36.5631 
G01 X72.1504 Y35.5769 
G01 X71.6163 Y35.0429 
G01 X71.5093 Y34.8827 
G01 X71.4356 Y34.7047 
G01 X71.3980 Y34.5157 
G01 X71.3980 Y32.8456 
G01 X71.4275 Y32.6974 
G01 X71.4356 Y32.6567 
G01 X71.4831 Y32.5419 
G01 X71.5093 Y32.4787 
G01 X71.5516 Y32.4154 
G01 X71.6163 Y32.3185 
G01 X71.7526 Y32.1823 
G01 X71.8029 Y32.1487 
G01 X71.9127 Y32.0753 
G01 X71.9544 Y32.0580 
G01 X72.0907 Y32.0016 
G01 X72.2797 Y31.9640 
G01 X72.4723 Y31.9640 
G01 X72.6205 Y31.9935 
G01 X72.6232 Y31.9940 
G01 X73.1570 Y31.9940 
G01 X73.7067 Y31.7663 
G01 X73.7319 Y31.7559 
G01 X73.8847 Y31.6926 
G01 X74.0737 Y31.6550 
G01 X74.2663 Y31.6550 
G01 X74.4553 Y31.6926 
G01 X74.5509 Y31.7322 
G01 X74.6333 Y31.7663 
G01 X75.1830 Y31.9940 
G01 X75.6970 Y31.9940 
G01 X76.2467 Y31.7663 
G01 X76.2719 Y31.7559 
G01 X76.4247 Y31.6926 
G01 X76.6137 Y31.6550 
G01 X76.8063 Y31.6550 
G01 X76.9953 Y31.6926 
G01 X77.0909 Y31.7322 
G01 X77.1733 Y31.7663 
G01 X77.7230 Y31.9940 
G01 X78.2370 Y31.9940 
G01 X78.7867 Y31.7663 
G01 X78.8119 Y31.7559 
G01 X78.9647 Y31.6926 
G01 X79.1537 Y31.6550 
G01 X79.3463 Y31.6550 
G01 X79.5353 Y31.6926 
G01 X79.6309 Y31.7322 
G01 X79.7133 Y31.7663 
G01 X80.2630 Y31.9940 
G01 X80.7770 Y31.9940 
G01 X81.3267 Y31.7663 
G01 X81.4516 Y31.7145 
G01 X81.5047 Y31.6926 
G01 X81.5788 Y31.6778 
G01 X81.6937 Y31.6550 
G01 X81.8863 Y31.6550 
G01 X82.0099 Y31.6796 
G01 X82.0753 Y31.6926 
G01 X82.8030 Y31.9940 
G01 X83.3170 Y31.9940 
G01 X83.8667 Y31.7663 
G01 X83.9916 Y31.7145 
G01 X84.0447 Y31.6926 
G01 X84.1188 Y31.6778 
G01 X84.2337 Y31.6550 
G01 X84.4263 Y31.6550 
G01 X84.5499 Y31.6796 
G01 X84.6153 Y31.6926 
G01 X85.3430 Y31.9940 
G01 X85.8570 Y31.9940 
G01 X86.4067 Y31.7663 
G01 X86.5847 Y31.6926 
G01 X86.7355 Y31.6626 
G01 X86.7737 Y31.6550 
G01 X86.9663 Y31.6550 
G01 X87.1539 Y31.6923 
G01 X87.8830 Y31.9940 
G01 X88.3970 Y31.9940 
G01 X88.9467 Y31.7663 
G01 X89.0716 Y31.7145 
G01 X89.1247 Y31.6926 
G01 X89.1988 Y31.6778 
G01 X89.3137 Y31.6550 
G01 X89.5063 Y31.6550 
G01 X89.6299 Y31.6796 
G01 X89.6953 Y31.6926 
G01 X90.4230 Y31.9940 
G01 X90.9370 Y31.9940 
G01 X91.4867 Y31.7663 
G01 X91.6116 Y31.7145 
G01 X91.6647 Y31.6926 
G01 X91.7388 Y31.6778 
G01 X91.8537 Y31.6550 
G01 X92.0463 Y31.6550 
G01 X92.1699 Y31.6796 
G01 X92.2353 Y31.6926 
G01 X92.9630 Y31.9940 
G01 X93.4770 Y31.9940 
G01 X94.0267 Y31.7663 
G01 X94.1516 Y31.7145 
G01 X94.2047 Y31.6926 
G01 X94.2788 Y31.6778 
G01 X94.3937 Y31.6550 
G01 X94.5863 Y31.6550 
G01 X94.7099 Y31.6796 
G01 X94.7753 Y31.6926 
G01 X95.5030 Y31.9940 
G01 X96.0170 Y31.9940 
G01 X96.4919 Y31.7973 
G01 X96.8553 Y31.4339 
G01 X97.0520 Y30.9590 
G01 X97.0520 Y28.9210 
G01 X96.8553 Y28.4461 
G01 X96.4919 Y28.0827 
G01 X96.0170 Y27.8860 
G01 X95.5030 Y27.8860 
G01 X94.7753 Y28.1874 
G01 X94.7135 Y28.1997 
G01 X94.5863 Y28.2250 
G01 X94.3937 Y28.2250 
G01 X94.2831 Y28.2030 
G01 X94.2047 Y28.1874 
G01 X94.1566 Y28.1675 
G01 X94.0267 Y28.1137 
G01 X93.4770 Y27.8860 
G01 X92.9630 Y27.8860 
G01 X92.2353 Y28.1874 
G01 X92.1735 Y28.1997 
G01 X92.0463 Y28.2250 
G01 X91.8537 Y28.2250 
G01 X91.7431 Y28.2030 
G01 X91.6647 Y28.1874 
G01 X91.6166 Y28.1675 
G01 X91.4867 Y28.1137 
G01 X90.9370 Y27.8860 
G01 X90.4230 Y27.8860 
G01 X89.6953 Y28.1874 
G01 X89.6335 Y28.1997 
G01 X89.5063 Y28.2250 
G01 X89.3137 Y28.2250 
G01 X89.2031 Y28.2030 
G01 X89.1247 Y28.1874 
G01 X89.0766 Y28.1675 
G01 X88.9467 Y28.1137 
G01 X88.3970 Y27.8860 
G01 X87.8830 Y27.8860 
G01 X87.1553 Y28.1874 
G01 X87.0935 Y28.1997 
G01 X86.9663 Y28.2250 
G01 X86.7737 Y28.2250 
G01 X86.6631 Y28.2030 
G01 X86.5847 Y28.1874 
G01 X86.5366 Y28.1675 
G01 X86.4067 Y28.1137 
G01 X85.8570 Y27.8860 
G01 X85.3430 Y27.8860 
G01 X84.6153 Y28.1874 
G01 X84.5535 Y28.1997 
G01 X84.4263 Y28.2250 
G01 X84.2337 Y28.2250 
G01 X84.1231 Y28.2030 
G01 X84.0447 Y28.1874 
G01 X83.9966 Y28.1675 
G01 X83.8667 Y28.1137 
G01 X83.3170 Y27.8860 
G01 X82.8030 Y27.8860 
G01 X82.0753 Y28.1874 
G01 X82.0135 Y28.1997 
G01 X81.8863 Y28.2250 
G01 X81.6937 Y28.2250 
G01 X81.5831 Y28.2030 
G01 X81.5047 Y28.1874 
G01 X81.4566 Y28.1675 
G01 X81.3267 Y28.1137 
G01 X80.7770 Y27.8860 
G01 X80.2630 Y27.8860 
G01 X79.7133 Y28.1137 
G01 X79.6365 Y28.1455 
G01 X79.5353 Y28.1874 
G01 X79.3463 Y28.2250 
G01 X79.1537 Y28.2250 
G01 X78.9647 Y28.1874 
G01 X78.8205 Y28.1277 
G01 X78.7867 Y28.1137 
G01 X78.2370 Y27.8860 
G01 X77.7230 Y27.8860 
G01 X77.1733 Y28.1137 
G01 X77.0965 Y28.1455 
G01 X76.9953 Y28.1874 
G01 X76.8063 Y28.2250 
G01 X76.6137 Y28.2250 
G01 X76.4247 Y28.1874 
G01 X76.2805 Y28.1277 
G01 X76.2467 Y28.1137 
G01 X75.6970 Y27.8860 
G01 X75.1830 Y27.8860 
G01 X74.6333 Y28.1137 
G01 X74.5565 Y28.1455 
G01 X74.4553 Y28.1874 
G01 X74.2663 Y28.2250 
G01 X74.0737 Y28.2250 
G01 X73.8847 Y28.1874 
G01 X73.7405 Y28.1277 
G01 X73.7067 Y28.1137 
G01 X73.1570 Y27.8860 
G01 X72.6430 Y27.8860 
G01 X72.0933 Y28.1137 
G01 X72.0165 Y28.1455 
G01 X71.9153 Y28.1874 
G01 X71.7263 Y28.2250 
G01 X71.5337 Y28.2250 
G01 X71.3447 Y28.1874 
G01 X71.2005 Y28.1277 
G01 X71.1667 Y28.1137 
G01 X70.6170 Y27.8860 
G01 X70.1030 Y27.8860 
G01 X69.5533 Y28.1137 
G01 X69.4765 Y28.1455 
G01 X69.3753 Y28.1874 
G01 X69.1863 Y28.2250 
G01 X68.9937 Y28.2250 
G01 X68.8047 Y28.1874 
G01 X68.6605 Y28.1277 
G01 X68.6267 Y28.1137 
G01 X68.0770 Y27.8860 
G01 X67.5630 Y27.8860 
G01 X67.0881 Y28.0827 
G01 X66.7014 Y28.4694 
G01 X66.6775 Y28.4998 
G01 X66.6334 Y28.5374 
G01 X66.5925 Y28.5783 
G01 X66.5604 Y28.5998 
G01 X66.5310 Y28.6249 
G01 X66.4804 Y28.6532 
G01 X66.4323 Y28.6854 
G01 X66.4153 Y28.6924 
G01 X66.4217 Y28.7051 
G00 Z22.0000 
G00 X94.5280 Y30.7990 
G01 Z-0.1000 F30.00 
G01 X94.5280 Y29.0810 F50.00 
G01 X94.5583 Y28.8895 
G01 X94.6183 Y28.7051 
G01 X94.7063 Y28.5323 
G01 X94.8203 Y28.3754 
G01 X94.9574 Y28.2383 
G01 X95.1143 Y28.1243 
G01 X95.2871 Y28.0363 
G01 X95.4715 Y27.9763 
G01 X95.6630 Y27.9460 
G01 X95.8570 Y27.9460 
G01 X96.0485 Y27.9763 
G01 X96.2329 Y28.0363 
G01 X96.4057 Y28.1243 
G01 X96.5626 Y28.2383 
G01 X96.6997 Y28.3754 
G01 X96.8137 Y28.5323 
G01 X96.9017 Y28.7051 
G01 X96.9617 Y28.8895 
G01 X96.9920 Y29.0810 
G01 X96.9920 Y30.7990 
G01 X96.9617 Y30.9905 
G01 X96.9017 Y31.1749 
G01 X96.8137 Y31.3477 
G01 X96.6997 Y31.5046 
G01 X96.5626 Y31.6417 
G01 X96.4057 Y31.7557 
G01 X96.2329 Y31.8437 
G01 X96.0485 Y31.9037 
G01 X95.8570 Y31.9340 
G01 X95.6630 Y31.9340 
G01 X95.4715 Y31.9037 
G01 X95.2871 Y31.8437 
G01 X95.1143 Y31.7557 
G01 X94.9574 Y31.6417 
G01 X94.8203 Y31.5046 
G01 X94.7063 Y31.3477 
G01 X94.6183 Y31.1749 
G01 X94.5583 Y30.9905 
G01 X94.5280 Y30.7990 
G00 Z22.0000 
G00 X91.9880 Y30.7990 
G01 Z-0.1000 F30.00 
G01 X91.9880 Y29.0810 F50.00 
G01 X92.0183 Y28.8895 
G01 X92.0783 Y28.7051 
G01 X92.1663 Y28.5323 
G01 X92.2803 Y28.3754 
G01 X92.4174 Y28.2383 
G01 X92.5743 Y28.1243 
G01 X92.7471 Y28.0363 
G01 X92.9315 Y27.9763 
G01 X93.1230 Y27.9460 
G01 X93.3170 Y27.9460 
G01 X93.5085 Y27.9763 
G01 X93.6929 Y28.0363 
G01 X93.8657 Y28.1243 
G01 X94.0226 Y28.2383 
G01 X94.1597 Y28.3754 
G01 X94.2737 Y28.5323 
G01 X94.3617 Y28.7051 
G01 X94.4217 Y28.8895 
G01 X94.4520 Y29.0810 
G01 X94.4520 Y30.7990 
G01 X94.4217 Y30.9905 
G01 X94.3617 Y31.1749 
G01 X94.2737 Y31.3477 
G01 X94.1597 Y31.5046 
G01 X94.0226 Y31.6417 
G01 X93.8657 Y31.7557 
G01 X93.6929 Y31.8437 
G01 X93.5085 Y31.9037 
G01 X93.3170 Y31.9340 
G01 X93.1230 Y31.9340 
G01 X92.9315 Y31.9037 
G01 X92.7471 Y31.8437 
G01 X92.5743 Y31.7557 
G01 X92.4174 Y31.6417 
G01 X92.2803 Y31.5046 
G01 X92.1663 Y31.3477 
G01 X92.0783 Y31.1749 
G01 X92.0183 Y30.9905 
G01 X91.9880 Y30.7990 
G00 Z22.0000 
G00 X89.4480 Y30.7990 
G01 Z-0.1000 F30.00 
G01 X89.4480 Y29.0810 F50.00 
G01 X89.4783 Y28.8895 
G01 X89.5383 Y28.7051 
G01 X89.6263 Y28.5323 
G01 X89.7403 Y28.3754 
G01 X89.8774 Y28.2383 
G01 X90.0343 Y28.1243 
G01 X90.2071 Y28.0363 
G01 X90.3915 Y27.9763 
G01 X90.5830 Y27.9460 
G01 X90.7770 Y27.9460 
G01 X90.9685 Y27.9763 
G01 X91.1529 Y28.0363 
G01 X91.3257 Y28.1243 
G01 X91.4826 Y28.2383 
G01 X91.6197 Y28.3754 
G01 X91.7337 Y28.5323 
G01 X91.8217 Y28.7051 
G01 X91.8817 Y28.8895 
G01 X91.9120 Y29.0810 
G01 X91.9120 Y30.7990 
G01 X91.8817 Y30.9905 
G01 X91.8217 Y31.1749 
G01 X91.7337 Y31.3477 
G01 X91.6197 Y31.5046 
G01 X91.4826 Y31.6417 
G01 X91.3257 Y31.7557 
G01 X91.1529 Y31.8437 
G01 X90.9685 Y31.9037 
G01 X90.7770 Y31.9340 
G01 X90.5830 Y31.9340 
G01 X90.3915 Y31.9037 
G01 X90.2071 Y31.8437 
G01 X90.0343 Y31.7557 
G01 X89.8774 Y31.6417 
G01 X89.7403 Y31.5046 
G01 X89.6263 Y31.3477 
G01 X89.5383 Y31.1749 
G01 X89.4783 Y30.9905 
G01 X89.4480 Y30.7990 
G00 Z22.0000 
G00 X86.9080 Y30.7990 
G01 Z-0.1000 F30.00 
G01 X86.9080 Y29.0810 F50.00 
G01 X86.9383 Y28.8895 
G01 X86.9983 Y28.7051 
G01 X87.0863 Y28.5323 
G01 X87.2003 Y28.3754 
G01 X87.3374 Y28.2383 
G01 X87.4943 Y28.1243 
G01 X87.6671 Y28.0363 
G01 X87.8515 Y27.9763 
G01 X88.0430 Y27.9460 
G01 X88.2370 Y27.9460 
G01 X88.4285 Y27.9763 
G01 X88.6129 Y28.0363 
G01 X88.7857 Y28.1243 
G01 X88.9426 Y28.2383 
G01 X89.0797 Y28.3754 
G01 X89.1937 Y28.5323 
G01 X89.2817 Y28.7051 
G01 X89.3417 Y28.8895 
G01 X89.3720 Y29.0810 
G01 X89.3720 Y30.7990 
G01 X89.3417 Y30.9905 
G01 X89.2817 Y31.1749 
G01 X89.1937 Y31.3477 
G01 X89.0797 Y31.5046 
G01 X88.9426 Y31.6417 
G01 X88.7857 Y31.7557 
G01 X88.6129 Y31.8437 
G01 X88.4285 Y31.9037 
G01 X88.2370 Y31.9340 
G01 X88.0430 Y31.9340 
G01 X87.8515 Y31.9037 
G01 X87.6671 Y31.8437 
G01 X87.4943 Y31.7557 
G01 X87.3374 Y31.6417 
G01 X87.2003 Y31.5046 
G01 X87.0863 Y31.3477 
G01 X86.9983 Y31.1749 
G01 X86.9383 Y30.9905 
G01 X86.9080 Y30.7990 
G00 Z22.0000 
G00 X84.3680 Y30.7990 
G01 Z-0.1000 F30.00 
G01 X84.3680 Y29.0810 F50.00 
G01 X84.3983 Y28.8895 
G01 X84.4583 Y28.7051 
G01 X84.5463 Y28.5323 
G01 X84.6603 Y28.3754 
G01 X84.7974 Y28.2383 
G01 X84.9543 Y28.1243 
G01 X85.1271 Y28.0363 
G01 X85.3115 Y27.9763 
G01 X85.5030 Y27.9460 
G01 X85.6970 Y27.9460 
G01 X85.8885 Y27.9763 
G01 X86.0729 Y28.0363 
G01 X86.2457 Y28.1243 
G01 X86.4026 Y28.2383 
G01 X86.5397 Y28.3754 
G01 X86.6537 Y28.5323 
G01 X86.7417 Y28.7051 
G01 X86.8017 Y28.8895 
G01 X86.8320 Y29.0810 
G01 X86.8320 Y30.7990 
G01 X86.8017 Y30.9905 
G01 X86.7417 Y31.1749 
G01 X86.6537 Y31.3477 
G01 X86.5397 Y31.5046 
G01 X86.4026 Y31.6417 
G01 X86.2457 Y31.7557 
G01 X86.0729 Y31.8437 
G01 X85.8885 Y31.9037 
G01 X85.6970 Y31.9340 
G01 X85.5030 Y31.9340 
G01 X85.3115 Y31.9037 
G01 X85.1271 Y31.8437 
G01 X84.9543 Y31.7557 
G01 X84.7974 Y31.6417 
G01 X84.6603 Y31.5046 
G01 X84.5463 Y31.3477 
G01 X84.4583 Y31.1749 
G01 X84.3983 Y30.9905 
G01 X84.3680 Y30.7990 
G00 Z22.0000 
G00 X81.8280 Y30.7990 
G01 Z-0.1000 F30.00 
G01 X81.8280 Y29.0810 F50.00 
G01 X81.8583 Y28.8895 
G01 X81.9183 Y28.7051 
G01 X82.0063 Y28.5323 
G01 X82.1203 Y28.3754 
G01 X82.2574 Y28.2383 
G01 X82.4143 Y28.1243 
G01 X82.5871 Y28.0363 
G01 X82.7715 Y27.9763 
G01 X82.9630 Y27.9460 
G01 X83.1570 Y27.9460 
G01 X83.3485 Y27.9763 
G01 X83.5329 Y28.0363 
G01 X83.7057 Y28.1243 
G01 X83.8626 Y28.2383 
G01 X83.9997 Y28.3754 
G01 X84.1137 Y28.5323 
G01 X84.2017 Y28.7051 
G01 X84.2617 Y28.8895 
G01 X84.2920 Y29.0810 
G01 X84.2920 Y30.7990 
G01 X84.2617 Y30.9905 
G01 X84.2017 Y31.1749 
G01 X84.1137 Y31.3477 
G01 X83.9997 Y31.5046 
G01 X83.8626 Y31.6417 
G01 X83.7057 Y31.7557 
G01 X83.5329 Y31.8437 
G01 X83.3485 Y31.9037 
G01 X83.1570 Y31.9340 
G01 X82.9630 Y31.9340 
G01 X82.7715 Y31.9037 
G01 X82.5871 Y31.8437 
G01 X82.4143 Y31.7557 
G01 X82.2574 Y31.6417 
G01 X82.1203 Y31.5046 
G01 X82.0063 Y31.3477 
G01 X81.9183 Y31.1749 
G01 X81.8583 Y30.9905 
G01 X81.8280 Y30.7990 
G00 Z22.0000 
G00 X79.2880 Y30.7990 
G01 Z-0.1000 F30.00 
G01 X79.2880 Y29.0810 F50.00 
G01 X79.3183 Y28.8895 
G01 X79.3783 Y28.7051 
G01 X79.4663 Y28.5323 
G01 X79.5803 Y28.3754 
G01 X79.7174 Y28.2383 
G01 X79.8743 Y28.1243 
G01 X80.0471 Y28.0363 
G01 X80.2315 Y27.9763 
G01 X80.4230 Y27.9460 
G01 X80.6170 Y27.9460 
G01 X80.8085 Y27.9763 
G01 X80.9929 Y28.0363 
G01 X81.1657 Y28.1243 
G01 X81.3226 Y28.2383 
G01 X81.4597 Y28.3754 
G01 X81.5737 Y28.5323 
G01 X81.6617 Y28.7051 
G01 X81.7217 Y28.8895 
G01 X81.7520 Y29.0810 
G01 X81.7520 Y30.7990 
G01 X81.7217 Y30.9905 
G01 X81.6617 Y31.1749 
G01 X81.5737 Y31.3477 
G01 X81.4597 Y31.5046 
G01 X81.3226 Y31.6417 
G01 X81.1657 Y31.7557 
G01 X80.9929 Y31.8437 
G01 X80.8085 Y31.9037 
G01 X80.6170 Y31.9340 
G01 X80.4230 Y31.9340 
G01 X80.2315 Y31.9037 
G01 X80.0471 Y31.8437 
G01 X79.8743 Y31.7557 
G01 X79.7174 Y31.6417 
G01 X79.5803 Y31.5046 
G01 X79.4663 Y31.3477 
G01 X79.3783 Y31.1749 
G01 X79.3183 Y30.9905 
G01 X79.2880 Y30.7990 
G00 Z22.0000 
G00 X76.7480 Y30.7990 
G01 Z-0.1000 F30.00 
G01 X76.7480 Y29.0810 F50.00 
G01 X76.7783 Y28.8895 
G01 X76.8383 Y28.7051 
G01 X76.9263 Y28.5323 
G01 X77.0403 Y28.3754 
G01 X77.1774 Y28.2383 
G01 X77.3343 Y28.1243 
G01 X77.5071 Y28.0363 
G01 X77.6915 Y27.9763 
G01 X77.8830 Y27.9460 
G01 X78.0770 Y27.9460 
G01 X78.2685 Y27.9763 
G01 X78.4529 Y28.0363 
G01 X78.6257 Y28.1243 
G01 X78.7826 Y28.2383 
G01 X78.9197 Y28.3754 
G01 X79.0337 Y28.5323 
G01 X79.1217 Y28.7051 
G01 X79.1817 Y28.8895 
G01 X79.2120 Y29.0810 
G01 X79.2120 Y30.7990 
G01 X79.1817 Y30.9905 
G01 X79.1217 Y31.1749 
G01 X79.0337 Y31.3477 
G01 X78.9197 Y31.5046 
G01 X78.7826 Y31.6417 
G01 X78.6257 Y31.7557 
G01 X78.4529 Y31.8437 
G01 X78.2685 Y31.9037 
G01 X78.0770 Y31.9340 
G01 X77.8830 Y31.9340 
G01 X77.6915 Y31.9037 
G01 X77.5071 Y31.8437 
G01 X77.3343 Y31.7557 
G01 X77.1774 Y31.6417 
G01 X77.0403 Y31.5046 
G01 X76.9263 Y31.3477 
G01 X76.8383 Y31.1749 
G01 X76.7783 Y30.9905 
G01 X76.7480 Y30.7990 
G00 Z22.0000 
G00 X74.2080 Y30.7990 
G01 Z-0.1000 F30.00 
G01 X74.2080 Y29.0810 F50.00 
G01 X74.2383 Y28.8895 
G01 X74.2983 Y28.7051 
G01 X74.3863 Y28.5323 
G01 X74.5003 Y28.3754 
G01 X74.6374 Y28.2383 
G01 X74.7943 Y28.1243 
G01 X74.9671 Y28.0363 
G01 X75.1515 Y27.9763 
G01 X75.3430 Y27.9460 
G01 X75.5370 Y27.9460 
G01 X75.7285 Y27.9763 
G01 X75.9129 Y28.0363 
G01 X76.0857 Y28.1243 
G01 X76.2426 Y28.2383 
G01 X76.3797 Y28.3754 
G01 X76.4937 Y28.5323 
G01 X76.5817 Y28.7051 
G01 X76.6417 Y28.8895 
G01 X76.6720 Y29.0810 
G01 X76.6720 Y30.7990 
G01 X76.6417 Y30.9905 
G01 X76.5817 Y31.1749 
G01 X76.4937 Y31.3477 
G01 X76.3797 Y31.5046 
G01 X76.2426 Y31.6417 
G01 X76.0857 Y31.7557 
G01 X75.9129 Y31.8437 
G01 X75.7285 Y31.9037 
G01 X75.5370 Y31.9340 
G01 X75.3430 Y31.9340 
G01 X75.1515 Y31.9037 
G01 X74.9671 Y31.8437 
G01 X74.7943 Y31.7557 
G01 X74.6374 Y31.6417 
G01 X74.5003 Y31.5046 
G01 X74.3863 Y31.3477 
G01 X74.2983 Y31.1749 
G01 X74.2383 Y30.9905 
G01 X74.2080 Y30.7990 
G00 Z22.0000 
G00 X71.6680 Y30.7990 
G01 Z-0.1000 F30.00 
G01 X71.6680 Y29.0810 F50.00 
G01 X71.6983 Y28.8895 
G01 X71.7583 Y28.7051 
G01 X71.8463 Y28.5323 
G01 X71.9603 Y28.3754 
G01 X72.0974 Y28.2383 
G01 X72.2543 Y28.1243 
G01 X72.4271 Y28.0363 
G01 X72.6115 Y27.9763 
G01 X72.8030 Y27.9460 
G01 X72.9970 Y27.9460 
G01 X73.1885 Y27.9763 
G01 X73.3729 Y28.0363 
G01 X73.5457 Y28.1243 
G01 X73.7026 Y28.2383 
G01 X73.8397 Y28.3754 
G01 X73.9537 Y28.5323 
G01 X74.0417 Y28.7051 
G01 X74.1017 Y28.8895 
G01 X74.1320 Y29.0810 
G01 X74.1320 Y30.7990 
G01 X74.1017 Y30.9905 
G01 X74.0417 Y31.1749 
G01 X73.9537 Y31.3477 
G01 X73.8397 Y31.5046 
G01 X73.7026 Y31.6417 
G01 X73.5457 Y31.7557 
G01 X73.3729 Y31.8437 
G01 X73.1885 Y31.9037 
G01 X72.9970 Y31.9340 
G01 X72.8030 Y31.9340 
G01 X72.6115 Y31.9037 
G01 X72.4271 Y31.8437 
G01 X72.2543 Y31.7557 
G01 X72.0974 Y31.6417 
G01 X71.9603 Y31.5046 
G01 X71.8463 Y31.3477 
G01 X71.7583 Y31.1749 
G01 X71.6983 Y30.9905 
G01 X71.6680 Y30.7990 
G00 Z22.0000 
G00 X69.1280 Y30.7990 
G01 Z-0.1000 F30.00 
G01 X69.1280 Y29.0810 F50.00 
G01 X69.1583 Y28.8895 
G01 X69.2183 Y28.7051 
G01 X69.3063 Y28.5323 
G01 X69.4203 Y28.3754 
G01 X69.5574 Y28.2383 
G01 X69.7143 Y28.1243 
G01 X69.8871 Y28.0363 
G01 X70.0715 Y27.9763 
G01 X70.2630 Y27.9460 
G01 X70.4570 Y27.9460 
G01 X70.6485 Y27.9763 
G01 X70.8329 Y28.0363 
G01 X71.0057 Y28.1243 
G01 X71.1626 Y28.2383 
G01 X71.2997 Y28.3754 
G01 X71.4137 Y28.5323 
G01 X71.5017 Y28.7051 
G01 X71.5617 Y28.8895 
G01 X71.5920 Y29.0810 
G01 X71.5920 Y30.7990 
G01 X71.5617 Y30.9905 
G01 X71.5017 Y31.1749 
G01 X71.4137 Y31.3477 
G01 X71.3380 Y31.4519 
G01 X71.3380 Y34.9396 
G01 X71.4282 Y34.9396 
G01 X72.0904 Y35.6018 
G01 X72.0904 Y36.5382 
G01 X71.4282 Y37.2004 
G01 X70.4918 Y37.2004 
G01 X69.8296 Y36.5382 
G01 X69.8296 Y36.3227 
G01 X69.6003 Y36.0934 
G01 X69.4933 Y35.9333 
G01 X69.4196 Y35.7553 
G01 X69.3820 Y35.5663 
G01 X69.3820 Y31.4519 
G01 X69.3063 Y31.3477 
G01 X69.2183 Y31.1749 
G01 X69.1583 Y30.9905 
G01 X69.1280 Y30.7990 
G00 Z22.0000 
G00 X66.5880 Y30.7990 
G01 Z-0.1000 F30.00 
G01 X66.5880 Y29.0810 F50.00 
G01 X66.6183 Y28.8895 
G01 X66.6783 Y28.7051 
G01 X66.7663 Y28.5323 
G01 X66.8803 Y28.3754 
G01 X67.0174 Y28.2383 
G01 X67.1743 Y28.1243 
G01 X67.3471 Y28.0363 
G01 X67.5315 Y27.9763 
G01 X67.7230 Y27.9460 
G01 X67.9170 Y27.9460 
G01 X68.1085 Y27.9763 
G01 X68.2929 Y28.0363 
G01 X68.4657 Y28.1243 
G01 X68.6226 Y28.2383 
G01 X68.7597 Y28.3754 
G01 X68.8737 Y28.5323 
G01 X68.9617 Y28.7051 
G01 X69.0217 Y28.8895 
G01 X69.0520 Y29.0810 
G01 X69.0520 Y30.7990 
G01 X69.0217 Y30.9905 
G01 X68.9617 Y31.1749 
G01 X68.8737 Y31.3477 
G01 X68.7597 Y31.5046 
G01 X68.6226 Y31.6417 
G01 X68.4657 Y31.7557 
G01 X68.2929 Y31.8437 
G01 X68.1085 Y31.9037 
G01 X67.9170 Y31.9340 
G01 X67.7230 Y31.9340 
G01 X67.5315 Y31.9037 
G01 X67.3471 Y31.8437 
G01 X67.1743 Y31.7557 
G01 X67.0174 Y31.6417 
G01 X66.8803 Y31.5046 
G01 X66.7663 Y31.3477 
G01 X66.6783 Y31.1749 
G01 X66.6183 Y30.9905 
G01 X66.5880 Y30.7990 
G00 Z22.0000 
G00 X51.1817 Y28.7051 
G01 Z-0.1000 F30.00 
G01 X51.2417 Y28.8895 F50.00 
G01 X51.2720 Y29.0810 
G01 X51.2720 Y30.7990 
G01 X51.2417 Y30.9905 
G01 X51.1817 Y31.1749 
G01 X51.1087 Y31.3182 
G01 X51.1393 Y31.3423 
G01 X51.1874 Y31.3745 
G01 X51.2148 Y31.4018 
G01 X51.2451 Y31.4258 
G01 X51.2827 Y31.4698 
G01 X51.3237 Y31.5107 
G01 X51.3451 Y31.5429 
G01 X51.3702 Y31.5722 
G01 X51.3985 Y31.6227 
G01 X51.4307 Y31.6709 
G01 X51.4455 Y31.7066 
G01 X51.4644 Y31.7403 
G01 X51.4823 Y31.7954 
G01 X51.5044 Y31.8489 
G01 X51.5120 Y31.8868 
G01 X51.5239 Y31.9235 
G01 X51.5307 Y31.9811 
G01 X51.5420 Y32.0378 
G01 X51.5420 Y32.0765 
G01 X51.5465 Y32.1149 
G01 X51.5420 Y32.1726 
G01 X51.5420 Y32.6813 
G01 X51.5044 Y32.8702 
G01 X51.4307 Y33.0482 
G01 X51.3237 Y33.2084 
G01 X51.1874 Y33.3446 
G01 X50.7884 Y33.7437 
G01 X50.6282 Y33.8507 
G01 X50.4502 Y33.9244 
G01 X50.2613 Y33.9620 
G01 X48.7935 Y33.9620 
G01 X48.4120 Y34.1200 
G01 X45.0800 Y37.4520 
G01 X44.9220 Y37.8335 
G01 X44.9220 Y38.4157 
G01 X44.8844 Y38.6047 
G01 X44.8107 Y38.7827 
G01 X44.7696 Y38.8442 
G01 X44.7696 Y39.8631 
G01 X45.4669 Y40.5604 
G01 X46.4531 Y40.5604 
G01 X47.1504 Y39.8631 
G01 X47.1504 Y38.6263 
G01 X47.1880 Y38.4374 
G01 X47.2617 Y38.2594 
G01 X47.3687 Y38.0992 
G01 X47.5050 Y37.9630 
G01 X49.2116 Y36.2563 
G01 X49.2148 Y36.2542 
G01 X49.3718 Y36.1493 
G01 X49.5498 Y36.0756 
G01 X49.7387 Y36.0380 
G01 X51.2065 Y36.0380 
G01 X51.5880 Y35.8800 
G01 X52.0856 Y35.3823 
G01 X53.4600 Y34.0080 
G01 X53.6180 Y33.6265 
G01 X53.6180 Y32.8456 
G01 X53.6475 Y32.6974 
G01 X53.6556 Y32.6567 
G01 X53.7031 Y32.5419 
G01 X53.7293 Y32.4787 
G01 X53.7716 Y32.4154 
G01 X53.8363 Y32.3185 
G01 X53.9726 Y32.1823 
G01 X54.0229 Y32.1487 
G01 X54.1327 Y32.0753 
G01 X54.1744 Y32.0580 
G01 X54.3107 Y32.0016 
G01 X54.4997 Y31.9640 
G01 X54.6923 Y31.9640 
G01 X54.8405 Y31.9935 
G01 X54.8432 Y31.9940 
G01 X55.3770 Y31.9940 
G01 X55.9267 Y31.7663 
G01 X55.9519 Y31.7559 
G01 X56.1047 Y31.6926 
G01 X56.2937 Y31.6550 
G01 X56.4863 Y31.6550 
G01 X56.6753 Y31.6926 
G01 X56.7709 Y31.7322 
G01 X56.8533 Y31.7663 
G01 X57.4030 Y31.9940 
G01 X57.9170 Y31.9940 
G01 X58.4667 Y31.7663 
G01 X58.4919 Y31.7559 
G01 X58.6447 Y31.6926 
G01 X58.8337 Y31.6550 
G01 X59.0263 Y31.6550 
G01 X59.2153 Y31.6926 
G01 X59.3109 Y31.7322 
G01 X59.3933 Y31.7663 
G01 X59.9430 Y31.9940 
G01 X60.4570 Y31.9940 
G01 X61.0067 Y31.7663 
G01 X61.0319 Y31.7559 
G01 X61.1847 Y31.6926 
G01 X61.3737 Y31.6550 
G01 X61.5663 Y31.6550 
G01 X61.7553 Y31.6926 
G01 X61.8509 Y31.7322 
G01 X61.9333 Y31.7663 
G01 X62.4830 Y31.9940 
G01 X62.9970 Y31.9940 
G01 X63.4719 Y31.7973 
G01 X63.8586 Y31.4106 
G01 X63.8825 Y31.3802 
G01 X63.9266 Y31.3426 
G01 X63.9675 Y31.3017 
G01 X63.9996 Y31.2802 
G01 X64.0290 Y31.2551 
G01 X64.0795 Y31.2268 
G01 X64.1277 Y31.1946 
G01 X64.1447 Y31.1876 
G01 X64.1383 Y31.1749 
G01 X64.0783 Y30.9905 
G01 X64.0480 Y30.7990 
G01 X64.0480 Y29.0810 
G01 X64.0783 Y28.8895 
G01 X64.1383 Y28.7051 
G01 X64.1447 Y28.6924 
G01 X64.1277 Y28.6854 
G01 X64.0795 Y28.6532 
G01 X64.0290 Y28.6249 
G01 X63.9996 Y28.5998 
G01 X63.9675 Y28.5783 
G01 X63.9266 Y28.5374 
G01 X63.8825 Y28.4998 
G01 X63.8586 Y28.4694 
G01 X63.4719 Y28.0827 
G01 X62.9970 Y27.8860 
G01 X62.4830 Y27.8860 
G01 X61.9333 Y28.1137 
G01 X61.8565 Y28.1455 
G01 X61.7553 Y28.1874 
G01 X61.5663 Y28.2250 
G01 X61.3737 Y28.2250 
G01 X61.1847 Y28.1874 
G01 X61.0405 Y28.1277 
G01 X61.0067 Y28.1137 
G01 X60.4570 Y27.8860 
G01 X59.9430 Y27.8860 
G01 X59.3933 Y28.1137 
G01 X59.3165 Y28.1455 
G01 X59.2153 Y28.1874 
G01 X59.0263 Y28.2250 
G01 X58.8337 Y28.2250 
G01 X58.6447 Y28.1874 
G01 X58.5005 Y28.1277 
G01 X58.4667 Y28.1137 
G01 X57.9170 Y27.8860 
G01 X57.4030 Y27.8860 
G01 X56.8533 Y28.1137 
G01 X56.7765 Y28.1455 
G01 X56.6753 Y28.1874 
G01 X56.4863 Y28.2250 
G01 X56.2937 Y28.2250 
G01 X56.1047 Y28.1874 
G01 X55.9605 Y28.1277 
G01 X55.9267 Y28.1137 
G01 X55.3770 Y27.8860 
G01 X54.8630 Y27.8860 
G01 X54.3133 Y28.1137 
G01 X54.2365 Y28.1455 
G01 X54.1353 Y28.1874 
G01 X53.9463 Y28.2250 
G01 X53.7537 Y28.2250 
G01 X53.5647 Y28.1874 
G01 X53.4205 Y28.1277 
G01 X53.3867 Y28.1137 
G01 X52.8370 Y27.8860 
G01 X52.3230 Y27.8860 
G01 X51.8481 Y28.0827 
G01 X51.4614 Y28.4694 
G01 X51.4375 Y28.4998 
G01 X51.3935 Y28.5374 
G01 X51.3525 Y28.5783 
G01 X51.3204 Y28.5998 
G01 X51.2910 Y28.6249 
G01 X51.2404 Y28.6532 
G01 X51.1923 Y28.6854 
G01 X51.1753 Y28.6924 
G01 X51.1817 Y28.7051 
G00 Z22.0000 
G00 X61.5080 Y30.7990 
G01 Z-0.1000 F30.00 
G01 X61.5080 Y29.0810 F50.00 
G01 X61.5383 Y28.8895 
G01 X61.5983 Y28.7051 
G01 X61.6863 Y28.5323 
G01 X61.8003 Y28.3754 
G01 X61.9374 Y28.2383 
G01 X62.0943 Y28.1243 
G01 X62.2671 Y28.0363 
G01 X62.4515 Y27.9763 
G01 X62.6430 Y27.9460 
G01 X62.8370 Y27.9460 
G01 X63.0285 Y27.9763 
G01 X63.2129 Y28.0363 
G01 X63.3857 Y28.1243 
G01 X63.5426 Y28.2383 
G01 X63.6797 Y28.3754 
G01 X63.7937 Y28.5323 
G01 X63.8817 Y28.7051 
G01 X63.9417 Y28.8895 
G01 X63.9720 Y29.0810 
G01 X63.9720 Y30.7990 
G01 X63.9417 Y30.9905 
G01 X63.8817 Y31.1749 
G01 X63.7937 Y31.3477 
G01 X63.6797 Y31.5046 
G01 X63.5426 Y31.6417 
G01 X63.3857 Y31.7557 
G01 X63.2129 Y31.8437 
G01 X63.0285 Y31.9037 
G01 X62.8370 Y31.9340 
G01 X62.6430 Y31.9340 
G01 X62.4515 Y31.9037 
G01 X62.2671 Y31.8437 
G01 X62.0943 Y31.7557 
G01 X61.9374 Y31.6417 
G01 X61.8003 Y31.5046 
G01 X61.6863 Y31.3477 
G01 X61.5983 Y31.1749 
G01 X61.5383 Y30.9905 
G01 X61.5080 Y30.7990 
G00 Z22.0000 
G00 X58.9680 Y30.7990 
G01 Z-0.1000 F30.00 
G01 X58.9680 Y29.0810 F50.00 
G01 X58.9983 Y28.8895 
G01 X59.0583 Y28.7051 
G01 X59.1463 Y28.5323 
G01 X59.2603 Y28.3754 
G01 X59.3974 Y28.2383 
G01 X59.5543 Y28.1243 
G01 X59.7271 Y28.0363 
G01 X59.9115 Y27.9763 
G01 X60.1030 Y27.9460 
G01 X60.2970 Y27.9460 
G01 X60.4885 Y27.9763 
G01 X60.6729 Y28.0363 
G01 X60.8457 Y28.1243 
G01 X61.0026 Y28.2383 
G01 X61.1397 Y28.3754 
G01 X61.2537 Y28.5323 
G01 X61.3417 Y28.7051 
G01 X61.4017 Y28.8895 
G01 X61.4320 Y29.0810 
G01 X61.4320 Y30.7990 
G01 X61.4017 Y30.9905 
G01 X61.3417 Y31.1749 
G01 X61.2537 Y31.3477 
G01 X61.1397 Y31.5046 
G01 X61.0026 Y31.6417 
G01 X60.8457 Y31.7557 
G01 X60.6729 Y31.8437 
G01 X60.4885 Y31.9037 
G01 X60.2970 Y31.9340 
G01 X60.1030 Y31.9340 
G01 X59.9115 Y31.9037 
G01 X59.7271 Y31.8437 
G01 X59.5543 Y31.7557 
G01 X59.3974 Y31.6417 
G01 X59.2603 Y31.5046 
G01 X59.1463 Y31.3477 
G01 X59.0583 Y31.1749 
G01 X58.9983 Y30.9905 
G01 X58.9680 Y30.7990 
G00 Z22.0000 
G00 X56.4280 Y30.7990 
G01 Z-0.1000 F30.00 
G01 X56.4280 Y29.0810 F50.00 
G01 X56.4583 Y28.8895 
G01 X56.5183 Y28.7051 
G01 X56.6063 Y28.5323 
G01 X56.7203 Y28.3754 
G01 X56.8574 Y28.2383 
G01 X57.0143 Y28.1243 
G01 X57.1871 Y28.0363 
G01 X57.3715 Y27.9763 
G01 X57.5630 Y27.9460 
G01 X57.7570 Y27.9460 
G01 X57.9485 Y27.9763 
G01 X58.1329 Y28.0363 
G01 X58.3057 Y28.1243 
G01 X58.4626 Y28.2383 
G01 X58.5997 Y28.3754 
G01 X58.7137 Y28.5323 
G01 X58.8017 Y28.7051 
G01 X58.8617 Y28.8895 
G01 X58.8920 Y29.0810 
G01 X58.8920 Y30.7990 
G01 X58.8617 Y30.9905 
G01 X58.8017 Y31.1749 
G01 X58.7137 Y31.3477 
G01 X58.5997 Y31.5046 
G01 X58.4626 Y31.6417 
G01 X58.3057 Y31.7557 
G01 X58.1329 Y31.8437 
G01 X57.9485 Y31.9037 
G01 X57.7570 Y31.9340 
G01 X57.5630 Y31.9340 
G01 X57.3715 Y31.9037 
G01 X57.1871 Y31.8437 
G01 X57.0143 Y31.7557 
G01 X56.8574 Y31.6417 
G01 X56.7203 Y31.5046 
G01 X56.6063 Y31.3477 
G01 X56.5183 Y31.1749 
G01 X56.4583 Y30.9905 
G01 X56.4280 Y30.7990 
G00 Z22.0000 
G00 X53.8880 Y30.7990 
G01 Z-0.1000 F30.00 
G01 X53.8880 Y29.0810 F50.00 
G01 X53.9183 Y28.8895 
G01 X53.9783 Y28.7051 
G01 X54.0663 Y28.5323 
G01 X54.1803 Y28.3754 
G01 X54.3174 Y28.2383 
G01 X54.4743 Y28.1243 
G01 X54.6471 Y28.0363 
G01 X54.8315 Y27.9763 
G01 X55.0230 Y27.9460 
G01 X55.2170 Y27.9460 
G01 X55.4085 Y27.9763 
G01 X55.5929 Y28.0363 
G01 X55.7657 Y28.1243 
G01 X55.9226 Y28.2383 
G01 X56.0597 Y28.3754 
G01 X56.1737 Y28.5323 
G01 X56.2617 Y28.7051 
G01 X56.3217 Y28.8895 
G01 X56.3520 Y29.0810 
G01 X56.3520 Y30.7990 
G01 X56.3217 Y30.9905 
G01 X56.2617 Y31.1749 
G01 X56.1737 Y31.3477 
G01 X56.0597 Y31.5046 
G01 X55.9226 Y31.6417 
G01 X55.7657 Y31.7557 
G01 X55.5929 Y31.8437 
G01 X55.4085 Y31.9037 
G01 X55.2170 Y31.9340 
G01 X55.0230 Y31.9340 
G01 X54.8315 Y31.9037 
G01 X54.6471 Y31.8437 
G01 X54.4743 Y31.7557 
G01 X54.3174 Y31.6417 
G01 X54.1803 Y31.5046 
G01 X54.0663 Y31.3477 
G01 X53.9783 Y31.1749 
G01 X53.9183 Y30.9905 
G01 X53.8880 Y30.7990 
G00 Z22.0000 
G00 X51.3480 Y30.7990 
G01 Z-0.1000 F30.00 
G01 X51.3480 Y29.0810 F50.00 
G01 X51.3783 Y28.8895 
G01 X51.4383 Y28.7051 
G01 X51.5263 Y28.5323 
G01 X51.6403 Y28.3754 
G01 X51.7774 Y28.2383 
G01 X51.9343 Y28.1243 
G01 X52.1071 Y28.0363 
G01 X52.2915 Y27.9763 
G01 X52.4830 Y27.9460 
G01 X52.6770 Y27.9460 
G01 X52.8685 Y27.9763 
G01 X53.0529 Y28.0363 
G01 X53.2257 Y28.1243 
G01 X53.3826 Y28.2383 
G01 X53.5197 Y28.3754 
G01 X53.6337 Y28.5323 
G01 X53.7217 Y28.7051 
G01 X53.7817 Y28.8895 
G01 X53.8120 Y29.0810 
G01 X53.8120 Y30.7990 
G01 X53.7817 Y30.9905 
G01 X53.7217 Y31.1749 
G01 X53.6337 Y31.3477 
G01 X53.5580 Y31.4519 
G01 X53.5580 Y33.5163 
G01 X53.5204 Y33.7053 
G01 X53.4467 Y33.8833 
G01 X53.3397 Y34.0434 
G01 X51.7597 Y35.6234 
G01 X51.6234 Y35.7597 
G01 X51.4633 Y35.8667 
G01 X51.2853 Y35.9404 
G01 X51.0963 Y35.9780 
G01 X49.4051 Y35.9780 
G01 X46.9380 Y38.4451 
G01 X46.9380 Y38.7494 
G01 X47.0904 Y38.9018 
G01 X47.0904 Y39.8382 
G01 X46.4282 Y40.5004 
G01 X45.4918 Y40.5004 
G01 X44.8296 Y39.8382 
G01 X44.8296 Y38.9018 
G01 X44.9820 Y38.7494 
G01 X44.9820 Y37.9437 
G01 X45.0196 Y37.7547 
G01 X45.0933 Y37.5767 
G01 X45.2003 Y37.4166 
G01 X48.3766 Y34.2403 
G01 X48.5367 Y34.1333 
G01 X48.7147 Y34.0596 
G01 X48.9037 Y34.0220 
G01 X50.5949 Y34.0220 
G01 X51.6020 Y33.0149 
G01 X51.6020 Y31.4519 
G01 X51.5263 Y31.3477 
G01 X51.4383 Y31.1749 
G01 X51.3783 Y30.9905 
G01 X51.3480 Y30.7990 
G00 Z22.0000 
G00 X72.0904 Y45.7618 
G01 Z-0.1000 F30.00 
G01 X72.0904 Y46.6982 F50.00 
G01 X71.9380 Y46.8506 
G01 X71.9380 Y49.6744 
G01 X72.2804 Y50.0168 
G01 X72.2804 Y50.9532 
G01 X71.9740 Y51.2596 
G01 X72.1673 Y51.2596 
G01 X84.0503 Y39.3766 
G01 X84.1866 Y39.2403 
G01 X84.3467 Y39.1333 
G01 X84.5247 Y39.0596 
G01 X84.7137 Y39.0220 
G01 X91.0963 Y39.0220 
G01 X91.2853 Y39.0596 
G01 X91.4633 Y39.1333 
G01 X91.6234 Y39.2403 
G01 X94.6234 Y42.2403 
G01 X94.7597 Y42.3766 
G01 X94.8667 Y42.5367 
G01 X94.9404 Y42.7147 
G01 X94.9780 Y42.9037 
G01 X94.9780 Y47.0963 
G01 X94.9404 Y47.2853 
G01 X94.8667 Y47.4633 
G01 X94.7597 Y47.6234 
G01 X90.4797 Y51.9034 
G01 X90.3434 Y52.0397 
G01 X90.1833 Y52.1467 
G01 X90.0053 Y52.2204 
G01 X89.8163 Y52.2580 
G01 X89.2219 Y52.2580 
G01 X89.1177 Y52.3337 
G01 X88.9449 Y52.4217 
G01 X88.7605 Y52.4817 
G01 X88.5690 Y52.5120 
G01 X86.8510 Y52.5120 
G01 X86.6595 Y52.4817 
G01 X86.4751 Y52.4217 
G01 X86.3023 Y52.3337 
G01 X86.1981 Y52.2580 
G01 X85.1251 Y52.2580 
G01 X82.9780 Y54.4051 
G01 X82.9780 Y57.2663 
G01 X82.9404 Y57.4553 
G01 X82.8667 Y57.6333 
G01 X82.7597 Y57.7934 
G01 X82.6234 Y57.9297 
G01 X79.2604 Y61.2927 
G01 X79.2604 Y61.5082 
G01 X78.5982 Y62.1704 
G01 X77.6618 Y62.1704 
G01 X76.9996 Y61.5082 
G01 X76.9996 Y60.5718 
G01 X77.6618 Y59.9096 
G01 X77.8773 Y59.9096 
G01 X81.0220 Y56.7649 
G01 X81.0220 Y53.9037 
G01 X81.0596 Y53.7147 
G01 X81.1333 Y53.5367 
G01 X81.2403 Y53.3766 
G01 X83.9603 Y50.6566 
G01 X84.0966 Y50.5203 
G01 X84.2567 Y50.4133 
G01 X84.4347 Y50.3396 
G01 X84.6237 Y50.3020 
G01 X86.1981 Y50.3020 
G01 X86.3023 Y50.2263 
G01 X86.4751 Y50.1383 
G01 X86.6595 Y50.0783 
G01 X86.8510 Y50.0480 
G01 X88.5690 Y50.0480 
G01 X88.7605 Y50.0783 
G01 X88.9449 Y50.1383 
G01 X89.1177 Y50.2263 
G01 X89.2219 Y50.3020 
G01 X89.3149 Y50.3020 
G01 X93.0220 Y46.5949 
G01 X93.0220 Y43.4051 
G01 X90.5949 Y40.9780 
G01 X85.2151 Y40.9780 
G01 X73.5504 Y52.6427 
G01 X73.5504 Y52.8582 
G01 X72.8882 Y53.5204 
G01 X71.9518 Y53.5204 
G01 X71.2896 Y52.8582 
G01 X71.2896 Y51.9218 
G01 X71.5960 Y51.6154 
G01 X70.7040 Y51.6154 
G01 X71.0104 Y51.9218 
G01 X71.0104 Y52.7612 
G01 X71.0857 Y52.7924 
G01 X71.2459 Y52.8994 
G01 X71.3521 Y53.0056 
G01 X71.3822 Y53.0356 
G01 X71.9269 Y53.5804 
G01 X72.9131 Y53.5804 
G01 X73.6336 Y52.8599 
G01 X73.6480 Y52.7874 
G01 X73.7217 Y52.6094 
G01 X73.8287 Y52.4492 
G01 X73.9650 Y52.3130 
G01 X85.0216 Y41.2563 
G01 X85.1818 Y41.1493 
G01 X85.3598 Y41.0756 
G01 X85.5487 Y41.0380 
G01 X90.2613 Y41.0380 
G01 X90.4502 Y41.0756 
G01 X90.6282 Y41.1493 
G01 X90.7884 Y41.2563 
G01 X90.9246 Y41.3926 
G01 X92.7437 Y43.2116 
G01 X92.8507 Y43.3718 
G01 X92.9244 Y43.5498 
G01 X92.9620 Y43.7387 
G01 X92.9620 Y46.2613 
G01 X92.9244 Y46.4502 
G01 X92.8507 Y46.6282 
G01 X92.7437 Y46.7884 
G01 X92.6074 Y46.9246 
G01 X91.1072 Y48.4248 
G01 X90.9471 Y48.5318 
G01 X90.7691 Y48.6056 
G01 X90.7326 Y48.6128 
G01 X90.5801 Y48.6431 
G01 X90.3875 Y48.6431 
G01 X90.2768 Y48.6211 
G01 X90.1985 Y48.6056 
G01 X90.1575 Y48.5885 
G01 X90.0205 Y48.5318 
G01 X89.8604 Y48.4248 
G01 X89.7241 Y48.2886 
G01 X89.6171 Y48.1284 
G01 X89.5673 Y48.0081 
G01 X89.1806 Y47.6214 
G01 X89.1502 Y47.5975 
G01 X89.1126 Y47.5534 
G01 X89.0717 Y47.5125 
G01 X89.0502 Y47.4804 
G01 X89.0251 Y47.4510 
G01 X88.9968 Y47.4005 
G01 X88.9646 Y47.3523 
G01 X88.9576 Y47.3353 
G01 X88.9449 Y47.3417 
G01 X88.7605 Y47.4017 
G01 X88.5690 Y47.4320 
G01 X86.8510 Y47.4320 
G01 X86.6595 Y47.4017 
G01 X86.4751 Y47.3417 
G01 X86.3318 Y47.2687 
G01 X86.3077 Y47.2993 
G01 X86.2755 Y47.3474 
G01 X86.2482 Y47.3748 
G01 X86.2242 Y47.4051 
G01 X86.1802 Y47.4427 
G01 X86.1393 Y47.4837 
G01 X86.1071 Y47.5051 
G01 X86.0778 Y47.5302 
G01 X86.0273 Y47.5585 
G01 X85.9791 Y47.5907 
G01 X85.9434 Y47.6055 
G01 X85.9097 Y47.6244 
G01 X85.8546 Y47.6423 
G01 X85.8011 Y47.6644 
G01 X85.7632 Y47.6720 
G01 X85.7264 Y47.6839 
G01 X85.6689 Y47.6907 
G01 X85.6122 Y47.7020 
G01 X85.5735 Y47.7020 
G01 X85.5351 Y47.7065 
G01 X85.4774 Y47.7020 
G01 X82.0535 Y47.7020 
G01 X81.6720 Y47.8600 
G01 X73.7884 Y55.7437 
G01 X73.6282 Y55.8507 
G01 X73.4502 Y55.9244 
G01 X73.2613 Y55.9620 
G01 X64.7387 Y55.9620 
G01 X64.5498 Y55.9244 
G01 X64.3718 Y55.8507 
G01 X64.2116 Y55.7437 
G01 X64.0754 Y55.6074 
G01 X63.1194 Y54.6515 
G01 X62.7580 Y54.2900 
G01 X62.3765 Y54.1320 
G01 X57.9943 Y54.1320 
G01 X57.8053 Y54.0944 
G01 X57.6273 Y54.0207 
G01 X57.5658 Y53.9796 
G01 X56.5142 Y53.9796 
G01 X56.4527 Y54.0207 
G01 X56.2747 Y54.0944 
G01 X56.0857 Y54.1320 
G01 X49.7335 Y54.1320 
G01 X49.3520 Y54.2900 
G01 X48.8544 Y54.7877 
G01 X48.7357 Y54.9064 
G01 X48.6025 Y55.0395 
G01 X48.5994 Y55.0426 
G01 X48.4393 Y55.1496 
G01 X48.3670 Y55.1796 
G01 X48.2613 Y55.2234 
G01 X48.0723 Y55.2609 
G01 X47.8797 Y55.2609 
G01 X47.8066 Y55.2464 
G01 X47.6907 Y55.2234 
G01 X47.5127 Y55.1496 
G01 X47.3526 Y55.0426 
G01 X47.2185 Y54.9085 
G01 X47.1093 Y54.7462 
G01 X47.0794 Y54.6740 
G01 X47.0356 Y54.5682 
G01 X46.9980 Y54.3793 
G01 X46.9980 Y50.4843 
G01 X47.0356 Y50.2953 
G01 X47.1093 Y50.1173 
G01 X47.1504 Y50.0558 
G01 X47.1504 Y49.0369 
G01 X46.4531 Y48.3396 
G01 X45.4669 Y48.3396 
G01 X44.7696 Y49.0369 
G01 X44.7696 Y50.0558 
G01 X44.8107 Y50.1173 
G01 X44.8844 Y50.2953 
G01 X44.9220 Y50.4843 
G01 X44.9220 Y55.0207 
G01 X44.8865 Y55.1990 
G01 X44.8844 Y55.2097 
G01 X44.8107 Y55.3877 
G01 X44.7037 Y55.5479 
G01 X44.5674 Y55.6841 
G01 X44.2596 Y55.9919 
G01 X44.2596 Y57.2596 
G01 X44.6260 Y57.2596 
G01 X44.3196 Y56.9532 
G01 X44.3196 Y56.0168 
G01 X44.9818 Y55.3546 
G01 X44.9820 Y50.1506 
G01 X44.8296 Y49.9982 
G01 X44.8296 Y49.0618 
G01 X45.4918 Y48.3996 
G01 X46.4282 Y48.3996 
G01 X47.0904 Y49.0618 
G01 X47.0904 Y49.9982 
G01 X46.9380 Y50.1506 
G01 X46.9380 Y55.7089 
G01 X46.9404 Y55.7147 
G01 X46.9780 Y55.9037 
G01 X46.9780 Y56.0963 
G01 X46.9404 Y56.2853 
G01 X46.8667 Y56.4633 
G01 X46.7597 Y56.6234 
G01 X46.5804 Y56.8027 
G01 X46.5804 Y56.9532 
G01 X46.2740 Y57.2596 
G01 X46.4673 Y57.2596 
G01 X49.1803 Y54.5466 
G01 X49.3166 Y54.4103 
G01 X49.4767 Y54.3033 
G01 X49.6547 Y54.2296 
G01 X49.8437 Y54.1920 
G01 X56.4194 Y54.1920 
G01 X56.5718 Y54.0396 
G01 X57.5082 Y54.0396 
G01 X57.6606 Y54.1920 
G01 X62.2663 Y54.1920 
G01 X62.4553 Y54.2296 
G01 X62.6333 Y54.3033 
G01 X62.7934 Y54.4103 
G01 X62.9297 Y54.5466 
G01 X64.4051 Y56.0220 
G01 X73.5949 Y56.0220 
G01 X81.6366 Y47.9803 
G01 X81.7967 Y47.8733 
G01 X81.9747 Y47.7996 
G01 X82.1637 Y47.7620 
G01 X86.1981 Y47.7620 
G01 X86.3023 Y47.6863 
G01 X86.4751 Y47.5983 
G01 X86.6595 Y47.5383 
G01 X86.8510 Y47.5080 
G01 X88.5690 Y47.5080 
G01 X88.7605 Y47.5383 
G01 X88.9449 Y47.5983 
G01 X89.1177 Y47.6863 
G01 X89.2746 Y47.8003 
G01 X89.4117 Y47.9374 
G01 X89.5257 Y48.0943 
G01 X89.6137 Y48.2671 
G01 X89.6737 Y48.4515 
G01 X89.7040 Y48.6430 
G01 X89.7040 Y48.8370 
G01 X89.6737 Y49.0285 
G01 X89.6137 Y49.2129 
G01 X89.5257 Y49.3857 
G01 X89.4117 Y49.5426 
G01 X89.2746 Y49.6797 
G01 X89.1177 Y49.7937 
G01 X88.9449 Y49.8817 
G01 X88.7605 Y49.9417 
G01 X88.5690 Y49.9720 
G01 X86.8510 Y49.9720 
G01 X86.6595 Y49.9417 
G01 X86.4751 Y49.8817 
G01 X86.3023 Y49.7937 
G01 X86.1981 Y49.7180 
G01 X82.6651 Y49.7180 
G01 X74.6234 Y57.7597 
G01 X74.4633 Y57.8667 
G01 X74.2853 Y57.9404 
G01 X74.0963 Y57.9780 
G01 X63.9037 Y57.9780 
G01 X63.7147 Y57.9404 
G01 X63.5367 Y57.8667 
G01 X63.3766 Y57.7597 
G01 X61.7649 Y56.1480 
G01 X57.6606 Y56.1480 
G01 X57.5082 Y56.3004 
G01 X56.5718 Y56.3004 
G01 X56.4194 Y56.1480 
G01 X50.3451 Y56.1480 
G01 X47.8504 Y58.6427 
G01 X47.8504 Y58.8582 
G01 X47.1882 Y59.5204 
G01 X46.2518 Y59.5204 
G01 X45.5896 Y58.8582 
G01 X45.5896 Y57.9218 
G01 X45.8960 Y57.6154 
G01 X45.0040 Y57.6154 
G01 X45.3104 Y57.9218 
G01 X45.3104 Y58.7612 
G01 X45.3857 Y58.7924 
G01 X45.5459 Y58.8994 
G01 X45.6521 Y59.0056 
G01 X45.6822 Y59.0356 
G01 X46.2269 Y59.5804 
G01 X47.2131 Y59.5804 
G01 X47.9336 Y58.8599 
G01 X47.9480 Y58.7874 
G01 X48.0217 Y58.6094 
G01 X48.1287 Y58.4492 
G01 X48.2650 Y58.3130 
G01 X50.1516 Y56.4263 
G01 X50.3118 Y56.3193 
G01 X50.4898 Y56.2456 
G01 X50.6787 Y56.2080 
G01 X56.0857 Y56.2080 
G01 X56.2747 Y56.2456 
G01 X56.4527 Y56.3193 
G01 X56.5142 Y56.3604 
G01 X57.5658 Y56.3604 
G01 X57.6273 Y56.3193 
G01 X57.8053 Y56.2456 
G01 X57.9943 Y56.2080 
G01 X61.4313 Y56.2080 
G01 X61.6202 Y56.2456 
G01 X61.7982 Y56.3193 
G01 X61.9584 Y56.4263 
G01 X62.0946 Y56.5626 
G01 X63.4120 Y57.8800 
G01 X63.7935 Y58.0380 
G01 X67.0238 Y58.0380 
G01 X67.2127 Y58.0756 
G01 X67.3907 Y58.1493 
G01 X67.5509 Y58.2563 
G01 X67.6871 Y58.3926 
G01 X67.7941 Y58.5527 
G01 X67.8678 Y58.7307 
G01 X67.9054 Y58.9197 
G01 X67.9054 Y59.1123 
G01 X67.8678 Y59.3013 
G01 X67.7941 Y59.4793 
G01 X67.6871 Y59.6394 
G01 X67.5509 Y59.7757 
G01 X67.5429 Y59.7837 
G01 X67.3827 Y59.8907 
G01 X67.2047 Y59.9644 
G01 X67.0157 Y60.0020 
G01 X61.1235 Y60.0020 
G01 X60.7420 Y60.1600 
G01 X60.2444 Y60.6577 
G01 X56.9808 Y63.9213 
G01 X56.8206 Y64.0283 
G01 X56.6426 Y64.1020 
G01 X56.5115 Y64.1281 
G01 X56.4927 Y64.1407 
G01 X56.3147 Y64.2144 
G01 X56.1257 Y64.2520 
G01 X38.2061 Y64.2520 
G01 X38.0171 Y64.2144 
G01 X37.8391 Y64.1407 
G01 X37.6790 Y64.0337 
G01 X37.5427 Y63.8974 
G01 X37.4580 Y63.7706 
G01 X37.3482 Y63.8804 
G01 X36.4118 Y63.8804 
G01 X35.7496 Y63.2182 
G01 X35.7496 Y62.5466 
G01 X35.7307 Y62.5428 
G01 X35.5527 Y62.4691 
G01 X35.3926 Y62.3621 
G01 X35.2585 Y62.2280 
G01 X35.1493 Y62.0657 
G01 X35.1070 Y61.9636 
G01 X35.0756 Y61.8877 
G01 X35.0380 Y61.6988 
G01 X35.0380 Y42.0735 
G01 X34.8435 Y41.6041 
G01 X34.8071 Y41.5160 
G01 X34.7698 Y41.4261 
G01 X34.7322 Y41.2371 
G01 X34.7322 Y41.0445 
G01 X34.7444 Y40.9836 
G01 X34.7698 Y40.8555 
G01 X34.8139 Y40.7492 
G01 X34.8435 Y40.6776 
G01 X34.9136 Y40.5727 
G01 X34.9506 Y40.5174 
G01 X35.0868 Y40.3812 
G01 X44.8800 Y30.5880 
G01 X45.0380 Y30.2065 
G01 X45.0380 Y21.7387 
G01 X45.0756 Y21.5498 
G01 X45.1493 Y21.3718 
G01 X45.2563 Y21.2116 
G01 X45.3926 Y21.0754 
G01 X48.2116 Y18.2563 
G01 X48.3718 Y18.1493 
G01 X48.5498 Y18.0756 
G01 X48.7387 Y18.0380 
G01 X90.2065 Y18.0380 
G01 X90.5880 Y17.8800 
G01 X96.6400 Y11.8280 
G01 X96.7980 Y11.4465 
G01 X96.7980 Y6.2704 
G01 X96.8356 Y6.0815 
G01 X96.8704 Y5.9973 
G01 X96.9093 Y5.9035 
G01 X97.0520 Y5.5590 
G01 X97.0520 Y3.5210 
G01 X96.8553 Y3.0461 
G01 X96.4919 Y2.6827 
G01 X96.0170 Y2.4860 
G01 X95.5030 Y2.4860 
G01 X94.9533 Y2.7137 
G01 X94.8284 Y2.7654 
G01 X94.7753 Y2.7874 
G01 X94.7012 Y2.8022 
G01 X94.5863 Y2.8250 
G01 X94.3937 Y2.8250 
G01 X94.2701 Y2.8004 
G01 X94.2047 Y2.7874 
G01 X93.4770 Y2.4860 
G01 X92.9630 Y2.4860 
G01 X92.4133 Y2.7137 
G01 X92.3365 Y2.7455 
G01 X92.2353 Y2.7874 
G01 X92.0463 Y2.8250 
G01 X91.8537 Y2.8250 
G01 X91.6647 Y2.7874 
G01 X91.5205 Y2.7277 
G01 X91.4867 Y2.7137 
G01 X90.9370 Y2.4860 
G01 X90.4230 Y2.4860 
G01 X89.8732 Y2.7137 
G01 X89.8481 Y2.7241 
G01 X89.6953 Y2.7874 
G01 X89.5063 Y2.8250 
G01 X89.3137 Y2.8250 
G01 X89.1247 Y2.7874 
G01 X89.0291 Y2.7478 
G01 X88.9467 Y2.7137 
G01 X88.3970 Y2.4860 
G01 X87.8830 Y2.4860 
G01 X87.3333 Y2.7137 
G01 X87.3081 Y2.7241 
G01 X87.1553 Y2.7874 
G01 X86.9663 Y2.8250 
G01 X86.7737 Y2.8250 
G01 X86.5847 Y2.7874 
G01 X86.4891 Y2.7478 
G01 X86.4067 Y2.7137 
G01 X85.8570 Y2.4860 
G01 X85.3430 Y2.4860 
G01 X84.8681 Y2.6827 
G01 X84.4814 Y3.0694 
G01 X84.4575 Y3.0998 
G01 X84.4134 Y3.1374 
G01 X84.3725 Y3.1783 
G01 X84.3404 Y3.1998 
G01 X84.3110 Y3.2249 
G01 X84.2605 Y3.2532 
G01 X84.2123 Y3.2854 
G01 X84.1953 Y3.2924 
G01 X84.2017 Y3.3051 
G01 X84.2617 Y3.4895 
G01 X84.2920 Y3.6810 
G01 X84.2920 Y5.3990 
G01 X84.2617 Y5.5905 
G01 X84.2017 Y5.7749 
G01 X84.1953 Y5.7876 
G01 X84.2123 Y5.7946 
G01 X84.2605 Y5.8268 
G01 X84.3110 Y5.8551 
G01 X84.3404 Y5.8802 
G01 X84.3725 Y5.9017 
G01 X84.4134 Y5.9426 
G01 X84.4575 Y5.9802 
G01 X84.4814 Y6.0106 
G01 X84.8681 Y6.3973 
G01 X85.3430 Y6.5940 
G01 X85.8570 Y6.5940 
G01 X86.4067 Y6.3663 
G01 X86.4835 Y6.3345 
G01 X86.5847 Y6.2926 
G01 X86.7737 Y6.2550 
G01 X86.9663 Y6.2550 
G01 X87.1553 Y6.2926 
G01 X87.2995 Y6.3523 
G01 X87.3333 Y6.3663 
G01 X87.8830 Y6.5940 
G01 X88.3970 Y6.5940 
G01 X88.9467 Y6.3663 
G01 X89.0235 Y6.3345 
G01 X89.1247 Y6.2926 
G01 X89.3137 Y6.2550 
G01 X89.5063 Y6.2550 
G01 X89.6953 Y6.2926 
G01 X89.8395 Y6.3523 
G01 X89.8732 Y6.3663 
G01 X90.4230 Y6.5940 
G01 X90.9370 Y6.5940 
G01 X91.4867 Y6.3663 
G01 X91.5119 Y6.3559 
G01 X91.6647 Y6.2926 
G01 X91.8537 Y6.2550 
G01 X92.0463 Y6.2550 
G01 X92.2353 Y6.2926 
G01 X92.3309 Y6.3322 
G01 X92.4133 Y6.3663 
G01 X92.9630 Y6.5940 
G01 X93.4968 Y6.5940 
G01 X93.6477 Y6.5640 
G01 X93.8403 Y6.5640 
G01 X94.0261 Y6.6009 
G01 X94.0293 Y6.6016 
G01 X94.1625 Y6.6568 
G01 X94.2072 Y6.6753 
G01 X94.3129 Y6.7459 
G01 X94.3674 Y6.7823 
G01 X94.5015 Y6.9164 
G01 X94.5667 Y7.0128 
G01 X94.6107 Y7.0787 
G01 X94.6351 Y7.1377 
G01 X94.6844 Y7.2567 
G01 X94.6917 Y7.2932 
G01 X94.7220 Y7.4456 
G01 X94.7220 Y10.5013 
G01 X94.6844 Y10.6902 
G01 X94.6107 Y10.8682 
G01 X94.5037 Y11.0284 
G01 X94.3674 Y11.1646 
G01 X89.7884 Y15.7437 
G01 X89.6282 Y15.8507 
G01 X89.4502 Y15.9244 
G01 X89.2613 Y15.9620 
G01 X47.7935 Y15.9620 
G01 X47.4120 Y16.1200 
G01 X46.9144 Y16.6177 
G01 X43.1200 Y20.4120 
G01 X42.9620 Y20.7935 
G01 X42.9620 Y29.2613 
G01 X42.9244 Y29.4502 
G01 X42.8507 Y29.6282 
G01 X42.7437 Y29.7884 
G01 X42.6074 Y29.9246 
G01 X32.6484 Y39.8837 
G01 X32.4882 Y39.9907 
G01 X32.3102 Y40.0644 
G01 X32.1213 Y40.1020 
G01 X30.2126 Y40.1020 
G01 X30.1549 Y40.1065 
G01 X30.1165 Y40.1020 
G01 X30.0778 Y40.1020 
G01 X30.0211 Y40.0907 
G01 X29.9635 Y40.0839 
G01 X29.9268 Y40.0720 
G01 X29.8889 Y40.0644 
G01 X29.8354 Y40.0423 
G01 X29.7803 Y40.0244 
G01 X29.7466 Y40.0055 
G01 X29.7109 Y39.9907 
G01 X29.6627 Y39.9585 
G01 X29.6122 Y39.9302 
G01 X29.5829 Y39.9051 
G01 X29.5507 Y39.8837 
G01 X29.5098 Y39.8427 
G01 X29.4657 Y39.8051 
G01 X29.4418 Y39.7748 
G01 X29.4145 Y39.7474 
G01 X29.3823 Y39.6993 
G01 X29.3582 Y39.6687 
G01 X29.2149 Y39.7417 
G01 X29.0305 Y39.8017 
G01 X28.8390 Y39.8320 
G01 X27.1210 Y39.8320 
G01 X26.9295 Y39.8017 
G01 X26.7451 Y39.7417 
G01 X26.7324 Y39.7353 
G01 X26.7254 Y39.7523 
G01 X26.6932 Y39.8004 
G01 X26.6649 Y39.8510 
G01 X26.6398 Y39.8804 
G01 X26.6183 Y39.9125 
G01 X26.5774 Y39.9534 
G01 X26.5398 Y39.9975 
G01 X26.5094 Y40.0214 
G01 X26.1227 Y40.4081 
G01 X25.9260 Y40.8830 
G01 X25.9260 Y41.3970 
G01 X26.1537 Y41.9467 
G01 X26.1855 Y42.0235 
G01 X26.2274 Y42.1247 
G01 X26.2650 Y42.3137 
G01 X26.2650 Y42.5063 
G01 X26.2274 Y42.6953 
G01 X26.1677 Y42.8395 
G01 X26.1537 Y42.8732 
G01 X25.9260 Y43.4230 
G01 X25.9260 Y43.9370 
G01 X26.1227 Y44.4119 
G01 X26.5312 Y44.8204 
G01 X26.5874 Y44.8579 
G01 X26.7215 Y44.9920 
G01 X26.7747 Y45.0705 
G01 X26.8307 Y45.1543 
G01 X26.8425 Y45.1827 
G01 X26.9044 Y45.3323 
G01 X26.9420 Y45.5213 
G01 X26.9420 Y47.7357 
G01 X26.9044 Y47.9247 
G01 X26.8307 Y48.1027 
G01 X26.7237 Y48.2629 
G01 X26.5996 Y48.3869 
G01 X26.5996 Y48.5537 
G01 X26.5620 Y48.7426 
G01 X26.4883 Y48.9206 
G01 X26.3813 Y49.0808 
G01 X26.2450 Y49.2170 
G01 X24.6394 Y50.8226 
G01 X24.4793 Y50.9296 
G01 X24.3013 Y51.0034 
G01 X24.1123 Y51.0409 
G01 X23.9197 Y51.0409 
G01 X23.7307 Y51.0034 
G01 X23.5527 Y50.9296 
G01 X23.3926 Y50.8226 
G01 X23.2563 Y50.6864 
G01 X23.1493 Y50.5262 
G01 X23.0756 Y50.3482 
G01 X23.0380 Y50.1593 
G01 X23.0380 Y34.7387 
G01 X23.0756 Y34.5498 
G01 X23.1493 Y34.3718 
G01 X23.2563 Y34.2116 
G01 X23.3926 Y34.0754 
G01 X28.8600 Y28.6080 
G01 X29.0180 Y28.2265 
G01 X29.0180 Y26.8213 
G01 X29.0556 Y26.6323 
G01 X29.1158 Y26.4870 
G01 X29.1293 Y26.4543 
G01 X29.1811 Y26.3769 
G01 X29.2363 Y26.2942 
G01 X29.3726 Y26.1579 
G01 X29.4288 Y26.1204 
G01 X29.8373 Y25.7119 
G01 X30.0340 Y25.2370 
G01 X30.0340 Y24.7113 
G01 X30.0324 Y24.7034 
G01 X30.0009 Y24.5449 
G01 X30.0009 Y24.3523 
G01 X30.0194 Y24.2594 
G01 X30.0385 Y24.1633 
G01 X30.1122 Y23.9853 
G01 X30.1974 Y23.8579 
G01 X30.2192 Y23.8252 
G01 X30.3533 Y23.6911 
G01 X30.5156 Y23.5819 
G01 X30.6636 Y23.5206 
G01 X30.6936 Y23.5082 
G01 X31.1480 Y23.3200 
G01 X33.5185 Y20.9494 
G01 X33.8800 Y20.5880 
G01 X34.0380 Y20.2065 
G01 X34.0380 Y15.7935 
G01 X33.8800 Y15.4120 
G01 X30.2563 Y11.7884 
G01 X30.1493 Y11.6282 
G01 X30.0756 Y11.4502 
G01 X30.0380 Y11.2613 
G01 X30.0380 Y9.4038 
G01 X30.0380 Y9.3076 
G01 X30.0380 Y9.2112 
G01 X30.0569 Y9.1160 
G01 X30.0756 Y9.0222 
G01 X30.1106 Y8.9377 
G01 X30.1493 Y8.8443 
G01 X30.2034 Y8.7633 
G01 X30.2563 Y8.6841 
G01 X30.3290 Y8.6114 
G01 X30.3926 Y8.5479 
G01 X30.4719 Y8.4949 
G01 X30.5527 Y8.4408 
G01 X30.6382 Y8.4054 
G01 X30.7307 Y8.3671 
G01 X30.8245 Y8.3485 
G01 X30.9197 Y8.3295 
G01 X31.0160 Y8.3295 
G01 X31.1123 Y8.3295 
G01 X31.2075 Y8.3484 
G01 X31.3013 Y8.3671 
G01 X31.3858 Y8.4021 
G01 X31.4793 Y8.4408 
G01 X31.5602 Y8.4949 
G01 X31.6394 Y8.5479 
G01 X31.7121 Y8.6205 
G01 X31.7757 Y8.6841 
G01 X31.7973 Y8.7165 
G01 X32.2161 Y9.1353 
G01 X32.6910 Y9.3320 
G01 X33.2253 Y9.3320 
G01 X33.4142 Y9.3696 
G01 X33.5922 Y9.4433 
G01 X33.7014 Y9.5162 
G01 X33.7524 Y9.5503 
G01 X33.7675 Y9.5655 
G01 X34.5844 Y10.3823 
G01 X34.7054 Y10.5034 
G01 X34.7206 Y10.5185 
G01 X35.0820 Y10.8800 
G01 X35.1569 Y10.9110 
G01 X35.3349 Y10.9847 
G01 X35.4398 Y11.0548 
G01 X35.4950 Y11.0917 
G01 X35.6313 Y11.2279 
G01 X35.7383 Y11.3881 
G01 X35.8111 Y11.5640 
G01 X35.8496 Y11.7551 
G01 X35.8496 Y12.4631 
G01 X36.5469 Y13.1604 
G01 X37.5331 Y13.1604 
G01 X38.4371 Y12.2563 
G01 X38.5973 Y12.1493 
G01 X38.7753 Y12.0756 
G01 X38.9642 Y12.0380 
G01 X65.2065 Y12.0380 
G01 X65.5880 Y11.8800 
G01 X68.7000 Y8.7680 
G01 X68.8580 Y8.3865 
G01 X68.8580 Y7.4456 
G01 X68.8956 Y7.2567 
G01 X68.9693 Y7.0787 
G01 X69.0423 Y6.9694 
G01 X69.0763 Y6.9185 
G01 X69.1509 Y6.8440 
G01 X69.2126 Y6.7823 
G01 X69.3395 Y6.6975 
G01 X69.3727 Y6.6753 
G01 X69.4687 Y6.6356 
G01 X69.5507 Y6.6016 
G01 X69.6263 Y6.5865 
G01 X69.7397 Y6.5640 
G01 X69.9323 Y6.5640 
G01 X70.0832 Y6.5940 
G01 X70.6170 Y6.5940 
G01 X71.1667 Y6.3663 
G01 X71.2435 Y6.3345 
G01 X71.3447 Y6.2926 
G01 X71.5337 Y6.2550 
G01 X71.7263 Y6.2550 
G01 X71.9153 Y6.2926 
G01 X72.0595 Y6.3523 
G01 X72.0932 Y6.3663 
G01 X72.6430 Y6.5940 
G01 X73.1570 Y6.5940 
G01 X73.7067 Y6.3663 
G01 X73.7835 Y6.3345 
G01 X73.8847 Y6.2926 
G01 X74.0737 Y6.2550 
G01 X74.2663 Y6.2550 
G01 X74.4553 Y6.2926 
G01 X74.5995 Y6.3523 
G01 X74.6333 Y6.3663 
G01 X75.1830 Y6.5940 
G01 X75.6970 Y6.5940 
G01 X76.2467 Y6.3663 
G01 X76.3235 Y6.3345 
G01 X76.4247 Y6.2926 
G01 X76.6137 Y6.2550 
G01 X76.8063 Y6.2550 
G01 X76.9953 Y6.2926 
G01 X77.1395 Y6.3523 
G01 X77.1733 Y6.3663 
G01 X77.7230 Y6.5940 
G01 X78.2370 Y6.5940 
G01 X78.7867 Y6.3663 
G01 X78.8635 Y6.3345 
G01 X78.9647 Y6.2926 
G01 X79.1537 Y6.2550 
G01 X79.3463 Y6.2550 
G01 X79.5353 Y6.2926 
G01 X79.6795 Y6.3523 
G01 X79.7133 Y6.3663 
G01 X80.2630 Y6.5940 
G01 X80.7770 Y6.5940 
G01 X81.2519 Y6.3973 
G01 X81.6386 Y6.0105 
G01 X81.6625 Y5.9802 
G01 X81.7065 Y5.9426 
G01 X81.7475 Y5.9017 
G01 X81.7796 Y5.8802 
G01 X81.8090 Y5.8551 
G01 X81.8596 Y5.8268 
G01 X81.9077 Y5.7946 
G01 X81.9247 Y5.7876 
G01 X81.9183 Y5.7749 
G01 X81.8583 Y5.5905 
G01 X81.8280 Y5.3990 
G01 X81.8280 Y3.6810 
G01 X81.8583 Y3.4895 
G01 X81.9183 Y3.3051 
G01 X81.9247 Y3.2924 
G01 X81.9077 Y3.2854 
G01 X81.8596 Y3.2532 
G01 X81.8090 Y3.2249 
G01 X81.7796 Y3.1998 
G01 X81.7475 Y3.1783 
G01 X81.7065 Y3.1374 
G01 X81.6625 Y3.0998 
G01 X81.6386 Y3.0694 
G01 X81.2519 Y2.6827 
G01 X80.7770 Y2.4860 
G01 X80.2630 Y2.4860 
G01 X79.7133 Y2.7137 
G01 X79.6881 Y2.7241 
G01 X79.5353 Y2.7874 
G01 X79.3463 Y2.8250 
G01 X79.1537 Y2.8250 
G01 X78.9647 Y2.7874 
G01 X78.8691 Y2.7478 
G01 X78.7867 Y2.7137 
G01 X78.2370 Y2.4860 
G01 X77.7230 Y2.4860 
G01 X77.1733 Y2.7137 
G01 X77.1481 Y2.7241 
G01 X76.9953 Y2.7874 
G01 X76.8063 Y2.8250 
G01 X76.6137 Y2.8250 
G01 X76.4247 Y2.7874 
G01 X76.3291 Y2.7478 
G01 X76.2467 Y2.7137 
G01 X75.6970 Y2.4860 
G01 X75.1830 Y2.4860 
G01 X74.6333 Y2.7137 
G01 X74.6081 Y2.7241 
G01 X74.4553 Y2.7874 
G01 X74.2663 Y2.8250 
G01 X74.0737 Y2.8250 
G01 X73.8847 Y2.7874 
G01 X73.7891 Y2.7478 
G01 X73.7067 Y2.7137 
G01 X73.1570 Y2.4860 
G01 X72.6430 Y2.4860 
G01 X72.0933 Y2.7137 
G01 X71.9153 Y2.7874 
G01 X71.7263 Y2.8250 
G01 X71.5337 Y2.8250 
G01 X71.3447 Y2.7874 
G01 X70.6170 Y2.4860 
G01 X70.1030 Y2.4860 
G01 X69.5533 Y2.7137 
G01 X69.5281 Y2.7241 
G01 X69.3753 Y2.7874 
G01 X69.1863 Y2.8250 
G01 X68.9937 Y2.8250 
G01 X68.8047 Y2.7874 
G01 X68.7091 Y2.7478 
G01 X68.6267 Y2.7137 
G01 X68.0770 Y2.4860 
G01 X67.5630 Y2.4860 
G01 X67.0132 Y2.7137 
G01 X66.9881 Y2.7241 
G01 X66.8353 Y2.7874 
G01 X66.6463 Y2.8250 
G01 X66.4537 Y2.8250 
G01 X66.2647 Y2.7874 
G01 X66.1691 Y2.7478 
G01 X66.0867 Y2.7137 
G01 X65.5370 Y2.4860 
G01 X65.0230 Y2.4860 
G01 X64.4733 Y2.7137 
G01 X64.4481 Y2.7241 
G01 X64.2953 Y2.7874 
G01 X64.1063 Y2.8250 
G01 X63.9137 Y2.8250 
G01 X63.7247 Y2.7874 
G01 X63.6291 Y2.7478 
G01 X63.5467 Y2.7137 
G01 X62.9970 Y2.4860 
G01 X62.4830 Y2.4860 
G01 X61.9333 Y2.7137 
G01 X61.9081 Y2.7241 
G01 X61.7553 Y2.7874 
G01 X61.5663 Y2.8250 
G01 X61.3737 Y2.8250 
G01 X61.1847 Y2.7874 
G01 X61.0891 Y2.7478 
G01 X61.0067 Y2.7137 
G01 X60.4570 Y2.4860 
G01 X59.9430 Y2.4860 
G01 X59.3933 Y2.7137 
G01 X59.3681 Y2.7241 
G01 X59.2153 Y2.7874 
G01 X59.0263 Y2.8250 
G01 X58.8337 Y2.8250 
G01 X58.6447 Y2.7874 
G01 X58.5491 Y2.7478 
G01 X58.4667 Y2.7137 
G01 X57.9170 Y2.4860 
G01 X57.4030 Y2.4860 
G01 X56.8533 Y2.7137 
G01 X56.8281 Y2.7241 
G01 X56.6753 Y2.7874 
G01 X56.4863 Y2.8250 
G01 X56.2937 Y2.8250 
G01 X56.1047 Y2.7874 
G01 X56.0091 Y2.7478 
G01 X55.9267 Y2.7137 
G01 X55.3770 Y2.4860 
G01 X54.8630 Y2.4860 
G01 X54.3133 Y2.7137 
G01 X54.2881 Y2.7241 
G01 X54.1353 Y2.7874 
G01 X53.9463 Y2.8250 
G01 X53.7537 Y2.8250 
G01 X53.5647 Y2.7874 
G01 X53.4691 Y2.7478 
G01 X53.3867 Y2.7137 
G01 X52.8370 Y2.4860 
G01 X52.3230 Y2.4860 
G01 X51.7853 Y2.7087 
G01 X51.7163 Y2.7373 
G01 X51.6073 Y2.7824 
G01 X51.4184 Y2.8200 
G01 X51.2257 Y2.8200 
G01 X51.0368 Y2.7824 
G01 X50.9384 Y2.7417 
G01 X50.8588 Y2.7087 
G01 X50.2970 Y2.4760 
G01 X49.7830 Y2.4760 
G01 X49.3081 Y2.6727 
G01 X48.9447 Y3.0361 
G01 X48.7480 Y3.5110 
G01 X48.7480 Y3.5803 
G01 X48.7104 Y3.7693 
G01 X48.6367 Y3.9473 
G01 X48.5297 Y4.1074 
G01 X48.3934 Y4.2437 
G01 X48.2333 Y4.3507 
G01 X48.0553 Y4.4244 
G01 X47.8663 Y4.4620 
G01 X35.4404 Y4.4620 
G01 X35.2515 Y4.4244 
G01 X35.0735 Y4.3507 
G01 X34.7290 Y4.2080 
G01 X32.6910 Y4.2080 
G01 X32.3465 Y4.3507 
G01 X32.1734 Y4.4224 
G01 X32.1685 Y4.4244 
G01 X31.9796 Y4.4620 
G01 X30.2935 Y4.4620 
G01 X29.9120 Y4.6200 
G01 X28.1200 Y6.4120 
G01 X27.9620 Y6.7935 
G01 X27.9620 Y12.2065 
G01 X28.1200 Y12.5880 
G01 X28.6177 Y13.0856 
G01 X31.7437 Y16.2116 
G01 X31.8507 Y16.3718 
G01 X31.9244 Y16.5498 
G01 X31.9620 Y16.7387 
G01 X31.9620 Y19.2613 
G01 X31.9244 Y19.4502 
G01 X31.8507 Y19.6282 
G01 X31.7778 Y19.7374 
G01 X31.7437 Y19.7884 
G01 X31.7303 Y19.8017 
G01 X31.0256 Y20.5064 
G01 X30.9763 Y20.5557 
G01 X30.8894 Y20.6426 
G01 X30.8278 Y20.6838 
G01 X30.7293 Y20.7496 
G01 X30.6171 Y20.7961 
G01 X30.5513 Y20.8234 
G01 X30.4483 Y20.8439 
G01 X30.3623 Y20.8610 
G01 X30.2670 Y20.8610 
G01 X30.1697 Y20.8610 
G01 X30.0773 Y20.8426 
G01 X29.9807 Y20.8234 
G01 X29.8974 Y20.7888 
G01 X29.8027 Y20.7496 
G01 X29.7427 Y20.7095 
G01 X29.6983 Y20.6798 
G01 X29.6817 Y20.7026 
G01 X29.5446 Y20.8397 
G01 X29.3877 Y20.9537 
G01 X29.2149 Y21.0417 
G01 X29.0305 Y21.1017 
G01 X28.8390 Y21.1320 
G01 X27.1210 Y21.1320 
G01 X26.9295 Y21.1017 
G01 X26.7451 Y21.0417 
G01 X26.6018 Y20.9687 
G01 X26.5777 Y20.9993 
G01 X26.5455 Y21.0474 
G01 X26.5182 Y21.0748 
G01 X26.4942 Y21.1051 
G01 X26.4502 Y21.1427 
G01 X26.4093 Y21.1837 
G01 X26.3771 Y21.2051 
G01 X26.3478 Y21.2302 
G01 X26.2973 Y21.2585 
G01 X26.2491 Y21.2907 
G01 X26.2134 Y21.3055 
G01 X26.1797 Y21.3244 
G01 X26.1246 Y21.3422 
G01 X26.0711 Y21.3644 
G01 X26.0332 Y21.3720 
G01 X25.9965 Y21.3839 
G01 X25.9389 Y21.3907 
G01 X25.8822 Y21.4020 
G01 X25.8435 Y21.4020 
G01 X25.8051 Y21.4065 
G01 X25.7474 Y21.4020 
G01 X24.3535 Y21.4020 
G01 X23.9720 Y21.5600 
G01 X15.7884 Y29.7437 
G01 X15.6282 Y29.8507 
G01 X15.4502 Y29.9244 
G01 X15.2613 Y29.9620 
G01 X9.7935 Y29.9620 
G01 X9.4120 Y30.1200 
G01 X4.2400 Y35.2920 
G01 X4.0820 Y35.6735 
G01 X4.0820 Y50.9158 
G01 X4.0600 Y51.0264 
G01 X4.0444 Y51.1047 
G01 X4.0274 Y51.1458 
G01 X3.9707 Y51.2827 
G01 X3.9296 Y51.3442 
G01 X3.9296 Y52.3631 
G01 X4.4744 Y52.9078 
G01 X4.5011 Y52.9345 
G01 X4.6106 Y53.0441 
G01 X4.7176 Y53.2042 
G01 X4.7488 Y53.2796 
G01 X5.4912 Y53.2796 
G01 X5.5224 Y53.2043 
G01 X5.6294 Y53.0441 
G01 X5.7356 Y52.9379 
G01 X5.7656 Y52.9078 
G01 X6.3104 Y52.3631 
G01 X6.3104 Y51.3442 
G01 X6.2693 Y51.2827 
G01 X6.1956 Y51.1047 
G01 X6.1656 Y50.9539 
G01 X6.1580 Y50.9158 
G01 X6.1580 Y36.6187 
G01 X6.1956 Y36.4298 
G01 X6.2693 Y36.2518 
G01 X6.3763 Y36.0916 
G01 X6.5126 Y35.9554 
G01 X10.2116 Y32.2563 
G01 X10.3718 Y32.1493 
G01 X10.5498 Y32.0756 
G01 X10.7387 Y32.0380 
G01 X16.2065 Y32.0380 
G01 X16.5880 Y31.8800 
G01 X17.0647 Y31.4032 
G01 X24.1883 Y24.2796 
G01 X24.2092 Y24.2587 
G01 X24.3246 Y24.1434 
G01 X24.4847 Y24.0364 
G01 X24.6627 Y23.9626 
G01 X24.8517 Y23.9250 
G01 X25.0443 Y23.9250 
G01 X25.2333 Y23.9626 
G01 X25.4113 Y24.0364 
G01 X25.5714 Y24.1434 
G01 X25.7077 Y24.2796 
G01 X25.8147 Y24.4398 
G01 X25.8884 Y24.6178 
G01 X25.9260 Y24.8067 
G01 X25.9260 Y25.2370 
G01 X26.1227 Y25.7119 
G01 X26.5312 Y26.1204 
G01 X26.5874 Y26.1579 
G01 X26.7215 Y26.2920 
G01 X26.7747 Y26.3705 
G01 X26.8307 Y26.4543 
G01 X26.8425 Y26.4828 
G01 X26.9044 Y26.6323 
G01 X26.9420 Y26.8213 
G01 X26.9420 Y27.2813 
G01 X26.9044 Y27.4702 
G01 X26.8307 Y27.6482 
G01 X26.7237 Y27.8084 
G01 X26.5874 Y27.9446 
G01 X21.4815 Y33.0506 
G01 X21.1200 Y33.4120 
G01 X20.9620 Y33.7935 
G01 X20.9620 Y52.1588 
G01 X20.9244 Y52.3477 
G01 X20.8948 Y52.4193 
G01 X20.8507 Y52.5257 
G01 X20.7437 Y52.6859 
G01 X20.6074 Y52.8221 
G01 X20.5564 Y52.8562 
G01 X20.4473 Y52.9291 
G01 X20.3486 Y52.9700 
G01 X20.4473 Y53.0109 
G01 X20.5522 Y53.0810 
G01 X20.6074 Y53.1179 
G01 X20.7437 Y53.2541 
G01 X20.7479 Y53.2606 
G01 X20.8507 Y53.4143 
G01 X20.8930 Y53.5164 
G01 X20.9244 Y53.5923 
G01 X20.9620 Y53.7812 
G01 X20.9620 Y54.1913 
G01 X20.9244 Y54.3802 
G01 X20.8507 Y54.5582 
G01 X20.7437 Y54.7184 
G01 X20.6074 Y54.8546 
G01 X18.9570 Y56.5050 
G01 X18.8208 Y56.6413 
G01 X18.6606 Y56.7483 
G01 X18.4826 Y56.8220 
G01 X18.4101 Y56.8364 
G01 X17.6838 Y57.5627 
G01 X17.6520 Y57.7226 
G01 X17.5783 Y57.9006 
G01 X17.4713 Y58.0608 
G01 X17.3350 Y58.1970 
G01 X12.6384 Y62.8937 
G01 X12.4782 Y63.0007 
G01 X12.3002 Y63.0744 
G01 X12.1113 Y63.1120 
G01 X6.5226 Y63.1120 
G01 X6.4649 Y63.1165 
G01 X6.4265 Y63.1120 
G01 X6.3878 Y63.1120 
G01 X6.3311 Y63.1007 
G01 X6.2735 Y63.0939 
G01 X6.2368 Y63.0820 
G01 X6.1989 Y63.0744 
G01 X6.1454 Y63.0523 
G01 X6.0903 Y63.0344 
G01 X6.0566 Y63.0155 
G01 X6.0209 Y63.0007 
G01 X5.9727 Y62.9685 
G01 X5.9222 Y62.9402 
G01 X5.8929 Y62.9151 
G01 X5.8607 Y62.8937 
G01 X5.8198 Y62.8527 
G01 X5.7758 Y62.8151 
G01 X5.7518 Y62.7848 
G01 X5.7245 Y62.7574 
G01 X5.6923 Y62.7093 
G01 X5.6682 Y62.6787 
G01 X5.5249 Y62.7517 
G01 X5.3405 Y62.8117 
G01 X5.1490 Y62.8420 
G01 X3.4310 Y62.8420 
G01 X3.2395 Y62.8117 
G01 X3.0551 Y62.7517 
G01 X3.0424 Y62.7453 
G01 X3.0354 Y62.7623 
G01 X3.0032 Y62.8104 
G01 X2.9749 Y62.8610 
G01 X2.9498 Y62.8904 
G01 X2.9283 Y62.9225 
G01 X2.8874 Y62.9635 
G01 X2.8498 Y63.0075 
G01 X2.8194 Y63.0314 
G01 X2.4327 Y63.4181 
G01 X2.2360 Y63.8930 
G01 X2.2360 Y64.4070 
G01 X2.4327 Y64.8819 
G01 X2.7961 Y65.2453 
G01 X3.2710 Y65.4420 
G01 X5.3090 Y65.4420 
G01 X5.6535 Y65.2993 
G01 X5.8287 Y65.2267 
G01 X5.8315 Y65.2256 
G01 X6.0204 Y65.1880 
G01 X13.0565 Y65.1880 
G01 X13.4380 Y65.0300 
G01 X19.0092 Y59.4587 
G01 X19.1694 Y59.3517 
G01 X19.3271 Y59.2864 
G01 X20.0936 Y58.5199 
G01 X20.1080 Y58.4474 
G01 X20.1817 Y58.2694 
G01 X20.2887 Y58.1092 
G01 X20.4250 Y57.9730 
G01 X22.3990 Y55.9989 
G01 X22.4501 Y55.9648 
G01 X22.5592 Y55.8919 
G01 X22.5880 Y55.8800 
G01 X22.8800 Y55.5880 
G01 X22.8919 Y55.5592 
G01 X22.9983 Y55.3999 
G01 X23.0652 Y55.3328 
G01 X23.1351 Y55.2628 
G01 X28.6813 Y49.7167 
G01 X28.7529 Y49.6095 
G01 X28.7708 Y49.5826 
G01 X28.8610 Y49.4925 
G01 X28.9071 Y49.4464 
G01 X28.9641 Y49.3894 
G01 X29.1242 Y49.2824 
G01 X29.1996 Y49.2512 
G01 X29.1996 Y48.4118 
G01 X29.3520 Y48.2594 
G01 X29.3520 Y48.1967 
G01 X29.2363 Y48.0810 
G01 X29.1293 Y47.9209 
G01 X29.0556 Y47.7429 
G01 X29.0180 Y47.5539 
G01 X29.0180 Y45.5213 
G01 X29.0556 Y45.3323 
G01 X29.1158 Y45.1870 
G01 X29.1293 Y45.1543 
G01 X29.1811 Y45.0769 
G01 X29.2363 Y44.9942 
G01 X29.3726 Y44.8579 
G01 X29.4288 Y44.8204 
G01 X29.8373 Y44.4119 
G01 X30.0340 Y43.9370 
G01 X30.0340 Y43.4032 
G01 X30.0040 Y43.2523 
G01 X30.0040 Y43.0597 
G01 X30.0409 Y42.8739 
G01 X30.0416 Y42.8707 
G01 X30.0968 Y42.7375 
G01 X30.1153 Y42.6928 
G01 X30.1859 Y42.5871 
G01 X30.2223 Y42.5326 
G01 X30.3564 Y42.3985 
G01 X30.4528 Y42.3333 
G01 X30.5187 Y42.2893 
G01 X30.5777 Y42.2649 
G01 X30.6967 Y42.2156 
G01 X30.7332 Y42.2083 
G01 X30.8856 Y42.1780 
G01 X32.0803 Y42.1780 
G01 X32.2693 Y42.2156 
G01 X32.4473 Y42.2893 
G01 X32.6074 Y42.3963 
G01 X32.7437 Y42.5326 
G01 X32.8507 Y42.6927 
G01 X32.9244 Y42.8707 
G01 X32.9620 Y43.0597 
G01 X32.9620 Y63.2065 
G01 X33.1200 Y63.5880 
G01 X35.3406 Y65.8085 
G01 X35.7020 Y66.1700 
G01 X36.2506 Y66.3972 
G01 X36.3751 Y66.4804 
G01 X37.4058 Y66.4804 
G01 X37.4630 Y66.4422 
G01 X37.4673 Y66.4393 
G01 X37.6000 Y66.3844 
G01 X37.6453 Y66.3656 
G01 X37.7194 Y66.3509 
G01 X37.8342 Y66.3280 
G01 X56.0457 Y66.3280 
G01 X56.2347 Y66.3656 
G01 X56.4127 Y66.4393 
G01 X56.5340 Y66.5204 
G01 X57.5331 Y66.5204 
G01 X58.2536 Y65.7999 
G01 X58.2680 Y65.7274 
G01 X58.3417 Y65.5494 
G01 X58.4487 Y65.3892 
G01 X58.5850 Y65.2530 
G01 X61.5416 Y62.2963 
G01 X61.7018 Y62.1893 
G01 X61.8798 Y62.1156 
G01 X62.0687 Y62.0780 
G01 X67.0158 Y62.0780 
G01 X67.1264 Y62.1000 
G01 X67.2047 Y62.1156 
G01 X67.2458 Y62.1326 
G01 X67.3827 Y62.1893 
G01 X67.4698 Y62.2475 
G01 X67.5726 Y62.2680 
G01 X67.7506 Y62.3417 
G01 X67.9108 Y62.4487 
G01 X68.0470 Y62.5850 
G01 X71.3420 Y65.8800 
G01 X71.7235 Y66.0380 
G01 X83.2065 Y66.0380 
G01 X83.5880 Y65.8800 
G01 X88.5900 Y60.8780 
G01 X88.7480 Y60.4965 
G01 X88.7480 Y55.6613 
G01 X88.7856 Y55.4723 
G01 X88.8458 Y55.3270 
G01 X88.8593 Y55.2943 
G01 X88.9111 Y55.2169 
G01 X88.9663 Y55.1342 
G01 X89.1026 Y54.9979 
G01 X89.1588 Y54.9604 
G01 X89.5673 Y54.5519 
G01 X89.7640 Y54.0770 
G01 X89.7640 Y53.5630 
G01 X89.6850 Y53.3723 
G01 X89.6474 Y53.1834 
G01 X89.6474 Y52.9907 
G01 X89.6620 Y52.9177 
G01 X89.6850 Y52.8018 
G01 X89.7587 Y52.6238 
G01 X89.8658 Y52.4636 
G01 X89.9999 Y52.3295 
G01 X90.0784 Y52.2764 
G01 X90.1622 Y52.2204 
G01 X90.1917 Y52.2081 
G01 X90.3080 Y52.1600 
G01 X90.8056 Y51.6623 
G01 X94.8800 Y47.5880 
G01 X95.0380 Y47.2065 
G01 X95.0380 Y42.7935 
G01 X94.8800 Y42.4120 
G01 X94.3823 Y41.9144 
G01 X91.5880 Y39.1200 
G01 X91.2065 Y38.9620 
G01 X84.6035 Y38.9620 
G01 X84.2220 Y39.1200 
G01 X83.7244 Y39.6177 
G01 X73.5994 Y49.7426 
G01 X73.4393 Y49.8496 
G01 X73.2613 Y49.9234 
G01 X73.0723 Y49.9609 
G01 X72.8797 Y49.9609 
G01 X72.6907 Y49.9234 
G01 X72.5127 Y49.8496 
G01 X72.3526 Y49.7426 
G01 X72.2163 Y49.6064 
G01 X72.1093 Y49.4462 
G01 X72.0356 Y49.2682 
G01 X71.9980 Y49.0793 
G01 X71.9980 Y47.1843 
G01 X72.0356 Y46.9953 
G01 X72.1093 Y46.8173 
G01 X72.1504 Y46.7558 
G01 X72.1504 Y45.7369 
G01 X71.4531 Y45.0396 
G01 X70.4669 Y45.0396 
G01 X69.7696 Y45.7369 
G01 X69.7696 Y46.7558 
G01 X69.8107 Y46.8173 
G01 X69.8844 Y46.9953 
G01 X69.9220 Y47.1843 
G01 X69.9220 Y50.5015 
G01 X69.9367 Y50.5756 
G01 X69.9596 Y50.6904 
G01 X69.9596 Y51.2596 
G01 X70.3260 Y51.2596 
G01 X70.0196 Y50.9532 
G01 X70.0196 Y50.5803 
G01 X69.9820 Y50.3913 
G01 X69.9820 Y46.8506 
G01 X69.8296 Y46.6982 
G01 X69.8296 Y45.7618 
G01 X70.4918 Y45.0996 
G01 X71.4282 Y45.0996 
G01 X72.0904 Y45.7618 
G00 Z22.0000 
G00 X28.9204 Y49.3482 
G01 Z-0.1000 F30.00 
G01 X28.6392 Y49.6294 F50.00 
G01 X28.5497 Y49.7634 
G01 X22.8786 Y55.4345 
G01 X22.8667 Y55.4633 
G01 X22.7597 Y55.6234 
G01 X22.6234 Y55.7597 
G01 X22.4633 Y55.8667 
G01 X22.4345 Y55.8786 
G01 X20.0104 Y58.3027 
G01 X20.0104 Y58.5182 
G01 X19.3482 Y59.1804 
G01 X19.2027 Y59.1804 
G01 X13.4734 Y64.9097 
G01 X13.3133 Y65.0167 
G01 X13.1353 Y65.0904 
G01 X12.9463 Y65.1280 
G01 X5.8019 Y65.1280 
G01 X5.6977 Y65.2037 
G01 X5.5249 Y65.2917 
G01 X5.3405 Y65.3517 
G01 X5.1490 Y65.3820 
G01 X3.4310 Y65.3820 
G01 X3.2395 Y65.3517 
G01 X3.0551 Y65.2917 
G01 X2.8823 Y65.2037 
G01 X2.7254 Y65.0897 
G01 X2.5883 Y64.9526 
G01 X2.4743 Y64.7957 
G01 X2.3863 Y64.6229 
G01 X2.3263 Y64.4385 
G01 X2.2960 Y64.2470 
G01 X2.2960 Y64.0530 
G01 X2.3263 Y63.8615 
G01 X2.3863 Y63.6771 
G01 X2.4743 Y63.5043 
G01 X2.5883 Y63.3474 
G01 X2.7254 Y63.2103 
G01 X2.8823 Y63.0963 
G01 X3.0551 Y63.0083 
G01 X3.2395 Y62.9483 
G01 X3.4310 Y62.9180 
G01 X5.1490 Y62.9180 
G01 X5.3405 Y62.9483 
G01 X5.5249 Y63.0083 
G01 X5.6977 Y63.0963 
G01 X5.8019 Y63.1720 
G01 X12.4449 Y63.1720 
G01 X17.7496 Y57.8673 
G01 X17.7496 Y57.5818 
G01 X18.4118 Y56.9196 
G01 X18.6273 Y56.9196 
G01 X21.0220 Y54.5249 
G01 X21.0220 Y33.9037 
G01 X21.0596 Y33.7147 
G01 X21.1333 Y33.5367 
G01 X21.2403 Y33.3766 
G01 X21.3766 Y33.2403 
G01 X27.0020 Y27.6149 
G01 X27.0020 Y26.1931 
G01 X26.9295 Y26.1817 
G01 X26.7451 Y26.1217 
G01 X26.5723 Y26.0337 
G01 X26.4154 Y25.9197 
G01 X26.2783 Y25.7826 
G01 X26.1643 Y25.6257 
G01 X26.0763 Y25.4529 
G01 X26.0163 Y25.2685 
G01 X25.9860 Y25.0770 
G01 X25.9860 Y24.8830 
G01 X26.0163 Y24.6915 
G01 X26.0763 Y24.5071 
G01 X26.1643 Y24.3343 
G01 X26.2783 Y24.1774 
G01 X26.4154 Y24.0403 
G01 X26.5723 Y23.9263 
G01 X26.7451 Y23.8383 
G01 X26.9295 Y23.7783 
G01 X27.1210 Y23.7480 
G01 X28.8390 Y23.7480 
G01 X29.0305 Y23.7783 
G01 X29.2149 Y23.8383 
G01 X29.3877 Y23.9263 
G01 X29.5446 Y24.0403 
G01 X29.6817 Y24.1774 
G01 X29.7957 Y24.3343 
G01 X29.8837 Y24.5071 
G01 X29.9437 Y24.6915 
G01 X29.9740 Y24.8830 
G01 X29.9740 Y25.0770 
G01 X29.9437 Y25.2685 
G01 X29.8837 Y25.4529 
G01 X29.7957 Y25.6257 
G01 X29.6817 Y25.7826 
G01 X29.5446 Y25.9197 
G01 X29.3877 Y26.0337 
G01 X29.2149 Y26.1217 
G01 X29.0305 Y26.1817 
G01 X28.9580 Y26.1931 
G01 X28.9580 Y28.1163 
G01 X28.9204 Y28.3053 
G01 X28.8467 Y28.4833 
G01 X28.7397 Y28.6434 
G01 X22.9780 Y34.4051 
G01 X22.9780 Y52.5689 
G01 X26.6596 Y48.8873 
G01 X26.6596 Y48.4118 
G01 X27.0020 Y48.0694 
G01 X27.0020 Y44.8931 
G01 X26.9295 Y44.8817 
G01 X26.7451 Y44.8217 
G01 X26.5723 Y44.7337 
G01 X26.4154 Y44.6197 
G01 X26.2783 Y44.4826 
G01 X26.1643 Y44.3257 
G01 X26.0763 Y44.1529 
G01 X26.0163 Y43.9685 
G01 X25.9860 Y43.7770 
G01 X25.9860 Y43.5830 
G01 X26.0163 Y43.3915 
G01 X26.0763 Y43.2071 
G01 X26.1643 Y43.0343 
G01 X26.2783 Y42.8774 
G01 X26.4154 Y42.7403 
G01 X26.5723 Y42.6263 
G01 X26.7451 Y42.5383 
G01 X26.9295 Y42.4783 
G01 X27.1210 Y42.4480 
G01 X28.8390 Y42.4480 
G01 X29.0305 Y42.4783 
G01 X29.2149 Y42.5383 
G01 X29.3877 Y42.6263 
G01 X29.5446 Y42.7403 
G01 X29.6817 Y42.8774 
G01 X29.7957 Y43.0343 
G01 X29.8837 Y43.2071 
G01 X29.9437 Y43.3915 
G01 X29.9740 Y43.5830 
G01 X29.9740 Y43.7770 
G01 X29.9437 Y43.9685 
G01 X29.8837 Y44.1529 
G01 X29.7957 Y44.3257 
G01 X29.6817 Y44.4826 
G01 X29.5446 Y44.6197 
G01 X29.3877 Y44.7337 
G01 X29.2149 Y44.8217 
G01 X29.0305 Y44.8817 
G01 X28.9580 Y44.8931 
G01 X28.9580 Y48.7863 
G01 X28.9204 Y48.9753 
G01 X28.9204 Y49.3482 
G00 Z22.0000 
G00 X86.8510 Y52.5880 
G01 Z-0.1000 F30.00 
G01 X88.5690 Y52.5880 F50.00 
G01 X88.7605 Y52.6183 
G01 X88.9449 Y52.6783 
G01 X89.1177 Y52.7663 
G01 X89.2746 Y52.8803 
G01 X89.4117 Y53.0174 
G01 X89.5257 Y53.1743 
G01 X89.6137 Y53.3471 
G01 X89.6737 Y53.5315 
G01 X89.7040 Y53.7230 
G01 X89.7040 Y53.9170 
G01 X89.6737 Y54.1085 
G01 X89.6137 Y54.2929 
G01 X89.5257 Y54.4657 
G01 X89.4117 Y54.6226 
G01 X89.2746 Y54.7597 
G01 X89.1177 Y54.8737 
G01 X88.9449 Y54.9617 
G01 X88.7605 Y55.0217 
G01 X88.6880 Y55.0331 
G01 X88.6880 Y60.3863 
G01 X88.6504 Y60.5753 
G01 X88.5767 Y60.7533 
G01 X88.4697 Y60.9134 
G01 X83.7597 Y65.6234 
G01 X83.6234 Y65.7597 
G01 X83.4633 Y65.8667 
G01 X83.2853 Y65.9404 
G01 X83.0963 Y65.9780 
G01 X71.8337 Y65.9780 
G01 X71.6447 Y65.9404 
G01 X71.4667 Y65.8667 
G01 X71.3066 Y65.7597 
G01 X67.7173 Y62.1704 
G01 X67.5018 Y62.1704 
G01 X67.3494 Y62.0180 
G01 X61.7351 Y62.0180 
G01 X58.1704 Y65.5827 
G01 X58.1704 Y65.7982 
G01 X57.5082 Y66.4604 
G01 X56.5718 Y66.4604 
G01 X56.3794 Y66.2680 
G01 X37.5006 Y66.2680 
G01 X37.3482 Y66.4204 
G01 X36.4118 Y66.4204 
G01 X36.2594 Y66.2680 
G01 X36.1937 Y66.2680 
G01 X36.0047 Y66.2304 
G01 X35.8267 Y66.1567 
G01 X35.6666 Y66.0497 
G01 X35.5303 Y65.9134 
G01 X33.2403 Y63.6234 
G01 X33.1333 Y63.4633 
G01 X33.0596 Y63.2853 
G01 X33.0220 Y63.0963 
G01 X33.0220 Y42.6851 
G01 X32.4549 Y42.1180 
G01 X29.4919 Y42.1180 
G01 X29.3877 Y42.1937 
G01 X29.2149 Y42.2817 
G01 X29.0305 Y42.3417 
G01 X28.8390 Y42.3720 
G01 X27.1210 Y42.3720 
G01 X26.9295 Y42.3417 
G01 X26.7451 Y42.2817 
G01 X26.5723 Y42.1937 
G01 X26.4154 Y42.0797 
G01 X26.2783 Y41.9426 
G01 X26.1643 Y41.7857 
G01 X26.0763 Y41.6129 
G01 X26.0163 Y41.4285 
G01 X25.9860 Y41.2370 
G01 X25.9860 Y41.0430 
G01 X26.0163 Y40.8515 
G01 X26.0763 Y40.6671 
G01 X26.1643 Y40.4943 
G01 X26.2783 Y40.3374 
G01 X26.4154 Y40.2003 
G01 X26.5723 Y40.0863 
G01 X26.7451 Y39.9983 
G01 X26.9295 Y39.9383 
G01 X27.1210 Y39.9080 
G01 X28.8390 Y39.9080 
G01 X29.0305 Y39.9383 
G01 X29.2149 Y39.9983 
G01 X29.3877 Y40.0863 
G01 X29.4919 Y40.1620 
G01 X32.4549 Y40.1620 
G01 X43.0220 Y29.5949 
G01 X43.0220 Y20.9037 
G01 X43.0596 Y20.7147 
G01 X43.1333 Y20.5367 
G01 X43.2403 Y20.3766 
G01 X47.2403 Y16.3766 
G01 X47.3766 Y16.2403 
G01 X47.5367 Y16.1333 
G01 X47.7147 Y16.0596 
G01 X47.9037 Y16.0220 
G01 X89.5949 Y16.0220 
G01 X94.7820 Y10.8349 
G01 X94.7820 Y6.0519 
G01 X94.7063 Y5.9477 
G01 X94.6183 Y5.7749 
G01 X94.5583 Y5.5905 
G01 X94.5280 Y5.3990 
G01 X94.5280 Y3.6810 
G01 X94.5583 Y3.4895 
G01 X94.6183 Y3.3051 
G01 X94.7063 Y3.1323 
G01 X94.8203 Y2.9754 
G01 X94.9574 Y2.8383 
G01 X95.1143 Y2.7243 
G01 X95.2871 Y2.6363 
G01 X95.4715 Y2.5763 
G01 X95.6630 Y2.5460 
G01 X95.8570 Y2.5460 
G01 X96.0485 Y2.5763 
G01 X96.2329 Y2.6363 
G01 X96.4057 Y2.7243 
G01 X96.5626 Y2.8383 
G01 X96.6997 Y2.9754 
G01 X96.8137 Y3.1323 
G01 X96.9017 Y3.3051 
G01 X96.9617 Y3.4895 
G01 X96.9920 Y3.6810 
G01 X96.9920 Y5.3990 
G01 X96.9617 Y5.5905 
G01 X96.9017 Y5.7749 
G01 X96.8137 Y5.9477 
G01 X96.7380 Y6.0519 
G01 X96.7380 Y11.3363 
G01 X96.7004 Y11.5253 
G01 X96.6267 Y11.7033 
G01 X96.5197 Y11.8634 
G01 X90.6234 Y17.7597 
G01 X90.4633 Y17.8667 
G01 X90.2853 Y17.9404 
G01 X90.0963 Y17.9780 
G01 X48.4051 Y17.9780 
G01 X44.9780 Y21.4051 
G01 X44.9780 Y30.0963 
G01 X44.9404 Y30.2853 
G01 X44.8667 Y30.4633 
G01 X44.7597 Y30.6234 
G01 X34.2431 Y41.1400 
G01 X34.6234 Y41.5203 
G01 X34.7597 Y41.6566 
G01 X34.8667 Y41.8167 
G01 X34.9404 Y41.9947 
G01 X34.9780 Y42.1837 
G01 X34.9780 Y62.5949 
G01 X36.5427 Y64.1596 
G01 X37.3482 Y64.1596 
G01 X37.5006 Y64.3120 
G01 X56.4594 Y64.3120 
G01 X56.5718 Y64.1996 
G01 X56.7873 Y64.1996 
G01 X60.5703 Y60.4166 
G01 X60.7066 Y60.2803 
G01 X60.8667 Y60.1733 
G01 X61.0447 Y60.0996 
G01 X61.2337 Y60.0620 
G01 X67.3494 Y60.0620 
G01 X67.5018 Y59.9096 
G01 X68.4382 Y59.9096 
G01 X69.1004 Y60.5718 
G01 X69.1004 Y60.7873 
G01 X72.3351 Y64.0220 
G01 X82.5949 Y64.0220 
G01 X86.7320 Y59.8849 
G01 X86.7320 Y55.0331 
G01 X86.6595 Y55.0217 
G01 X86.4751 Y54.9617 
G01 X86.3023 Y54.8737 
G01 X86.1454 Y54.7597 
G01 X86.0083 Y54.6226 
G01 X85.8943 Y54.4657 
G01 X85.8063 Y54.2929 
G01 X85.7463 Y54.1085 
G01 X85.7160 Y53.9170 
G01 X85.7160 Y53.7230 
G01 X85.7463 Y53.5315 
G01 X85.8063 Y53.3471 
G01 X85.8943 Y53.1743 
G01 X86.0083 Y53.0174 
G01 X86.1454 Y52.8803 
G01 X86.3023 Y52.7663 
G01 X86.4751 Y52.6783 
G01 X86.6595 Y52.6183 
G01 X86.8510 Y52.5880 
G00 Z22.0000 
G00 X32.8510 Y6.8080 
G01 Z-0.1000 F30.00 
G01 X34.5690 Y6.8080 F50.00 
G01 X34.7605 Y6.8383 
G01 X34.9449 Y6.8983 
G01 X35.1177 Y6.9863 
G01 X35.2746 Y7.1003 
G01 X35.4117 Y7.2374 
G01 X35.5257 Y7.3943 
G01 X35.6137 Y7.5671 
G01 X35.6737 Y7.7515 
G01 X35.7040 Y7.9430 
G01 X35.7040 Y8.1370 
G01 X35.6737 Y8.3285 
G01 X35.6137 Y8.5129 
G01 X35.5976 Y8.5445 
G01 X36.0751 Y9.0220 
G01 X36.0963 Y9.0220 
G01 X36.2853 Y9.0596 
G01 X36.4633 Y9.1333 
G01 X36.6234 Y9.2403 
G01 X37.5286 Y10.1455 
G01 X37.5467 Y10.1333 
G01 X37.7247 Y10.0596 
G01 X37.9137 Y10.0220 
G01 X64.5949 Y10.0220 
G01 X66.8420 Y7.7749 
G01 X66.8420 Y6.0519 
G01 X66.7663 Y5.9477 
G01 X66.6783 Y5.7749 
G01 X66.6183 Y5.5905 
G01 X66.5880 Y5.3990 
G01 X66.5880 Y3.6810 
G01 X66.6183 Y3.4895 
G01 X66.6783 Y3.3051 
G01 X66.7663 Y3.1323 
G01 X66.8803 Y2.9754 
G01 X67.0174 Y2.8383 
G01 X67.1743 Y2.7243 
G01 X67.3471 Y2.6363 
G01 X67.5315 Y2.5763 
G01 X67.7230 Y2.5460 
G01 X67.9170 Y2.5460 
G01 X68.1085 Y2.5763 
G01 X68.2929 Y2.6363 
G01 X68.4657 Y2.7243 
G01 X68.6226 Y2.8383 
G01 X68.7597 Y2.9754 
G01 X68.8737 Y3.1323 
G01 X68.9617 Y3.3051 
G01 X69.0217 Y3.4895 
G01 X69.0520 Y3.6810 
G01 X69.0520 Y5.3990 
G01 X69.0217 Y5.5905 
G01 X68.9617 Y5.7749 
G01 X68.8737 Y5.9477 
G01 X68.7980 Y6.0519 
G01 X68.7980 Y8.2763 
G01 X68.7604 Y8.4653 
G01 X68.6867 Y8.6433 
G01 X68.5797 Y8.8034 
G01 X68.4434 Y8.9397 
G01 X65.6234 Y11.7597 
G01 X65.4633 Y11.8667 
G01 X65.2853 Y11.9404 
G01 X65.0963 Y11.9780 
G01 X38.4151 Y11.9780 
G01 X38.1704 Y12.2227 
G01 X38.1704 Y12.4382 
G01 X37.5082 Y13.1004 
G01 X36.5718 Y13.1004 
G01 X35.9096 Y12.4382 
G01 X35.9096 Y11.5018 
G01 X36.0141 Y11.3972 
G01 X35.5949 Y10.9780 
G01 X35.5737 Y10.9780 
G01 X35.3847 Y10.9404 
G01 X35.2067 Y10.8667 
G01 X35.0466 Y10.7597 
G01 X34.9103 Y10.6234 
G01 X33.5589 Y9.2720 
G01 X32.8510 Y9.2720 
G01 X32.6595 Y9.2417 
G01 X32.4751 Y9.1817 
G01 X32.3023 Y9.0937 
G01 X32.1454 Y8.9797 
G01 X32.0083 Y8.8426 
G01 X31.8943 Y8.6857 
G01 X31.8063 Y8.5129 
G01 X31.7463 Y8.3285 
G01 X31.7160 Y8.1370 
G01 X31.7160 Y7.9430 
G01 X31.7463 Y7.7515 
G01 X31.8063 Y7.5671 
G01 X31.8943 Y7.3943 
G01 X32.0083 Y7.2374 
G01 X32.1454 Y7.1003 
G01 X32.3023 Y6.9863 
G01 X32.4751 Y6.8983 
G01 X32.6595 Y6.8383 
G01 X32.8510 Y6.8080 
G00 Z22.0000 
G00 X48.8080 Y3.6710 
G01 Z-0.1000 F30.00 
G01 X48.8383 Y3.4795 F50.00 
G01 X48.8983 Y3.2951 
G01 X48.9863 Y3.1223 
G01 X49.1003 Y2.9654 
G01 X49.2374 Y2.8283 
G01 X49.3943 Y2.7143 
G01 X49.5671 Y2.6263 
G01 X49.7515 Y2.5663 
G01 X49.9430 Y2.5360 
G01 X50.1370 Y2.5360 
G01 X50.3285 Y2.5663 
G01 X50.5129 Y2.6263 
G01 X50.6857 Y2.7143 
G01 X50.8426 Y2.8283 
G01 X50.9797 Y2.9654 
G01 X51.0937 Y3.1223 
G01 X51.1817 Y3.2951 
G01 X51.2417 Y3.4795 
G01 X51.2720 Y3.6710 
G01 X51.2720 Y5.3890 
G01 X51.2417 Y5.5805 
G01 X51.1817 Y5.7649 
G01 X51.0937 Y5.9377 
G01 X50.9797 Y6.0946 
G01 X50.8426 Y6.2317 
G01 X50.6857 Y6.3457 
G01 X50.5129 Y6.4337 
G01 X50.3285 Y6.4937 
G01 X50.1370 Y6.5240 
G01 X49.9430 Y6.5240 
G01 X49.7515 Y6.4937 
G01 X49.5671 Y6.4337 
G01 X49.4793 Y6.3890 
G01 X49.3553 Y6.4404 
G01 X49.1663 Y6.4780 
G01 X35.2219 Y6.4780 
G01 X35.1177 Y6.5537 
G01 X34.9449 Y6.6417 
G01 X34.7605 Y6.7017 
G01 X34.5690 Y6.7320 
G01 X32.8510 Y6.7320 
G01 X32.6595 Y6.7017 
G01 X32.4751 Y6.6417 
G01 X32.3023 Y6.5537 
G01 X32.1981 Y6.4780 
G01 X30.9051 Y6.4780 
G01 X29.9780 Y7.4051 
G01 X29.9780 Y11.5949 
G01 X33.6234 Y15.2403 
G01 X33.7597 Y15.3766 
G01 X33.8667 Y15.5367 
G01 X33.9404 Y15.7147 
G01 X33.9780 Y15.9037 
G01 X33.9780 Y20.0963 
G01 X33.9404 Y20.2853 
G01 X33.8667 Y20.4633 
G01 X33.7597 Y20.6234 
G01 X33.6234 Y20.7597 
G01 X31.1834 Y23.1997 
G01 X31.0233 Y23.3067 
G01 X30.8453 Y23.3804 
G01 X30.6563 Y23.4180 
G01 X29.4919 Y23.4180 
G01 X29.3877 Y23.4937 
G01 X29.2149 Y23.5817 
G01 X29.0305 Y23.6417 
G01 X28.8390 Y23.6720 
G01 X27.1210 Y23.6720 
G01 X26.9295 Y23.6417 
G01 X26.7451 Y23.5817 
G01 X26.5723 Y23.4937 
G01 X26.4681 Y23.4180 
G01 X24.9651 Y23.4180 
G01 X16.7597 Y31.6234 
G01 X16.6234 Y31.7597 
G01 X16.4633 Y31.8667 
G01 X16.2853 Y31.9404 
G01 X16.0963 Y31.9780 
G01 X10.4051 Y31.9780 
G01 X6.0980 Y36.2851 
G01 X6.0980 Y51.2494 
G01 X6.2504 Y51.4018 
G01 X6.2504 Y52.3382 
G01 X5.5882 Y53.0004 
G01 X4.6518 Y53.0004 
G01 X3.9896 Y52.3382 
G01 X3.9896 Y51.4018 
G01 X4.1420 Y51.2494 
G01 X4.1420 Y35.7837 
G01 X4.1796 Y35.5947 
G01 X4.2533 Y35.4167 
G01 X4.3603 Y35.2566 
G01 X9.3766 Y30.2403 
G01 X9.5367 Y30.1333 
G01 X9.7147 Y30.0596 
G01 X9.9037 Y30.0220 
G01 X15.5949 Y30.0220 
G01 X23.9366 Y21.6803 
G01 X24.0967 Y21.5733 
G01 X24.2747 Y21.4996 
G01 X24.4637 Y21.4620 
G01 X26.4681 Y21.4620 
G01 X26.5723 Y21.3863 
G01 X26.7451 Y21.2983 
G01 X26.9295 Y21.2383 
G01 X27.1210 Y21.2080 
G01 X28.8390 Y21.2080 
G01 X29.0305 Y21.2383 
G01 X29.2149 Y21.2983 
G01 X29.3877 Y21.3863 
G01 X29.4919 Y21.4620 
G01 X30.1549 Y21.4620 
G01 X32.0220 Y19.5949 
G01 X32.0220 Y16.4051 
G01 X28.3766 Y12.7597 
G01 X28.2403 Y12.6234 
G01 X28.1333 Y12.4633 
G01 X28.0596 Y12.2853 
G01 X28.0220 Y12.0963 
G01 X28.0220 Y6.9037 
G01 X28.0596 Y6.7147 
G01 X28.1333 Y6.5367 
G01 X28.2403 Y6.3766 
G01 X29.8766 Y4.7403 
G01 X30.0367 Y4.6333 
G01 X30.2147 Y4.5596 
G01 X30.4037 Y4.5220 
G01 X32.1981 Y4.5220 
G01 X32.3023 Y4.4463 
G01 X32.4751 Y4.3583 
G01 X32.6595 Y4.2983 
G01 X32.8510 Y4.2680 
G01 X34.5690 Y4.2680 
G01 X34.7605 Y4.2983 
G01 X34.9449 Y4.3583 
G01 X35.1177 Y4.4463 
G01 X35.2219 Y4.5220 
G01 X48.6649 Y4.5220 
G01 X48.8080 Y4.3789 
G01 X48.8080 Y3.6710 
G00 Z22.0000 
G00 X51.3480 Y5.3990 
G01 Z-0.1000 F30.00 
G01 X51.3480 Y3.6810 F50.00 
G01 X51.3783 Y3.4895 
G01 X51.4383 Y3.3051 
G01 X51.5263 Y3.1323 
G01 X51.6403 Y2.9754 
G01 X51.7774 Y2.8383 
G01 X51.9343 Y2.7243 
G01 X52.1071 Y2.6363 
G01 X52.2915 Y2.5763 
G01 X52.4830 Y2.5460 
G01 X52.6770 Y2.5460 
G01 X52.8685 Y2.5763 
G01 X53.0529 Y2.6363 
G01 X53.2257 Y2.7243 
G01 X53.3826 Y2.8383 
G01 X53.5197 Y2.9754 
G01 X53.6337 Y3.1323 
G01 X53.7217 Y3.3051 
G01 X53.7817 Y3.4895 
G01 X53.8120 Y3.6810 
G01 X53.8120 Y5.3990 
G01 X53.7817 Y5.5905 
G01 X53.7217 Y5.7749 
G01 X53.6337 Y5.9477 
G01 X53.5197 Y6.1046 
G01 X53.3826 Y6.2417 
G01 X53.2257 Y6.3557 
G01 X53.0529 Y6.4437 
G01 X52.8685 Y6.5037 
G01 X52.6770 Y6.5340 
G01 X52.4830 Y6.5340 
G01 X52.2915 Y6.5037 
G01 X52.1071 Y6.4437 
G01 X51.9343 Y6.3557 
G01 X51.7774 Y6.2417 
G01 X51.6403 Y6.1046 
G01 X51.5263 Y5.9477 
G01 X51.4383 Y5.7749 
G01 X51.3783 Y5.5905 
G01 X51.3480 Y5.3990 
G00 Z22.0000 
G00 X53.8880 Y5.3990 
G01 Z-0.1000 F30.00 
G01 X53.8880 Y3.6810 F50.00 
G01 X53.9183 Y3.4895 
G01 X53.9783 Y3.3051 
G01 X54.0663 Y3.1323 
G01 X54.1803 Y2.9754 
G01 X54.3174 Y2.8383 
G01 X54.4743 Y2.7243 
G01 X54.6471 Y2.6363 
G01 X54.8315 Y2.5763 
G01 X55.0230 Y2.5460 
G01 X55.2170 Y2.5460 
G01 X55.4085 Y2.5763 
G01 X55.5929 Y2.6363 
G01 X55.7657 Y2.7243 
G01 X55.9226 Y2.8383 
G01 X56.0597 Y2.9754 
G01 X56.1737 Y3.1323 
G01 X56.2617 Y3.3051 
G01 X56.3217 Y3.4895 
G01 X56.3520 Y3.6810 
G01 X56.3520 Y5.3990 
G01 X56.3217 Y5.5905 
G01 X56.2617 Y5.7749 
G01 X56.1737 Y5.9477 
G01 X56.0597 Y6.1046 
G01 X55.9226 Y6.2417 
G01 X55.7657 Y6.3557 
G01 X55.5929 Y6.4437 
G01 X55.4085 Y6.5037 
G01 X55.2170 Y6.5340 
G01 X55.0230 Y6.5340 
G01 X54.8315 Y6.5037 
G01 X54.6471 Y6.4437 
G01 X54.4743 Y6.3557 
G01 X54.3174 Y6.2417 
G01 X54.1803 Y6.1046 
G01 X54.0663 Y5.9477 
G01 X53.9783 Y5.7749 
G01 X53.9183 Y5.5905 
G01 X53.8880 Y5.3990 
G00 Z22.0000 
G00 X56.4280 Y5.3990 
G01 Z-0.1000 F30.00 
G01 X56.4280 Y3.6810 F50.00 
G01 X56.4583 Y3.4895 
G01 X56.5183 Y3.3051 
G01 X56.6063 Y3.1323 
G01 X56.7203 Y2.9754 
G01 X56.8574 Y2.8383 
G01 X57.0143 Y2.7243 
G01 X57.1871 Y2.6363 
G01 X57.3715 Y2.5763 
G01 X57.5630 Y2.5460 
G01 X57.7570 Y2.5460 
G01 X57.9485 Y2.5763 
G01 X58.1329 Y2.6363 
G01 X58.3057 Y2.7243 
G01 X58.4626 Y2.8383 
G01 X58.5997 Y2.9754 
G01 X58.7137 Y3.1323 
G01 X58.8017 Y3.3051 
G01 X58.8617 Y3.4895 
G01 X58.8920 Y3.6810 
G01 X58.8920 Y5.3990 
G01 X58.8617 Y5.5905 
G01 X58.8017 Y5.7749 
G01 X58.7137 Y5.9477 
G01 X58.5997 Y6.1046 
G01 X58.4626 Y6.2417 
G01 X58.3057 Y6.3557 
G01 X58.1329 Y6.4437 
G01 X57.9485 Y6.5037 
G01 X57.7570 Y6.5340 
G01 X57.5630 Y6.5340 
G01 X57.3715 Y6.5037 
G01 X57.1871 Y6.4437 
G01 X57.0143 Y6.3557 
G01 X56.8574 Y6.2417 
G01 X56.7203 Y6.1046 
G01 X56.6063 Y5.9477 
G01 X56.5183 Y5.7749 
G01 X56.4583 Y5.5905 
G01 X56.4280 Y5.3990 
G00 Z22.0000 
G00 X58.9680 Y5.3990 
G01 Z-0.1000 F30.00 
G01 X58.9680 Y3.6810 F50.00 
G01 X58.9983 Y3.4895 
G01 X59.0583 Y3.3051 
G01 X59.1463 Y3.1323 
G01 X59.2603 Y2.9754 
G01 X59.3974 Y2.8383 
G01 X59.5543 Y2.7243 
G01 X59.7271 Y2.6363 
G01 X59.9115 Y2.5763 
G01 X60.1030 Y2.5460 
G01 X60.2970 Y2.5460 
G01 X60.4885 Y2.5763 
G01 X60.6729 Y2.6363 
G01 X60.8457 Y2.7243 
G01 X61.0026 Y2.8383 
G01 X61.1397 Y2.9754 
G01 X61.2537 Y3.1323 
G01 X61.3417 Y3.3051 
G01 X61.4017 Y3.4895 
G01 X61.4320 Y3.6810 
G01 X61.4320 Y5.3990 
G01 X61.4017 Y5.5905 
G01 X61.3417 Y5.7749 
G01 X61.2537 Y5.9477 
G01 X61.1397 Y6.1046 
G01 X61.0026 Y6.2417 
G01 X60.8457 Y6.3557 
G01 X60.6729 Y6.4437 
G01 X60.4885 Y6.5037 
G01 X60.2970 Y6.5340 
G01 X60.1030 Y6.5340 
G01 X59.9115 Y6.5037 
G01 X59.7271 Y6.4437 
G01 X59.5543 Y6.3557 
G01 X59.3974 Y6.2417 
G01 X59.2603 Y6.1046 
G01 X59.1463 Y5.9477 
G01 X59.0583 Y5.7749 
G01 X58.9983 Y5.5905 
G01 X58.9680 Y5.3990 
G00 Z22.0000 
G00 X61.5080 Y5.3990 
G01 Z-0.1000 F30.00 
G01 X61.5080 Y3.6810 F50.00 
G01 X61.5383 Y3.4895 
G01 X61.5983 Y3.3051 
G01 X61.6863 Y3.1323 
G01 X61.8003 Y2.9754 
G01 X61.9374 Y2.8383 
G01 X62.0943 Y2.7243 
G01 X62.2671 Y2.6363 
G01 X62.4515 Y2.5763 
G01 X62.6430 Y2.5460 
G01 X62.8370 Y2.5460 
G01 X63.0285 Y2.5763 
G01 X63.2129 Y2.6363 
G01 X63.3857 Y2.7243 
G01 X63.5426 Y2.8383 
G01 X63.6797 Y2.9754 
G01 X63.7937 Y3.1323 
G01 X63.8817 Y3.3051 
G01 X63.9417 Y3.4895 
G01 X63.9720 Y3.6810 
G01 X63.9720 Y5.3990 
G01 X63.9417 Y5.5905 
G01 X63.8817 Y5.7749 
G01 X63.7937 Y5.9477 
G01 X63.6797 Y6.1046 
G01 X63.5426 Y6.2417 
G01 X63.3857 Y6.3557 
G01 X63.2129 Y6.4437 
G01 X63.0285 Y6.5037 
G01 X62.8370 Y6.5340 
G01 X62.6430 Y6.5340 
G01 X62.4515 Y6.5037 
G01 X62.2671 Y6.4437 
G01 X62.0943 Y6.3557 
G01 X61.9374 Y6.2417 
G01 X61.8003 Y6.1046 
G01 X61.6863 Y5.9477 
G01 X61.5983 Y5.7749 
G01 X61.5383 Y5.5905 
G01 X61.5080 Y5.3990 
G00 Z22.0000 
G00 X64.0480 Y5.3990 
G01 Z-0.1000 F30.00 
G01 X64.0480 Y3.6810 F50.00 
G01 X64.0783 Y3.4895 
G01 X64.1383 Y3.3051 
G01 X64.2263 Y3.1323 
G01 X64.3403 Y2.9754 
G01 X64.4774 Y2.8383 
G01 X64.6343 Y2.7243 
G01 X64.8071 Y2.6363 
G01 X64.9915 Y2.5763 
G01 X65.1830 Y2.5460 
G01 X65.3770 Y2.5460 
G01 X65.5685 Y2.5763 
G01 X65.7529 Y2.6363 
G01 X65.9257 Y2.7243 
G01 X66.0826 Y2.8383 
G01 X66.2197 Y2.9754 
G01 X66.3337 Y3.1323 
G01 X66.4217 Y3.3051 
G01 X66.4817 Y3.4895 
G01 X66.5120 Y3.6810 
G01 X66.5120 Y5.3990 
G01 X66.4817 Y5.5905 
G01 X66.4217 Y5.7749 
G01 X66.3337 Y5.9477 
G01 X66.2197 Y6.1046 
G01 X66.0826 Y6.2417 
G01 X65.9257 Y6.3557 
G01 X65.7529 Y6.4437 
G01 X65.5685 Y6.5037 
G01 X65.3770 Y6.5340 
G01 X65.1830 Y6.5340 
G01 X64.9915 Y6.5037 
G01 X64.8071 Y6.4437 
G01 X64.6343 Y6.3557 
G01 X64.4774 Y6.2417 
G01 X64.3403 Y6.1046 
G01 X64.2263 Y5.9477 
G01 X64.1383 Y5.7749 
G01 X64.0783 Y5.5905 
G01 X64.0480 Y5.3990 
G00 Z22.0000 
G00 X69.1280 Y5.3990 
G01 Z-0.1000 F30.00 
G01 X69.1280 Y3.6810 F50.00 
G01 X69.1583 Y3.4895 
G01 X69.2183 Y3.3051 
G01 X69.3063 Y3.1323 
G01 X69.4203 Y2.9754 
G01 X69.5574 Y2.8383 
G01 X69.7143 Y2.7243 
G01 X69.8871 Y2.6363 
G01 X70.0715 Y2.5763 
G01 X70.2630 Y2.5460 
G01 X70.4570 Y2.5460 
G01 X70.6485 Y2.5763 
G01 X70.8329 Y2.6363 
G01 X71.0057 Y2.7243 
G01 X71.1626 Y2.8383 
G01 X71.2997 Y2.9754 
G01 X71.4137 Y3.1323 
G01 X71.5017 Y3.3051 
G01 X71.5617 Y3.4895 
G01 X71.5920 Y3.6810 
G01 X71.5920 Y5.3990 
G01 X71.5617 Y5.5905 
G01 X71.5017 Y5.7749 
G01 X71.4137 Y5.9477 
G01 X71.2997 Y6.1046 
G01 X71.1626 Y6.2417 
G01 X71.0057 Y6.3557 
G01 X70.8329 Y6.4437 
G01 X70.6485 Y6.5037 
G01 X70.4570 Y6.5340 
G01 X70.2630 Y6.5340 
G01 X70.0715 Y6.5037 
G01 X69.8871 Y6.4437 
G01 X69.7143 Y6.3557 
G01 X69.5574 Y6.2417 
G01 X69.4203 Y6.1046 
G01 X69.3063 Y5.9477 
G01 X69.2183 Y5.7749 
G01 X69.1583 Y5.5905 
G01 X69.1280 Y5.3990 
G00 Z22.0000 
G00 X71.6680 Y5.3990 
G01 Z-0.1000 F30.00 
G01 X71.6680 Y3.6810 F50.00 
G01 X71.6983 Y3.4895 
G01 X71.7583 Y3.3051 
G01 X71.8463 Y3.1323 
G01 X71.9603 Y2.9754 
G01 X72.0974 Y2.8383 
G01 X72.2543 Y2.7243 
G01 X72.4271 Y2.6363 
G01 X72.6115 Y2.5763 
G01 X72.8030 Y2.5460 
G01 X72.9970 Y2.5460 
G01 X73.1885 Y2.5763 
G01 X73.3729 Y2.6363 
G01 X73.5457 Y2.7243 
G01 X73.7026 Y2.8383 
G01 X73.8397 Y2.9754 
G01 X73.9537 Y3.1323 
G01 X74.0417 Y3.3051 
G01 X74.1017 Y3.4895 
G01 X74.1320 Y3.6810 
G01 X74.1320 Y5.3990 
G01 X74.1017 Y5.5905 
G01 X74.0417 Y5.7749 
G01 X73.9537 Y5.9477 
G01 X73.8397 Y6.1046 
G01 X73.7026 Y6.2417 
G01 X73.5457 Y6.3557 
G01 X73.3729 Y6.4437 
G01 X73.1885 Y6.5037 
G01 X72.9970 Y6.5340 
G01 X72.8030 Y6.5340 
G01 X72.6115 Y6.5037 
G01 X72.4271 Y6.4437 
G01 X72.2543 Y6.3557 
G01 X72.0974 Y6.2417 
G01 X71.9603 Y6.1046 
G01 X71.8463 Y5.9477 
G01 X71.7583 Y5.7749 
G01 X71.6983 Y5.5905 
G01 X71.6680 Y5.3990 
G00 Z22.0000 
G00 X74.2080 Y5.3990 
G01 Z-0.1000 F30.00 
G01 X74.2080 Y3.6810 F50.00 
G01 X74.2383 Y3.4895 
G01 X74.2983 Y3.3051 
G01 X74.3863 Y3.1323 
G01 X74.5003 Y2.9754 
G01 X74.6374 Y2.8383 
G01 X74.7943 Y2.7243 
G01 X74.9671 Y2.6363 
G01 X75.1515 Y2.5763 
G01 X75.3430 Y2.5460 
G01 X75.5370 Y2.5460 
G01 X75.7285 Y2.5763 
G01 X75.9129 Y2.6363 
G01 X76.0857 Y2.7243 
G01 X76.2426 Y2.8383 
G01 X76.3797 Y2.9754 
G01 X76.4937 Y3.1323 
G01 X76.5817 Y3.3051 
G01 X76.6417 Y3.4895 
G01 X76.6720 Y3.6810 
G01 X76.6720 Y5.3990 
G01 X76.6417 Y5.5905 
G01 X76.5817 Y5.7749 
G01 X76.4937 Y5.9477 
G01 X76.3797 Y6.1046 
G01 X76.2426 Y6.2417 
G01 X76.0857 Y6.3557 
G01 X75.9129 Y6.4437 
G01 X75.7285 Y6.5037 
G01 X75.5370 Y6.5340 
G01 X75.3430 Y6.5340 
G01 X75.1515 Y6.5037 
G01 X74.9671 Y6.4437 
G01 X74.7943 Y6.3557 
G01 X74.6374 Y6.2417 
G01 X74.5003 Y6.1046 
G01 X74.3863 Y5.9477 
G01 X74.2983 Y5.7749 
G01 X74.2383 Y5.5905 
G01 X74.2080 Y5.3990 
G00 Z22.0000 
G00 X76.7480 Y5.3990 
G01 Z-0.1000 F30.00 
G01 X76.7480 Y3.6810 F50.00 
G01 X76.7783 Y3.4895 
G01 X76.8383 Y3.3051 
G01 X76.9263 Y3.1323 
G01 X77.0403 Y2.9754 
G01 X77.1774 Y2.8383 
G01 X77.3343 Y2.7243 
G01 X77.5071 Y2.6363 
G01 X77.6915 Y2.5763 
G01 X77.8830 Y2.5460 
G01 X78.0770 Y2.5460 
G01 X78.2685 Y2.5763 
G01 X78.4529 Y2.6363 
G01 X78.6257 Y2.7243 
G01 X78.7826 Y2.8383 
G01 X78.9197 Y2.9754 
G01 X79.0337 Y3.1323 
G01 X79.1217 Y3.3051 
G01 X79.1817 Y3.4895 
G01 X79.2120 Y3.6810 
G01 X79.2120 Y5.3990 
G01 X79.1817 Y5.5905 
G01 X79.1217 Y5.7749 
G01 X79.0337 Y5.9477 
G01 X78.9197 Y6.1046 
G01 X78.7826 Y6.2417 
G01 X78.6257 Y6.3557 
G01 X78.4529 Y6.4437 
G01 X78.2685 Y6.5037 
G01 X78.0770 Y6.5340 
G01 X77.8830 Y6.5340 
G01 X77.6915 Y6.5037 
G01 X77.5071 Y6.4437 
G01 X77.3343 Y6.3557 
G01 X77.1774 Y6.2417 
G01 X77.0403 Y6.1046 
G01 X76.9263 Y5.9477 
G01 X76.8383 Y5.7749 
G01 X76.7783 Y5.5905 
G01 X76.7480 Y5.3990 
G00 Z22.0000 
G00 X79.2880 Y5.3990 
G01 Z-0.1000 F30.00 
G01 X79.2880 Y3.6810 F50.00 
G01 X79.3183 Y3.4895 
G01 X79.3783 Y3.3051 
G01 X79.4663 Y3.1323 
G01 X79.5803 Y2.9754 
G01 X79.7174 Y2.8383 
G01 X79.8743 Y2.7243 
G01 X80.0471 Y2.6363 
G01 X80.2315 Y2.5763 
G01 X80.4230 Y2.5460 
G01 X80.6170 Y2.5460 
G01 X80.8085 Y2.5763 
G01 X80.9929 Y2.6363 
G01 X81.1657 Y2.7243 
G01 X81.3226 Y2.8383 
G01 X81.4597 Y2.9754 
G01 X81.5737 Y3.1323 
G01 X81.6617 Y3.3051 
G01 X81.7217 Y3.4895 
G01 X81.7520 Y3.6810 
G01 X81.7520 Y5.3990 
G01 X81.7217 Y5.5905 
G01 X81.6617 Y5.7749 
G01 X81.5737 Y5.9477 
G01 X81.4597 Y6.1046 
G01 X81.3226 Y6.2417 
G01 X81.1657 Y6.3557 
G01 X80.9929 Y6.4437 
G01 X80.8085 Y6.5037 
G01 X80.6170 Y6.5340 
G01 X80.4230 Y6.5340 
G01 X80.2315 Y6.5037 
G01 X80.0471 Y6.4437 
G01 X79.8743 Y6.3557 
G01 X79.7174 Y6.2417 
G01 X79.5803 Y6.1046 
G01 X79.4663 Y5.9477 
G01 X79.3783 Y5.7749 
G01 X79.3183 Y5.5905 
G01 X79.2880 Y5.3990 
G00 Z22.0000 
G00 X84.3680 Y5.3990 
G01 Z-0.1000 F30.00 
G01 X84.3680 Y3.6810 F50.00 
G01 X84.3983 Y3.4895 
G01 X84.4583 Y3.3051 
G01 X84.5463 Y3.1323 
G01 X84.6603 Y2.9754 
G01 X84.7974 Y2.8383 
G01 X84.9543 Y2.7243 
G01 X85.1271 Y2.6363 
G01 X85.3115 Y2.5763 
G01 X85.5030 Y2.5460 
G01 X85.6970 Y2.5460 
G01 X85.8885 Y2.5763 
G01 X86.0729 Y2.6363 
G01 X86.2457 Y2.7243 
G01 X86.4026 Y2.8383 
G01 X86.5397 Y2.9754 
G01 X86.6537 Y3.1323 
G01 X86.7417 Y3.3051 
G01 X86.8017 Y3.4895 
G01 X86.8320 Y3.6810 
G01 X86.8320 Y5.3990 
G01 X86.8017 Y5.5905 
G01 X86.7417 Y5.7749 
G01 X86.6537 Y5.9477 
G01 X86.5397 Y6.1046 
G01 X86.4026 Y6.2417 
G01 X86.2457 Y6.3557 
G01 X86.0729 Y6.4437 
G01 X85.8885 Y6.5037 
G01 X85.6970 Y6.5340 
G01 X85.5030 Y6.5340 
G01 X85.3115 Y6.5037 
G01 X85.1271 Y6.4437 
G01 X84.9543 Y6.3557 
G01 X84.7974 Y6.2417 
G01 X84.6603 Y6.1046 
G01 X84.5463 Y5.9477 
G01 X84.4583 Y5.7749 
G01 X84.3983 Y5.5905 
G01 X84.3680 Y5.3990 
G00 Z22.0000 
G00 X86.9080 Y5.3990 
G01 Z-0.1000 F30.00 
G01 X86.9080 Y3.6810 F50.00 
G01 X86.9383 Y3.4895 
G01 X86.9983 Y3.3051 
G01 X87.0863 Y3.1323 
G01 X87.2003 Y2.9754 
G01 X87.3374 Y2.8383 
G01 X87.4943 Y2.7243 
G01 X87.6671 Y2.6363 
G01 X87.8515 Y2.5763 
G01 X88.0430 Y2.5460 
G01 X88.2370 Y2.5460 
G01 X88.4285 Y2.5763 
G01 X88.6129 Y2.6363 
G01 X88.7857 Y2.7243 
G01 X88.9426 Y2.8383 
G01 X89.0797 Y2.9754 
G01 X89.1937 Y3.1323 
G01 X89.2817 Y3.3051 
G01 X89.3417 Y3.4895 
G01 X89.3720 Y3.6810 
G01 X89.3720 Y5.3990 
G01 X89.3417 Y5.5905 
G01 X89.2817 Y5.7749 
G01 X89.1937 Y5.9477 
G01 X89.0797 Y6.1046 
G01 X88.9426 Y6.2417 
G01 X88.7857 Y6.3557 
G01 X88.6129 Y6.4437 
G01 X88.4285 Y6.5037 
G01 X88.2370 Y6.5340 
G01 X88.0430 Y6.5340 
G01 X87.8515 Y6.5037 
G01 X87.6671 Y6.4437 
G01 X87.4943 Y6.3557 
G01 X87.3374 Y6.2417 
G01 X87.2003 Y6.1046 
G01 X87.0863 Y5.9477 
G01 X86.9983 Y5.7749 
G01 X86.9383 Y5.5905 
G01 X86.9080 Y5.3990 
G00 Z22.0000 
G00 X89.4480 Y5.3990 
G01 Z-0.1000 F30.00 
G01 X89.4480 Y3.6810 F50.00 
G01 X89.4783 Y3.4895 
G01 X89.5383 Y3.3051 
G01 X89.6263 Y3.1323 
G01 X89.7403 Y2.9754 
G01 X89.8774 Y2.8383 
G01 X90.0343 Y2.7243 
G01 X90.2071 Y2.6363 
G01 X90.3915 Y2.5763 
G01 X90.5830 Y2.5460 
G01 X90.7770 Y2.5460 
G01 X90.9685 Y2.5763 
G01 X91.1529 Y2.6363 
G01 X91.3257 Y2.7243 
G01 X91.4826 Y2.8383 
G01 X91.6197 Y2.9754 
G01 X91.7337 Y3.1323 
G01 X91.8217 Y3.3051 
G01 X91.8817 Y3.4895 
G01 X91.9120 Y3.6810 
G01 X91.9120 Y5.3990 
G01 X91.8817 Y5.5905 
G01 X91.8217 Y5.7749 
G01 X91.7337 Y5.9477 
G01 X91.6197 Y6.1046 
G01 X91.4826 Y6.2417 
G01 X91.3257 Y6.3557 
G01 X91.1529 Y6.4437 
G01 X90.9685 Y6.5037 
G01 X90.7770 Y6.5340 
G01 X90.5830 Y6.5340 
G01 X90.3915 Y6.5037 
G01 X90.2071 Y6.4437 
G01 X90.0343 Y6.3557 
G01 X89.8774 Y6.2417 
G01 X89.7403 Y6.1046 
G01 X89.6263 Y5.9477 
G01 X89.5383 Y5.7749 
G01 X89.4783 Y5.5905 
G01 X89.4480 Y5.3990 
G00 Z22.0000 
G00 X91.9880 Y5.3990 
G01 Z-0.1000 F30.00 
G01 X91.9880 Y3.6810 F50.00 
G01 X92.0183 Y3.4895 
G01 X92.0783 Y3.3051 
G01 X92.1663 Y3.1323 
G01 X92.2803 Y2.9754 
G01 X92.4174 Y2.8383 
G01 X92.5743 Y2.7243 
G01 X92.7471 Y2.6363 
G01 X92.9315 Y2.5763 
G01 X93.1230 Y2.5460 
G01 X93.3170 Y2.5460 
G01 X93.5085 Y2.5763 
G01 X93.6929 Y2.6363 
G01 X93.8657 Y2.7243 
G01 X94.0226 Y2.8383 
G01 X94.1597 Y2.9754 
G01 X94.2737 Y3.1323 
G01 X94.3617 Y3.3051 
G01 X94.4217 Y3.4895 
G01 X94.4520 Y3.6810 
G01 X94.4520 Y5.3990 
G01 X94.4217 Y5.5905 
G01 X94.3617 Y5.7749 
G01 X94.2737 Y5.9477 
G01 X94.1597 Y6.1046 
G01 X94.0226 Y6.2417 
G01 X93.8657 Y6.3557 
G01 X93.6929 Y6.4437 
G01 X93.5085 Y6.5037 
G01 X93.3170 Y6.5340 
G01 X93.1230 Y6.5340 
G01 X92.9315 Y6.5037 
G01 X92.7471 Y6.4437 
G01 X92.5743 Y6.3557 
G01 X92.4174 Y6.2417 
G01 X92.2803 Y6.1046 
G01 X92.1663 Y5.9477 
G01 X92.0783 Y5.7749 
G01 X92.0183 Y5.5905 
G01 X91.9880 Y5.3990 
G00 Z22.0000 
G00 X14.7392 Y39.8008 
G01 Z-0.1000 F30.00 
G01 X14.3332 Y39.3948 F50.00 
G01 X13.8358 Y39.1076 
G01 X13.2811 Y38.9590 
G01 X12.7069 Y38.9590 
G01 X12.1522 Y39.1076 
G01 X11.6548 Y39.3948 
G01 X11.2488 Y39.8008 
G01 X10.9616 Y40.2982 
G01 X10.8130 Y40.8529 
G01 X10.8130 Y41.4271 
G01 X10.9616 Y41.9818 
G01 X11.2488 Y42.4792 
G01 X11.6548 Y42.8852 
G01 X12.1522 Y43.1724 
G01 X12.7069 Y43.3210 
G01 X13.2811 Y43.3210 
G01 X13.8358 Y43.1724 
G01 X14.3332 Y42.8852 
G01 X14.7392 Y42.4792 
G01 X15.0264 Y41.9818 
G01 X15.1750 Y41.4271 
G01 X15.1750 Y40.8529 
G01 X15.0264 Y40.2982 
G01 X14.7392 Y39.8008 
G00 Z22.0000 
G00 X14.6592 Y21.1622 
G01 Z-0.1000 F30.00 
G01 X14.2718 Y20.7748 F50.00 
G01 X13.7972 Y20.5008 
G01 X13.2680 Y20.3590 
G01 X12.7200 Y20.3590 
G01 X12.1908 Y20.5008 
G01 X11.7162 Y20.7748 
G01 X11.3288 Y21.1622 
G01 X11.0548 Y21.6368 
G01 X10.9130 Y22.1660 
G01 X10.9130 Y22.7140 
G01 X11.0548 Y23.2432 
G01 X11.3288 Y23.7178 
G01 X11.7162 Y24.1052 
G01 X12.1908 Y24.3792 
G01 X12.7200 Y24.5210 
G01 X13.2680 Y24.5210 
G01 X13.7972 Y24.3792 
G01 X14.2718 Y24.1052 
G01 X14.6592 Y23.7178 
G01 X14.9332 Y23.2432 
G01 X15.0750 Y22.7140 
G01 X15.0750 Y22.1660 
G01 X14.9332 Y21.6368 
G01 X14.6592 Y21.1622 
G00 Z22.0000 
G00 X66.5500 Y31.1038 
G01 Z-0.1000 F30.00 
G01 X66.5376 Y31.1419 F50.00 
G01 X66.5473 Y31.1489 
G01 X66.5701 Y31.1655 
G01 X66.5500 Y31.1038 
G00 Z22.0000 
G00 X59.1840 Y31.5697 
G01 Z-0.1000 F30.00 
G01 X59.0608 Y31.4001 F50.00 
G01 X58.9656 Y31.2133 
G01 X58.9300 Y31.1038 
G01 X58.8944 Y31.2133 
G01 X58.7992 Y31.4001 
G01 X58.6760 Y31.5697 
G01 X58.6555 Y31.5903 
G01 X58.7608 Y31.5650 
G01 X58.9148 Y31.5528 
G01 X58.9300 Y31.5516 
G01 X58.9414 Y31.5525 
G01 X59.0992 Y31.5650 
G01 X59.2018 Y31.5896 
G01 X59.2045 Y31.5903 
G01 X59.1840 Y31.5697 
G00 Z22.0000 
G00 X56.6440 Y31.5697 
G01 Z-0.1000 F30.00 
G01 X56.5208 Y31.4001 F50.00 
G01 X56.4256 Y31.2133 
G01 X56.3900 Y31.1038 
G01 X56.3544 Y31.2133 
G01 X56.2592 Y31.4001 
G01 X56.1360 Y31.5697 
G01 X56.1155 Y31.5903 
G01 X56.2208 Y31.5650 
G01 X56.3748 Y31.5528 
G01 X56.3900 Y31.5516 
G01 X56.4014 Y31.5525 
G01 X56.5592 Y31.5650 
G01 X56.6618 Y31.5896 
G01 X56.6645 Y31.5903 
G01 X56.6440 Y31.5697 
G00 Z22.0000 
G00 X61.7240 Y31.5697 
G01 Z-0.1000 F30.00 
G01 X61.6008 Y31.4001 F50.00 
G01 X61.5056 Y31.2133 
G01 X61.4700 Y31.1038 
G01 X61.4344 Y31.2133 
G01 X61.3392 Y31.4001 
G01 X61.2160 Y31.5697 
G01 X61.1955 Y31.5903 
G01 X61.3008 Y31.5650 
G01 X61.4548 Y31.5528 
G01 X61.4700 Y31.5516 
G01 X61.4814 Y31.5525 
G01 X61.6392 Y31.5650 
G01 X61.7418 Y31.5896 
G01 X61.7445 Y31.5903 
G01 X61.7240 Y31.5697 
G00 Z22.0000 
G00 X64.0100 Y31.1038 
G01 Z-0.1000 F30.00 
G01 X63.9899 Y31.1655 F50.00 
G01 X64.0224 Y31.1419 
G01 X64.0100 Y31.1038 
G00 Z22.0000 
G00 X69.2208 Y31.4001 
G01 Z-0.1000 F30.00 
G01 X69.1256 Y31.2133 F50.00 
G01 X69.0900 Y31.1038 
G01 X69.0544 Y31.2133 
G01 X68.9592 Y31.4001 
G01 X68.8360 Y31.5697 
G01 X68.6877 Y31.7180 
G01 X68.5181 Y31.8412 
G01 X68.4629 Y31.8694 
G01 X68.4708 Y31.8706 
G01 X68.5131 Y31.8740 
G01 X68.5545 Y31.8839 
G01 X68.5964 Y31.8905 
G01 X68.6368 Y31.9036 
G01 X68.6781 Y31.9136 
G01 X68.7174 Y31.9298 
G01 X68.7578 Y31.9430 
G01 X68.7957 Y31.9622 
G01 X68.8349 Y31.9785 
G01 X68.8711 Y32.0007 
G01 X68.9090 Y32.0200 
G01 X68.9433 Y32.0449 
G01 X68.9796 Y32.0671 
G01 X69.0119 Y32.0948 
G01 X69.0463 Y32.1197 
G01 X69.0763 Y32.1498 
G01 X69.1086 Y32.1773 
G01 X69.1362 Y32.2097 
G01 X69.1663 Y32.2397 
G01 X69.1912 Y32.2741 
G01 X69.2188 Y32.3064 
G01 X69.2410 Y32.3426 
G01 X69.2660 Y32.3770 
G01 X69.2820 Y32.4084 
G01 X69.2820 Y31.4844 
G01 X69.2208 Y31.4001 
G00 Z22.0000 
G00 X71.4540 Y32.3770 
G01 Z-0.1000 F30.00 
G01 X71.4790 Y32.3426 F50.00 
G01 X71.5012 Y32.3064 
G01 X71.5288 Y32.2741 
G01 X71.5537 Y32.2397 
G01 X71.5838 Y32.2097 
G01 X71.6114 Y32.1773 
G01 X71.6437 Y32.1498 
G01 X71.6737 Y32.1197 
G01 X71.7081 Y32.0948 
G01 X71.7404 Y32.0671 
G01 X71.7767 Y32.0450 
G01 X71.8110 Y32.0200 
G01 X71.8489 Y32.0007 
G01 X71.8851 Y31.9785 
G01 X71.9243 Y31.9622 
G01 X71.9622 Y31.9430 
G01 X72.0026 Y31.9298 
G01 X72.0419 Y31.9136 
G01 X72.0832 Y31.9036 
G01 X72.1236 Y31.8905 
G01 X72.1655 Y31.8839 
G01 X72.2069 Y31.8740 
G01 X72.2492 Y31.8706 
G01 X72.2571 Y31.8694 
G01 X72.2019 Y31.8412 
G01 X72.0323 Y31.7180 
G01 X71.8840 Y31.5697 
G01 X71.7608 Y31.4001 
G01 X71.6656 Y31.2133 
G01 X71.6300 Y31.1038 
G01 X71.5944 Y31.2133 
G01 X71.4992 Y31.4001 
G01 X71.4380 Y31.4844 
G01 X71.4380 Y32.4084 
G01 X71.4540 Y32.3770 
G00 Z22.0000 
G00 X47.0504 Y38.7204 
G01 Z-0.1000 F30.00 
G01 X47.0504 Y38.6378 F50.00 
G01 X47.0769 Y38.4702 
G01 X47.0788 Y38.4644 
G01 X47.0878 Y38.4367 
G01 X47.0380 Y38.4865 
G01 X47.0380 Y38.7080 
G01 X47.0504 Y38.7204 
G00 Z22.0000 
G00 X53.6740 Y32.3770 
G01 Z-0.1000 F30.00 
G01 X53.6990 Y32.3426 F50.00 
G01 X53.7212 Y32.3064 
G01 X53.7488 Y32.2741 
G01 X53.7737 Y32.2397 
G01 X53.8038 Y32.2097 
G01 X53.8314 Y32.1773 
G01 X53.8637 Y32.1498 
G01 X53.8937 Y32.1197 
G01 X53.9281 Y32.0948 
G01 X53.9604 Y32.0671 
G01 X53.9967 Y32.0450 
G01 X54.0310 Y32.0200 
G01 X54.0689 Y32.0007 
G01 X54.1051 Y31.9785 
G01 X54.1443 Y31.9622 
G01 X54.1822 Y31.9430 
G01 X54.2226 Y31.9298 
G01 X54.2619 Y31.9136 
G01 X54.3032 Y31.9036 
G01 X54.3436 Y31.8905 
G01 X54.3855 Y31.8839 
G01 X54.4269 Y31.8740 
G01 X54.4692 Y31.8706 
G01 X54.4771 Y31.8694 
G01 X54.4219 Y31.8412 
G01 X54.2523 Y31.7180 
G01 X54.1040 Y31.5697 
G01 X53.9808 Y31.4001 
G01 X53.8856 Y31.2133 
G01 X53.8500 Y31.1038 
G01 X53.8144 Y31.2133 
G01 X53.7192 Y31.4001 
G01 X53.6580 Y31.4844 
G01 X53.6580 Y32.4084 
G01 X53.6740 Y32.3770 
G00 Z22.0000 
G00 X51.4408 Y31.4001 
G01 Z-0.1000 F30.00 
G01 X51.3456 Y31.2133 F50.00 
G01 X51.3100 Y31.1038 
G01 X51.2744 Y31.2133 
G01 X51.2355 Y31.2896 
G01 X51.2663 Y31.3119 
G01 X51.3253 Y31.3710 
G01 X51.3862 Y31.4319 
G01 X51.4860 Y31.5692 
G01 X51.5020 Y31.6006 
G01 X51.5020 Y31.4844 
G01 X51.4408 Y31.4001 
G00 Z22.0000 
G00 X56.1360 Y28.3103 
G01 Z-0.1000 F30.00 
G01 X56.2592 Y28.4799 F50.00 
G01 X56.3544 Y28.6667 
G01 X56.3900 Y28.7762 
G01 X56.4256 Y28.6667 
G01 X56.5208 Y28.4799 
G01 X56.6440 Y28.3103 
G01 X56.6645 Y28.2897 
G01 X56.6587 Y28.2911 
G01 X56.5592 Y28.3150 
G01 X56.4052 Y28.3272 
G01 X56.3900 Y28.3284 
G01 X56.3786 Y28.3275 
G01 X56.2208 Y28.3150 
G01 X56.1155 Y28.2897 
G01 X56.1360 Y28.3103 
G00 Z22.0000 
G00 X61.2160 Y28.3103 
G01 Z-0.1000 F30.00 
G01 X61.3392 Y28.4799 F50.00 
G01 X61.4344 Y28.6667 
G01 X61.4700 Y28.7762 
G01 X61.5056 Y28.6667 
G01 X61.6008 Y28.4799 
G01 X61.7240 Y28.3103 
G01 X61.7445 Y28.2897 
G01 X61.7388 Y28.2911 
G01 X61.6392 Y28.3150 
G01 X61.4852 Y28.3272 
G01 X61.4700 Y28.3284 
G01 X61.4586 Y28.3275 
G01 X61.3008 Y28.3150 
G01 X61.1955 Y28.2897 
G01 X61.2160 Y28.3103 
G00 Z22.0000 
G00 X66.5500 Y28.7762 
G01 Z-0.1000 F30.00 
G01 X66.5701 Y28.7145 F50.00 
G01 X66.5494 Y28.7295 
G01 X66.5376 Y28.7381 
G01 X66.5500 Y28.7762 
G00 Z22.0000 
G00 X68.8360 Y28.3103 
G01 Z-0.1000 F30.00 
G01 X68.9592 Y28.4799 F50.00 
G01 X69.0544 Y28.6667 
G01 X69.0900 Y28.7762 
G01 X69.1256 Y28.6667 
G01 X69.2208 Y28.4799 
G01 X69.3440 Y28.3103 
G01 X69.3645 Y28.2897 
G01 X69.3587 Y28.2911 
G01 X69.2592 Y28.3150 
G01 X69.1052 Y28.3272 
G01 X69.0900 Y28.3284 
G01 X69.0786 Y28.3275 
G01 X68.9208 Y28.3150 
G01 X68.8155 Y28.2897 
G01 X68.8360 Y28.3103 
G00 Z22.0000 
G00 X73.9160 Y28.3103 
G01 Z-0.1000 F30.00 
G01 X74.0392 Y28.4799 F50.00 
G01 X74.1344 Y28.6667 
G01 X74.1700 Y28.7762 
G01 X74.2056 Y28.6667 
G01 X74.3008 Y28.4799 
G01 X74.4240 Y28.3103 
G01 X74.4445 Y28.2897 
G01 X74.4387 Y28.2911 
G01 X74.3392 Y28.3150 
G01 X74.1852 Y28.3272 
G01 X74.1700 Y28.3284 
G01 X74.1586 Y28.3275 
G01 X74.0008 Y28.3150 
G01 X73.8955 Y28.2897 
G01 X73.9160 Y28.3103 
G00 Z22.0000 
G00 X78.9960 Y28.3103 
G01 Z-0.1000 F30.00 
G01 X79.1192 Y28.4799 F50.00 
G01 X79.2144 Y28.6667 
G01 X79.2500 Y28.7762 
G01 X79.2856 Y28.6667 
G01 X79.3808 Y28.4799 
G01 X79.5040 Y28.3103 
G01 X79.5245 Y28.2897 
G01 X79.5187 Y28.2911 
G01 X79.4192 Y28.3150 
G01 X79.2652 Y28.3272 
G01 X79.2500 Y28.3284 
G01 X79.2386 Y28.3275 
G01 X79.0808 Y28.3150 
G01 X78.9755 Y28.2897 
G01 X78.9960 Y28.3103 
G00 Z22.0000 
G00 X84.0760 Y28.3103 
G01 Z-0.1000 F30.00 
G01 X84.1992 Y28.4799 F50.00 
G01 X84.2944 Y28.6667 
G01 X84.3300 Y28.7762 
G01 X84.3656 Y28.6667 
G01 X84.4608 Y28.4799 
G01 X84.5840 Y28.3103 
G01 X84.6045 Y28.2897 
G01 X84.4992 Y28.3150 
G01 X84.3718 Y28.3251 
G01 X84.3300 Y28.3284 
G01 X84.2887 Y28.3251 
G01 X84.1608 Y28.3150 
G01 X84.0555 Y28.2897 
G01 X84.0760 Y28.3103 
G00 Z22.0000 
G00 X89.1560 Y28.3103 
G01 Z-0.1000 F30.00 
G01 X89.2792 Y28.4799 F50.00 
G01 X89.3744 Y28.6667 
G01 X89.4100 Y28.7762 
G01 X89.4456 Y28.6667 
G01 X89.5408 Y28.4799 
G01 X89.6640 Y28.3103 
G01 X89.6845 Y28.2897 
G01 X89.5792 Y28.3150 
G01 X89.4518 Y28.3251 
G01 X89.4100 Y28.3284 
G01 X89.3687 Y28.3251 
G01 X89.2408 Y28.3150 
G01 X89.1355 Y28.2897 
G01 X89.1560 Y28.3103 
G00 Z22.0000 
G00 X94.2360 Y28.3103 
G01 Z-0.1000 F30.00 
G01 X94.3592 Y28.4799 F50.00 
G01 X94.4544 Y28.6667 
G01 X94.4900 Y28.7762 
G01 X94.5256 Y28.6667 
G01 X94.6208 Y28.4799 
G01 X94.7440 Y28.3103 
G01 X94.7645 Y28.2897 
G01 X94.6592 Y28.3150 
G01 X94.5318 Y28.3251 
G01 X94.4900 Y28.3284 
G01 X94.4487 Y28.3251 
G01 X94.3208 Y28.3150 
G01 X94.2155 Y28.2897 
G01 X94.2360 Y28.3103 
G00 Z22.0000 
G00 X91.6960 Y28.3103 
G01 Z-0.1000 F30.00 
G01 X91.8192 Y28.4799 F50.00 
G01 X91.9144 Y28.6667 
G01 X91.9500 Y28.7762 
G01 X91.9856 Y28.6667 
G01 X92.0808 Y28.4799 
G01 X92.2040 Y28.3103 
G01 X92.2245 Y28.2897 
G01 X92.1192 Y28.3150 
G01 X91.9918 Y28.3251 
G01 X91.9500 Y28.3284 
G01 X91.9087 Y28.3251 
G01 X91.7808 Y28.3150 
G01 X91.6755 Y28.2897 
G01 X91.6960 Y28.3103 
G00 Z22.0000 
G00 X86.6160 Y28.3103 
G01 Z-0.1000 F30.00 
G01 X86.7392 Y28.4799 F50.00 
G01 X86.8344 Y28.6667 
G01 X86.8700 Y28.7762 
G01 X86.9056 Y28.6667 
G01 X87.0008 Y28.4799 
G01 X87.1240 Y28.3103 
G01 X87.1445 Y28.2897 
G01 X87.0392 Y28.3150 
G01 X86.9118 Y28.3251 
G01 X86.8700 Y28.3284 
G01 X86.8287 Y28.3251 
G01 X86.7008 Y28.3150 
G01 X86.5955 Y28.2897 
G01 X86.6160 Y28.3103 
G00 Z22.0000 
G00 X81.5360 Y28.3103 
G01 Z-0.1000 F30.00 
G01 X81.6592 Y28.4799 F50.00 
G01 X81.7544 Y28.6667 
G01 X81.7900 Y28.7762 
G01 X81.8256 Y28.6667 
G01 X81.9208 Y28.4799 
G01 X82.0440 Y28.3103 
G01 X82.0645 Y28.2897 
G01 X81.9592 Y28.3150 
G01 X81.8318 Y28.3251 
G01 X81.7900 Y28.3284 
G01 X81.7487 Y28.3251 
G01 X81.6208 Y28.3150 
G01 X81.5155 Y28.2897 
G01 X81.5360 Y28.3103 
G00 Z22.0000 
G00 X76.4560 Y28.3103 
G01 Z-0.1000 F30.00 
G01 X76.5792 Y28.4799 F50.00 
G01 X76.6744 Y28.6667 
G01 X76.7100 Y28.7762 
G01 X76.7456 Y28.6667 
G01 X76.8408 Y28.4799 
G01 X76.9640 Y28.3103 
G01 X76.9845 Y28.2897 
G01 X76.9787 Y28.2911 
G01 X76.8792 Y28.3150 
G01 X76.7252 Y28.3272 
G01 X76.7100 Y28.3284 
G01 X76.6986 Y28.3275 
G01 X76.5408 Y28.3150 
G01 X76.4355 Y28.2897 
G01 X76.4560 Y28.3103 
G00 Z22.0000 
G00 X71.3760 Y28.3103 
G01 Z-0.1000 F30.00 
G01 X71.4992 Y28.4799 F50.00 
G01 X71.5944 Y28.6667 
G01 X71.6300 Y28.7762 
G01 X71.6656 Y28.6667 
G01 X71.7608 Y28.4799 
G01 X71.8840 Y28.3103 
G01 X71.9045 Y28.2897 
G01 X71.8987 Y28.2911 
G01 X71.7992 Y28.3150 
G01 X71.6452 Y28.3272 
G01 X71.6300 Y28.3284 
G01 X71.6186 Y28.3275 
G01 X71.4608 Y28.3150 
