(.../pcb-gcode-3.6.0.4/pcb-gcode.ulp)
(Copyright 2005 - 2012 by John Johnson)
(See readme.txt for licensing terms.)
(This file generated from the board:)
(.../Documents/eagle/LED-Globe/LED-Globe.brd)
(Current profile is .../pcb-gcode-3.6.0.4/profiles/generic.pp  )
(This file generated 04.01.2018 16:44)
(Settings from pcb-machine.h)
(  Tool Size)
(0.7000 )
(Z Axis Settings)
(  High     Up        Down     Drill)
(22.0000 	22.0000 	-0.1000 	-1.4000 )
(spindle on time = 3.0000)
(milling depth = -0.2000)
(text depth = -0.1000)
(tool change at 20.0000 -15.0000 40.0000 )
(feed rate xy = F50.00 )
(feed rate z  = F30.00 )
(Settings from pcb-defaults.h)
(isolate min = 0.0200)
(isolate max = 0.8000)
(isolate step = 0.1000)
(Generated top outlines, top drill, )
(Unit of measure: mm)
(Metric Mode)
G21
(Absolute Coordinates)
G90
G00 X0.0000 Y0.0000 
M03
G04 P3.000000
G00 Z22.0000 
G00 X32.9403 Y60.2579 
G01 Z-0.1000 F30.00 
G01 X32.5156 Y59.8332 F50.00 
G01 X31.9954 Y59.5329 
G01 X31.4153 Y59.3775 
G01 X30.8147 Y59.3775 
G01 X30.2346 Y59.5329 
G01 X29.7144 Y59.8332 
G01 X29.2897 Y60.2579 
G01 X28.9894 Y60.7781 
G01 X28.8340 Y61.3582 
G01 X28.8340 Y61.9588 
G01 X28.9894 Y62.5389 
G01 X29.2897 Y63.0591 
G01 X29.7144 Y63.4838 
G01 X30.2346 Y63.7841 
G01 X30.8147 Y63.9395 
G01 X31.4153 Y63.9395 
G01 X31.9954 Y63.7841 
G01 X32.5156 Y63.4838 
G01 X32.9403 Y63.0591 
G01 X33.2406 Y62.5389 
G01 X33.3960 Y61.9588 
G01 X33.3960 Y61.3582 
G01 X33.2406 Y60.7781 
G01 X32.9403 Y60.2579 
G00 Z22.0000 
G00 X14.8132 Y22.6204 
G01 Z-0.1000 F30.00 
G01 X14.2096 Y22.0168 F50.00 
G01 X14.2096 Y21.4302 
G01 X14.1752 Y21.4234 
G01 X14.1246 Y21.4024 
G01 X14.0624 Y21.3767 
G01 X13.9609 Y21.3088 
G01 X13.9090 Y21.2570 
G01 X13.8578 Y21.2057 
G01 X13.8227 Y21.1706 
G01 X13.7789 Y21.1050 
G01 X13.7548 Y21.0691 
G01 X13.7245 Y20.9959 
G01 X13.7081 Y20.9563 
G01 X13.6891 Y20.8610 
G01 X13.6843 Y20.8365 
G01 X13.6843 Y20.7761 
G01 X13.6843 Y20.7143 
G01 X13.7081 Y20.5945 
G01 X13.7366 Y20.5257 
G01 X13.7548 Y20.4817 
G01 X13.8227 Y20.3802 
G01 X13.8796 Y20.3232 
G01 X13.9090 Y20.2938 
G01 X24.5598 Y9.6431 
G01 X24.8391 Y9.3638 
G01 X24.8506 Y9.3360 
G01 X24.9184 Y9.2345 
G01 X25.0048 Y9.1481 
G01 X25.0794 Y9.0982 
G01 X25.1063 Y9.0803 
G01 X25.1716 Y9.0532 
G01 X25.2192 Y9.0335 
G01 X25.3355 Y9.0104 
G01 X25.3389 Y9.0097 
G01 X25.3993 Y9.0097 
G01 X25.4611 Y9.0097 
G01 X25.5809 Y9.0335 
G01 X25.6172 Y9.0486 
G01 X25.6937 Y9.0803 
G01 X25.7952 Y9.1481 
G01 X25.8816 Y9.2345 
G01 X25.9315 Y9.3091 
G01 X25.9494 Y9.3360 
G01 X25.9609 Y9.3638 
G01 X32.0452 Y15.4480 
G01 X32.1130 Y15.5496 
G01 X32.1598 Y15.6624 
G01 X32.1836 Y15.7822 
G01 X32.1836 Y21.7564 
G01 X32.3109 Y22.0638 
G01 X32.6766 Y22.4294 
G01 X33.6644 Y23.4173 
G01 X33.7323 Y23.5188 
G01 X33.7790 Y23.6317 
G01 X33.8028 Y23.7514 
G01 X33.8028 Y23.8736 
G01 X33.7790 Y23.9933 
G01 X33.7323 Y24.1062 
G01 X33.6644 Y24.2077 
G01 X33.5781 Y24.2941 
G01 X31.1610 Y26.7112 
G01 X31.0594 Y26.7790 
G01 X30.9466 Y26.8258 
G01 X30.8268 Y26.8496 
G01 X30.6633 Y26.8496 
G01 X30.0246 Y27.4883 
G01 X30.0246 Y28.3917 
G01 X30.6633 Y29.0304 
G01 X31.5667 Y29.0304 
G01 X32.2054 Y28.3917 
G01 X32.2054 Y28.2282 
G01 X32.2292 Y28.1084 
G01 X32.2760 Y27.9956 
G01 X32.3438 Y27.8940 
G01 X32.4302 Y27.8077 
G01 X35.3642 Y24.8737 
G01 X35.4505 Y24.7873 
G01 X35.5521 Y24.7195 
G01 X35.6649 Y24.6727 
G01 X35.7847 Y24.6489 
G01 X36.8811 Y24.6489 
G01 X37.0009 Y24.6727 
G01 X37.1137 Y24.7195 
G01 X37.2153 Y24.7873 
G01 X37.3016 Y24.8737 
G01 X37.3308 Y24.9029 
G01 X37.4032 Y24.9029 
G01 X37.5229 Y24.9267 
G01 X37.6358 Y24.9735 
G01 X37.7373 Y25.0413 
G01 X37.8237 Y25.1277 
G01 X37.8915 Y25.2292 
G01 X37.9383 Y25.3420 
G01 X37.9621 Y25.4618 
G01 X37.9621 Y26.1692 
G01 X38.6008 Y26.8079 
G01 X39.5042 Y26.8079 
G01 X39.6197 Y26.6923 
G01 X39.7213 Y26.6245 
G01 X39.8341 Y26.5777 
G01 X39.9539 Y26.5539 
G01 X41.9611 Y26.5539 
G01 X42.0809 Y26.5777 
G01 X42.1937 Y26.6245 
G01 X42.2953 Y26.6923 
G01 X42.3816 Y26.7787 
G01 X42.4108 Y26.8079 
G01 X43.3142 Y26.8079 
G01 X43.9529 Y26.1692 
G01 X43.9529 Y25.2658 
G01 X43.3142 Y24.6271 
G01 X42.4108 Y24.6271 
G01 X42.2953 Y24.7427 
G01 X42.1937 Y24.8105 
G01 X42.0809 Y24.8573 
G01 X41.9611 Y24.8811 
G01 X41.4258 Y24.8811 
G01 X41.3060 Y24.8573 
G01 X41.1932 Y24.8105 
G01 X41.0917 Y24.7427 
G01 X41.0053 Y24.6563 
G01 X40.9775 Y24.6147 
G01 X40.7493 Y24.8429 
G01 X39.8957 Y24.8429 
G01 X39.2921 Y24.2393 
G01 X39.2921 Y23.6527 
G01 X39.2577 Y23.6459 
G01 X39.1449 Y23.5991 
G01 X39.0434 Y23.5313 
G01 X38.9584 Y23.4463 
G01 X38.2342 Y22.7221 
G01 X37.3308 Y22.7221 
G01 X37.2153 Y22.8377 
G01 X37.1137 Y22.9055 
G01 X37.0009 Y22.9523 
G01 X36.8811 Y22.9761 
G01 X35.7847 Y22.9761 
G01 X35.6649 Y22.9523 
G01 X35.5521 Y22.9055 
G01 X35.4505 Y22.8377 
G01 X35.3642 Y22.7513 
G01 X33.9948 Y21.3820 
G01 X33.9270 Y21.2804 
G01 X33.8802 Y21.1676 
G01 X33.8564 Y21.0478 
G01 X33.8564 Y15.0736 
G01 X33.7291 Y14.7662 
G01 X33.4498 Y14.4869 
G01 X33.3634 Y14.4005 
G01 X27.6448 Y8.6820 
G01 X27.5770 Y8.5804 
G01 X27.5302 Y8.4676 
G01 X27.5064 Y8.3478 
G01 X27.5064 Y6.8871 
G01 X27.5302 Y6.7673 
G01 X27.5770 Y6.6545 
G01 X27.6448 Y6.5529 
G01 X27.6805 Y6.5172 
G01 X27.7270 Y6.4051 
G01 X27.7810 Y6.3243 
G01 X27.7948 Y6.3036 
G01 X27.8373 Y6.2611 
G01 X27.8812 Y6.2172 
G01 X27.9003 Y6.2044 
G01 X27.9827 Y6.1494 
G01 X28.0955 Y6.1026 
G01 X28.1049 Y6.1008 
G01 X28.0780 Y5.9311 
G01 X28.0780 Y4.2289 
G01 X28.1049 Y4.0592 
G01 X28.0955 Y4.0574 
G01 X27.9827 Y4.0106 
G01 X27.9019 Y3.9566 
G01 X27.8812 Y3.9428 
G01 X27.8387 Y3.9003 
G01 X27.7948 Y3.8564 
G01 X27.7820 Y3.8373 
G01 X27.7270 Y3.7549 
G01 X27.6805 Y3.6428 
G01 X27.3452 Y3.3075 
G01 X26.9071 Y3.1260 
G01 X26.4329 Y3.1260 
G01 X25.9948 Y3.3075 
G01 X25.8816 Y3.4207 
G01 X25.7978 Y3.5044 
G01 X25.7952 Y3.5070 
G01 X25.6937 Y3.5749 
G01 X25.5808 Y3.6216 
G01 X25.4862 Y3.6404 
G01 X25.4611 Y3.6454 
G01 X25.3389 Y3.6454 
G01 X25.2192 Y3.6216 
G01 X25.1738 Y3.6028 
G01 X25.1063 Y3.5749 
G01 X25.0713 Y3.5515 
G01 X25.0048 Y3.5070 
G01 X24.9198 Y3.4220 
G01 X24.8052 Y3.3075 
G01 X24.3671 Y3.1260 
G01 X23.8929 Y3.1260 
G01 X23.4548 Y3.3075 
G01 X23.3416 Y3.4207 
G01 X23.2578 Y3.5044 
G01 X23.2552 Y3.5070 
G01 X23.1537 Y3.5749 
G01 X23.0408 Y3.6216 
G01 X22.9462 Y3.6404 
G01 X22.9211 Y3.6454 
G01 X22.7989 Y3.6454 
G01 X22.6791 Y3.6216 
G01 X22.6338 Y3.6028 
G01 X22.5663 Y3.5749 
G01 X22.5313 Y3.5515 
G01 X22.4648 Y3.5070 
G01 X22.3798 Y3.4220 
G01 X22.2652 Y3.3075 
G01 X21.8271 Y3.1260 
G01 X21.3529 Y3.1260 
G01 X20.9148 Y3.3075 
G01 X20.5795 Y3.6428 
G01 X20.5125 Y3.8044 
G01 X20.4674 Y3.9132 
G01 X20.4658 Y3.9173 
G01 X20.3979 Y4.0188 
G01 X20.3116 Y4.1052 
G01 X20.2114 Y4.1721 
G01 X20.0972 Y4.2198 
G01 X19.9774 Y4.2436 
G01 X8.7236 Y4.2436 
G01 X8.4162 Y4.3709 
G01 X8.0505 Y4.7366 
G01 X4.3709 Y8.4162 
G01 X4.2436 Y8.7236 
G01 X4.2436 Y34.4564 
G01 X4.3709 Y34.7638 
G01 X4.7366 Y35.1294 
G01 X7.6612 Y38.0540 
G01 X7.7290 Y38.1556 
G01 X7.7758 Y38.2684 
G01 X7.7996 Y38.3882 
G01 X7.7996 Y38.5517 
G01 X8.4383 Y39.1904 
G01 X8.6018 Y39.1904 
G01 X8.7216 Y39.2142 
G01 X8.8344 Y39.2610 
G01 X8.9360 Y39.3288 
G01 X9.0223 Y39.4152 
G01 X10.6769 Y41.0698 
G01 X10.9562 Y41.3491 
G01 X11.2636 Y41.4764 
G01 X21.7564 Y41.4764 
G01 X22.0638 Y41.3491 
G01 X24.3380 Y39.0748 
G01 X24.4396 Y39.0070 
G01 X24.5524 Y38.9602 
G01 X24.6722 Y38.9364 
G01 X30.2136 Y38.9364 
G01 X30.3334 Y38.9602 
G01 X30.4462 Y39.0070 
G01 X30.5478 Y39.0748 
G01 X30.6341 Y39.1612 
G01 X30.8338 Y39.3608 
G01 X30.9016 Y39.4624 
G01 X30.9484 Y39.5752 
G01 X30.9552 Y39.6096 
G01 X31.2748 Y39.6096 
G01 X31.2816 Y39.5752 
G01 X31.3283 Y39.4624 
G01 X31.3612 Y39.4133 
G01 X31.3962 Y39.3608 
G01 X31.4826 Y39.2745 
G01 X31.6822 Y39.0748 
G01 X31.7838 Y39.0070 
G01 X31.8534 Y38.9781 
G01 X31.8966 Y38.9602 
G01 X32.0164 Y38.9364 
G01 X32.5772 Y38.9364 
G01 X32.6969 Y38.9602 
G01 X32.8098 Y39.0070 
G01 X32.9113 Y39.0748 
G01 X32.9977 Y39.1612 
G01 X33.0655 Y39.2627 
G01 X33.1123 Y39.3755 
G01 X33.1361 Y39.4953 
G01 X33.1361 Y41.3678 
G01 X33.1123 Y41.4876 
G01 X33.0655 Y41.6004 
G01 X32.9977 Y41.7020 
G01 X32.9113 Y41.7883 
G01 X32.5961 Y42.1036 
G01 X32.4945 Y42.1714 
G01 X32.3817 Y42.2182 
G01 X32.2619 Y42.2420 
G01 X31.9148 Y42.2420 
G01 X31.8342 Y42.2260 
G01 X31.7950 Y42.2182 
G01 X31.6822 Y42.1714 
G01 X31.6202 Y42.1300 
G01 X31.5806 Y42.1036 
G01 X31.5778 Y42.1007 
G01 X31.4826 Y42.0055 
G01 X31.3991 Y41.9220 
G01 X31.3962 Y41.9192 
G01 X31.3302 Y41.8203 
G01 X31.3284 Y41.8176 
G01 X31.2935 Y41.7335 
G01 X31.2816 Y41.7048 
G01 X31.2748 Y41.6704 
G01 X30.9552 Y41.6704 
G01 X30.9484 Y41.7048 
G01 X30.9016 Y41.8176 
G01 X30.8338 Y41.9191 
G01 X30.7474 Y42.0055 
G01 X30.0246 Y42.7283 
G01 X30.0246 Y43.6317 
G01 X30.0538 Y43.6609 
G01 X30.1375 Y43.7446 
G01 X30.1402 Y43.7472 
G01 X30.2080 Y43.8488 
G01 X30.2548 Y43.9616 
G01 X30.2736 Y44.0562 
G01 X30.2786 Y44.0814 
G01 X30.2786 Y44.8654 
G01 X30.2612 Y44.9530 
G01 X30.2548 Y44.9852 
G01 X30.2246 Y45.0580 
G01 X30.2080 Y45.0980 
G01 X30.1812 Y45.1382 
G01 X30.1402 Y45.1996 
G01 X30.1045 Y45.2353 
G01 X30.0580 Y45.3474 
G01 X30.0040 Y45.4282 
G01 X29.9902 Y45.4489 
G01 X29.9477 Y45.4914 
G01 X29.9038 Y45.5353 
G01 X29.8847 Y45.5481 
G01 X29.8023 Y45.6031 
G01 X29.6895 Y45.6499 
G01 X29.6801 Y45.6517 
G01 X29.7070 Y45.8214 
G01 X29.7070 Y47.5236 
G01 X29.6801 Y47.6933 
G01 X29.6895 Y47.6951 
G01 X29.8023 Y47.7418 
G01 X29.8831 Y47.7959 
G01 X29.9038 Y47.8097 
G01 X29.9463 Y47.8522 
G01 X29.9902 Y47.8961 
G01 X30.0030 Y47.9152 
G01 X30.0580 Y47.9976 
G01 X30.1045 Y48.1097 
G01 X30.4398 Y48.4450 
G01 X30.8779 Y48.6265 
G01 X31.3521 Y48.6265 
G01 X31.8033 Y48.4396 
G01 X31.9162 Y48.3929 
G01 X32.0346 Y48.3693 
G01 X32.1581 Y48.3690 
G01 X32.2778 Y48.3929 
G01 X32.3874 Y48.4382 
G01 X32.3907 Y48.4396 
G01 X32.4922 Y48.5074 
G01 X32.5786 Y48.5938 
G01 X32.6187 Y48.6539 
G01 X32.6464 Y48.6953 
G01 X32.6605 Y48.7294 
G01 X32.6932 Y48.8082 
G01 X32.7167 Y48.9266 
G01 X32.7170 Y49.2632 
G01 X32.6932 Y49.3830 
G01 X32.6464 Y49.4958 
G01 X32.5786 Y49.5974 
G01 X32.4922 Y49.6837 
G01 X31.1824 Y50.9936 
G01 X31.0808 Y51.0614 
G01 X30.9680 Y51.1082 
G01 X30.8482 Y51.1320 
G01 X20.4848 Y51.1320 
G01 X20.4042 Y51.1160 
G01 X20.3650 Y51.1082 
G01 X20.2522 Y51.0614 
G01 X20.1902 Y51.0200 
G01 X20.1506 Y50.9936 
G01 X20.1478 Y50.9907 
G01 X20.0526 Y50.8955 
G01 X19.9691 Y50.8120 
G01 X19.9662 Y50.8092 
G01 X19.9002 Y50.7103 
G01 X19.8984 Y50.7076 
G01 X19.8635 Y50.6235 
G01 X19.8516 Y50.5948 
G01 X19.8448 Y50.5604 
G01 X19.5252 Y50.5604 
G01 X19.5184 Y50.5948 
G01 X19.5076 Y50.6208 
G01 X19.4716 Y50.7076 
G01 X19.4038 Y50.8091 
G01 X19.3174 Y50.8955 
G01 X19.2193 Y50.9936 
G01 X19.1781 Y51.0211 
G01 X19.1178 Y51.0614 
G01 X19.0050 Y51.1082 
G01 X18.9635 Y51.1164 
G01 X18.8852 Y51.1320 
G01 X12.4696 Y51.1320 
G01 X12.3498 Y51.1082 
G01 X12.2370 Y51.0614 
G01 X12.2330 Y51.0598 
G01 X12.1201 Y51.0130 
G01 X12.0186 Y50.9452 
G01 X11.9336 Y50.8602 
G01 X11.8643 Y50.7573 
G01 X11.8176 Y50.6444 
G01 X11.8158 Y50.6351 
G01 X11.6461 Y50.6620 
G01 X9.9439 Y50.6620 
G01 X9.7742 Y50.6351 
G01 X9.7724 Y50.6444 
G01 X9.7256 Y50.7573 
G01 X9.6928 Y50.8064 
G01 X9.6578 Y50.8588 
G01 X9.5714 Y50.9452 
G01 X9.4699 Y51.0130 
G01 X9.4060 Y51.0395 
G01 X9.3578 Y51.0595 
G01 X9.0225 Y51.3948 
G01 X8.8410 Y51.8329 
G01 X8.8410 Y52.3071 
G01 X9.0225 Y52.7452 
G01 X9.3578 Y53.0805 
G01 X9.7959 Y53.2620 
G01 X11.7941 Y53.2620 
G01 X12.3498 Y53.0318 
G01 X12.4696 Y53.0080 
G01 X18.8852 Y53.0080 
G01 X19.0050 Y53.0318 
G01 X19.1178 Y53.0786 
G01 X19.2194 Y53.1464 
G01 X19.2333 Y53.1604 
G01 X20.1367 Y53.1604 
G01 X20.1506 Y53.1464 
G01 X20.2522 Y53.0786 
G01 X20.3650 Y53.0318 
G01 X20.4848 Y53.0080 
G01 X31.6191 Y53.0080 
G01 X31.9638 Y52.8652 
G01 X33.6798 Y51.1492 
G01 X33.7814 Y51.0814 
G01 X33.8942 Y51.0346 
G01 X34.0140 Y51.0108 
G01 X34.1361 Y51.0108 
G01 X34.2559 Y51.0346 
G01 X34.2618 Y51.0371 
G01 X34.4209 Y51.1030 
G01 X38.5702 Y51.1030 
G01 X38.6165 Y51.1122 
G01 X38.6900 Y51.1268 
G01 X38.8028 Y51.1736 
G01 X38.8356 Y51.1955 
G01 X38.9044 Y51.2414 
G01 X38.9183 Y51.2554 
G01 X39.8217 Y51.2554 
G01 X39.8338 Y51.2433 
G01 X39.9017 Y51.1973 
G01 X39.9372 Y51.1736 
G01 X40.0500 Y51.1268 
G01 X40.1208 Y51.1127 
G01 X40.1698 Y51.1030 
G01 X48.1291 Y51.1030 
G01 X48.4738 Y50.9602 
G01 X50.6427 Y48.7913 
G01 X50.7855 Y48.4466 
G01 X50.7855 Y48.3471 
G01 X50.7994 Y48.2769 
G01 X50.8093 Y48.2273 
G01 X50.8628 Y48.0982 
G01 X50.9042 Y48.0362 
G01 X50.9306 Y47.9967 
G01 X51.0170 Y47.9103 
G01 X51.1185 Y47.8424 
G01 X51.1332 Y47.8364 
G01 X51.2314 Y47.7957 
G01 X51.3512 Y47.7719 
G01 X51.4733 Y47.7719 
G01 X51.5461 Y47.7864 
G01 X51.5931 Y47.7957 
G01 X51.7059 Y47.8424 
G01 X51.7679 Y47.8839 
G01 X51.8075 Y47.9103 
G01 X66.8362 Y62.9391 
G01 X67.1436 Y63.0664 
G01 X86.4579 Y63.0664 
G01 X86.5777 Y63.0902 
G01 X86.6905 Y63.1370 
G01 X86.7921 Y63.2048 
G01 X86.8278 Y63.2405 
G01 X87.2659 Y63.4220 
G01 X89.2641 Y63.4220 
G01 X89.7022 Y63.2405 
G01 X90.0375 Y62.9052 
G01 X90.2190 Y62.4671 
G01 X90.2190 Y61.9929 
G01 X90.0375 Y61.5548 
G01 X89.8380 Y61.3552 
G01 X89.7917 Y61.2860 
G01 X89.7701 Y61.2537 
G01 X89.7433 Y61.1889 
G01 X89.7234 Y61.1408 
G01 X89.6996 Y61.0211 
G01 X89.6996 Y60.8989 
G01 X89.7040 Y60.8765 
G01 X89.7234 Y60.7791 
G01 X89.7701 Y60.6663 
G01 X89.8380 Y60.5648 
G01 X89.9243 Y60.4784 
G01 X90.0375 Y60.3652 
G01 X90.2190 Y59.9271 
G01 X90.2190 Y59.4529 
G01 X90.0375 Y59.0148 
G01 X89.7022 Y58.6795 
G01 X89.2641 Y58.4980 
G01 X87.2659 Y58.4980 
G01 X86.8278 Y58.6795 
G01 X86.7934 Y58.7139 
G01 X86.7323 Y58.7551 
G01 X86.6905 Y58.7830 
G01 X86.6532 Y58.7985 
G01 X86.5777 Y58.8298 
G01 X86.5488 Y58.8355 
G01 X86.4579 Y58.8536 
G01 X70.9278 Y58.8536 
G01 X70.8080 Y58.8298 
G01 X70.6952 Y58.7830 
G01 X70.5937 Y58.7152 
G01 X70.5073 Y58.6288 
G01 X70.4395 Y58.5273 
G01 X70.3927 Y58.4144 
G01 X70.3689 Y58.2947 
G01 X70.3689 Y56.6661 
G01 X70.2416 Y56.3587 
G01 X69.8759 Y55.9930 
G01 X67.7838 Y53.9009 
G01 X67.4764 Y53.7736 
G01 X64.6772 Y53.7736 
G01 X64.5574 Y53.7498 
G01 X64.4446 Y53.7030 
G01 X64.3430 Y53.6352 
G01 X64.2567 Y53.5488 
G01 X61.8540 Y51.1461 
G01 X61.7690 Y51.0611 
G01 X61.7011 Y50.9596 
G01 X61.6821 Y50.9138 
G01 X61.6544 Y50.8467 
G01 X61.6305 Y50.7270 
G01 X61.6305 Y50.6048 
G01 X61.6398 Y50.5585 
G01 X61.6544 Y50.4850 
G01 X61.7011 Y50.3722 
G01 X61.7143 Y50.3525 
G01 X61.7690 Y50.2707 
G01 X61.8128 Y50.2268 
G01 X61.8553 Y50.1843 
G01 X61.9569 Y50.1165 
G01 X62.0027 Y50.0975 
G01 X62.0697 Y50.0697 
G01 X62.1895 Y50.0459 
G01 X62.3116 Y50.0459 
G01 X62.3267 Y50.0489 
G01 X85.5739 Y50.0489 
G01 X85.8813 Y49.9216 
G01 X86.2469 Y49.5559 
G01 X88.0216 Y47.7813 
G01 X88.1489 Y47.4739 
G01 X88.1489 Y8.4061 
G01 X88.0216 Y8.0987 
G01 X87.1513 Y7.2284 
G01 X86.8439 Y7.1011 
G01 X85.9446 Y7.1011 
G01 X85.8570 Y7.0837 
G01 X85.8248 Y7.0773 
G01 X85.7520 Y7.0471 
G01 X85.7120 Y7.0305 
G01 X85.6718 Y7.0037 
G01 X85.6104 Y6.9627 
G01 X85.5747 Y6.9270 
G01 X85.4626 Y6.8805 
G01 X85.3818 Y6.8265 
G01 X85.3611 Y6.8127 
G01 X85.3186 Y6.7702 
G01 X85.2747 Y6.7263 
G01 X85.2619 Y6.7072 
G01 X85.2069 Y6.6248 
G01 X85.1601 Y6.5120 
G01 X85.1583 Y6.5026 
G01 X84.9886 Y6.5295 
G01 X83.2864 Y6.5295 
G01 X83.1167 Y6.5026 
G01 X83.1149 Y6.5120 
G01 X83.0681 Y6.6248 
G01 X83.0141 Y6.7056 
G01 X83.0003 Y6.7263 
G01 X82.9578 Y6.7688 
G01 X82.9139 Y6.8127 
G01 X82.8948 Y6.8255 
G01 X82.8124 Y6.8805 
G01 X82.7003 Y6.9270 
G01 X82.3650 Y7.2623 
G01 X82.1835 Y7.7004 
G01 X82.1835 Y8.1746 
G01 X82.3650 Y8.6127 
G01 X82.3770 Y8.6247 
G01 X82.4316 Y8.7058 
G01 X82.4460 Y8.7274 
G01 X82.4888 Y8.8309 
G01 X82.4927 Y8.8402 
G01 X82.5164 Y8.9593 
G01 X82.5165 Y9.0204 
G01 X82.5166 Y9.0821 
G01 X82.4947 Y9.1918 
G01 X82.4927 Y9.2019 
G01 X82.4460 Y9.3148 
G01 X82.3920 Y9.3956 
G01 X82.3781 Y9.4163 
G01 X82.2931 Y9.5013 
G01 X82.2118 Y9.5561 
G01 X82.1902 Y9.5705 
G01 X82.0868 Y9.6134 
G01 X82.0774 Y9.6173 
G01 X81.9583 Y9.6410 
G01 X81.8972 Y9.6411 
G01 X81.8355 Y9.6411 
G01 X80.7961 Y9.6411 
G01 X80.4887 Y9.7684 
G01 X74.8177 Y15.4394 
G01 X74.5384 Y15.7187 
G01 X74.4111 Y16.0261 
G01 X74.4111 Y18.1903 
G01 X74.3873 Y18.3101 
G01 X74.3405 Y18.4229 
G01 X74.2727 Y18.5245 
G01 X74.1863 Y18.6108 
G01 X73.7695 Y19.0277 
G01 X73.6679 Y19.0955 
G01 X73.5551 Y19.1423 
G01 X73.4353 Y19.1661 
G01 X57.9361 Y19.1661 
G01 X57.6287 Y19.2934 
G01 X50.0527 Y26.8694 
G01 X49.7734 Y27.1487 
G01 X49.6461 Y27.4561 
G01 X49.6461 Y30.6594 
G01 X49.6466 Y30.6620 
G01 X49.6461 Y30.7204 
G01 X49.6461 Y30.7789 
G01 X49.6456 Y30.7814 
G01 X49.6456 Y30.7841 
G01 X49.6337 Y30.8413 
G01 X49.6298 Y30.8607 
G01 X49.6347 Y30.8862 
G01 X49.6461 Y30.9436 
G01 X49.6461 Y30.9463 
G01 X49.6466 Y30.9489 
G01 X49.6461 Y31.0073 
G01 X49.6461 Y31.0334 
G01 X49.6535 Y31.0517 
G01 X49.6759 Y31.1057 
G01 X49.6764 Y31.1083 
G01 X49.6883 Y31.1681 
G01 X49.6921 Y31.1875 
G01 X49.7065 Y31.2093 
G01 X49.7389 Y31.2579 
G01 X49.7414 Y31.2625 
G01 X49.7633 Y31.3168 
G01 X49.7733 Y31.3408 
G01 X49.7870 Y31.3548 
G01 X49.8284 Y31.3962 
G01 X49.8317 Y31.4003 
G01 X49.8637 Y31.4491 
G01 X49.8963 Y31.4978 
G01 X50.3391 Y32.1737 
G01 X50.3717 Y32.2224 
G01 X50.3741 Y32.2271 
G01 X50.3960 Y32.2812 
G01 X50.4184 Y32.3353 
G01 X50.4189 Y32.3378 
G01 X50.4308 Y32.3977 
G01 X50.4422 Y32.4550 
G01 X50.4422 Y32.4577 
G01 X50.4427 Y32.4603 
G01 X50.4422 Y32.5188 
G01 X50.4422 Y32.5772 
G01 X50.4417 Y32.5798 
G01 X50.4417 Y32.5824 
G01 X50.4298 Y32.6396 
G01 X50.4184 Y32.6969 
G01 X50.4169 Y32.7020 
G01 X50.3941 Y32.7557 
G01 X50.3717 Y32.8098 
G01 X50.3692 Y32.8144 
G01 X50.3363 Y32.8627 
G01 X50.3038 Y32.9113 
G01 X50.3005 Y32.9154 
G01 X50.2589 Y32.9563 
G01 X50.2175 Y32.9977 
G01 X50.2134 Y33.0010 
G01 X50.1646 Y33.0330 
G01 X50.1159 Y33.0655 
G01 X50.1113 Y33.0680 
G01 X50.0572 Y33.0899 
G01 X50.0031 Y33.1123 
G01 X50.0005 Y33.1128 
G01 X49.9406 Y33.1247 
G01 X49.8833 Y33.1361 
G01 X49.8807 Y33.1361 
G01 X49.8781 Y33.1366 
G01 X49.8196 Y33.1361 
G01 X47.7761 Y33.1361 
G01 X47.4687 Y33.2634 
G01 X45.8295 Y34.9027 
G01 X45.7279 Y34.9705 
G01 X45.6151 Y35.0173 
G01 X45.4953 Y35.0411 
G01 X43.7639 Y35.0411 
G01 X43.6441 Y35.0173 
G01 X43.5313 Y34.9705 
G01 X43.4297 Y34.9027 
G01 X43.3434 Y34.8163 
G01 X43.3142 Y34.7871 
G01 X42.4108 Y34.7871 
G01 X41.7721 Y35.4258 
G01 X41.7721 Y36.3292 
G01 X41.9225 Y36.4795 
G01 X42.0052 Y36.5623 
G01 X42.0088 Y36.5659 
G01 X42.0304 Y36.5982 
G01 X42.0767 Y36.6674 
G01 X42.0966 Y36.7155 
G01 X42.1234 Y36.7803 
G01 X42.1469 Y36.8983 
G01 X42.1472 Y37.0222 
G01 X42.1234 Y37.1419 
G01 X42.0767 Y37.2548 
G01 X42.0088 Y37.3563 
G01 X41.9238 Y37.4413 
G01 X41.8901 Y37.4643 
G01 X41.8209 Y37.5105 
G01 X41.7728 Y37.5305 
G01 X41.7081 Y37.5573 
G01 X41.5900 Y37.5808 
G01 X40.8647 Y37.5811 
G01 X40.7449 Y37.5573 
G01 X40.6321 Y37.5105 
G01 X40.5305 Y37.4427 
G01 X40.4442 Y37.3563 
G01 X35.6781 Y32.5902 
G01 X35.3988 Y32.3109 
G01 X35.0914 Y32.1836 
G01 X20.4711 Y32.1836 
G01 X20.1637 Y32.3109 
G01 X16.9370 Y35.5377 
G01 X16.8354 Y35.6055 
G01 X16.7226 Y35.6523 
G01 X16.6028 Y35.6761 
G01 X14.8714 Y35.6761 
G01 X14.7516 Y35.6523 
G01 X14.6388 Y35.6055 
G01 X14.5372 Y35.5377 
G01 X14.4509 Y35.4513 
G01 X14.4217 Y35.4221 
G01 X13.5183 Y35.4221 
G01 X12.8796 Y36.0608 
G01 X12.8796 Y36.9642 
G01 X13.5183 Y37.6029 
G01 X14.4217 Y37.6029 
G01 X14.5372 Y37.4873 
G01 X14.6388 Y37.4195 
G01 X14.7516 Y37.3727 
G01 X14.8714 Y37.3489 
G01 X17.3114 Y37.3489 
G01 X17.6188 Y37.2216 
G01 X20.8455 Y33.9948 
G01 X20.9471 Y33.9270 
G01 X21.0599 Y33.8802 
G01 X21.1797 Y33.8564 
G01 X34.3828 Y33.8564 
G01 X34.5026 Y33.8802 
G01 X34.6154 Y33.9270 
G01 X34.7170 Y33.9948 
G01 X34.8033 Y34.0812 
G01 X39.8487 Y39.1266 
G01 X40.1561 Y39.2539 
G01 X45.8680 Y39.2539 
G01 X45.8905 Y39.2584 
G01 X45.9878 Y39.2777 
G01 X46.1006 Y39.3245 
G01 X46.2022 Y39.3923 
G01 X46.2885 Y39.4787 
G01 X46.3348 Y39.5479 
G01 X46.3564 Y39.5802 
G01 X46.3753 Y39.6260 
G01 X46.4031 Y39.6930 
G01 X46.4269 Y39.8128 
G01 X46.4269 Y39.9350 
G01 X46.4225 Y39.9574 
G01 X46.4031 Y40.0547 
G01 X46.3695 Y40.1359 
G01 X46.3695 Y41.7452 
G01 X46.3457 Y41.8650 
G01 X46.2989 Y41.9778 
G01 X46.2311 Y42.0794 
G01 X46.1447 Y42.1657 
G01 X46.0466 Y42.2638 
G01 X45.9451 Y42.3316 
G01 X45.8323 Y42.3784 
G01 X45.7979 Y42.3852 
G01 X45.7979 Y42.7048 
G01 X45.8323 Y42.7116 
G01 X45.9451 Y42.7583 
G01 X46.0466 Y42.8262 
G01 X46.1330 Y42.9126 
G01 X46.3327 Y43.1122 
G01 X46.4005 Y43.2138 
G01 X46.4473 Y43.3266 
G01 X46.4711 Y43.4464 
G01 X46.4711 Y44.8654 
G01 X46.4537 Y44.9530 
G01 X46.4473 Y44.9852 
G01 X46.4171 Y45.0580 
G01 X46.4005 Y45.0980 
G01 X46.3737 Y45.1382 
G01 X46.3327 Y45.1996 
G01 X46.2970 Y45.2353 
G01 X46.2781 Y45.2808 
G01 X46.2505 Y45.3474 
G01 X46.1827 Y45.4489 
G01 X46.0963 Y45.5353 
G01 X46.0479 Y45.5676 
G01 X45.9948 Y45.6031 
G01 X45.8819 Y45.6499 
G01 X45.8726 Y45.6517 
G01 X45.8995 Y45.8214 
G01 X45.8995 Y47.5236 
G01 X45.8726 Y47.6933 
G01 X45.8820 Y47.6951 
G01 X45.9948 Y47.7418 
G01 X46.0756 Y47.7958 
G01 X46.0963 Y47.8097 
G01 X46.1388 Y47.8522 
G01 X46.1827 Y47.8961 
G01 X46.1955 Y47.9152 
G01 X46.2505 Y47.9976 
G01 X46.2970 Y48.1097 
G01 X46.3127 Y48.1254 
G01 X46.3972 Y48.2099 
G01 X46.4432 Y48.2778 
G01 X46.4669 Y48.3133 
G01 X46.5136 Y48.4261 
G01 X46.5277 Y48.4969 
G01 X46.5374 Y48.5459 
G01 X46.5374 Y48.6681 
G01 X46.5136 Y48.7878 
G01 X46.4755 Y48.8800 
G01 X46.4669 Y48.9007 
G01 X46.3990 Y49.0022 
G01 X46.3140 Y49.0872 
G01 X46.2466 Y49.1327 
G01 X46.2111 Y49.1564 
G01 X46.0983 Y49.2032 
G01 X46.0275 Y49.2172 
G01 X45.9785 Y49.2270 
G01 X45.2793 Y49.2270 
G01 X45.2427 Y49.2299 
G01 X45.2184 Y49.2270 
G01 X45.1939 Y49.2270 
G01 X45.1579 Y49.2198 
G01 X45.1214 Y49.2155 
G01 X45.0981 Y49.2080 
G01 X45.0741 Y49.2032 
G01 X45.0402 Y49.1891 
G01 X45.0053 Y49.1778 
G01 X44.9839 Y49.1658 
G01 X44.9613 Y49.1564 
G01 X44.9307 Y49.1360 
G01 X44.8987 Y49.1181 
G01 X44.8801 Y49.1022 
G01 X44.8597 Y49.0886 
G01 X44.8337 Y49.0626 
G01 X44.8058 Y49.0388 
G01 X44.7907 Y49.0196 
G01 X44.7733 Y49.0022 
G01 X44.7675 Y48.9935 
G01 X44.7616 Y49.0022 
G01 X44.7443 Y49.0196 
G01 X44.7292 Y49.0388 
G01 X44.7012 Y49.0626 
G01 X44.6753 Y49.0886 
G01 X44.6549 Y49.1022 
G01 X44.6363 Y49.1181 
G01 X44.6043 Y49.1360 
G01 X44.5737 Y49.1564 
G01 X44.5511 Y49.1658 
G01 X44.5297 Y49.1778 
G01 X44.4948 Y49.1891 
G01 X44.4609 Y49.2032 
G01 X44.4369 Y49.2080 
G01 X44.4136 Y49.2155 
G01 X44.3771 Y49.2198 
G01 X44.3411 Y49.2270 
G01 X44.3166 Y49.2270 
G01 X44.2923 Y49.2299 
G01 X44.2557 Y49.2270 
G01 X40.1698 Y49.2270 
G01 X40.1235 Y49.2178 
G01 X40.0500 Y49.2032 
G01 X39.9372 Y49.1564 
G01 X39.9044 Y49.1345 
G01 X39.8356 Y49.0886 
G01 X39.8217 Y49.0746 
G01 X38.9183 Y49.0746 
G01 X38.9062 Y49.0867 
G01 X38.8383 Y49.1327 
G01 X38.8028 Y49.1564 
G01 X38.6900 Y49.2032 
G01 X38.6192 Y49.2172 
G01 X38.5702 Y49.2270 
G01 X35.1918 Y49.2270 
G01 X35.0720 Y49.2032 
G01 X34.9592 Y49.1564 
G01 X34.8576 Y49.0886 
G01 X34.7713 Y49.0022 
G01 X34.7314 Y48.9624 
G01 X34.6636 Y48.8608 
G01 X34.6168 Y48.7480 
G01 X34.5930 Y48.6282 
G01 X34.5930 Y48.3471 
G01 X34.6168 Y48.2273 
G01 X34.6185 Y48.2231 
G01 X34.8470 Y47.6716 
G01 X34.8470 Y45.6734 
G01 X34.6655 Y45.2353 
G01 X34.3302 Y44.9000 
G01 X33.8605 Y44.7054 
G01 X33.8065 Y44.6947 
G01 X33.7724 Y44.6806 
G01 X33.6937 Y44.6479 
G01 X33.6429 Y44.6140 
G01 X33.5921 Y44.5801 
G01 X33.5638 Y44.5517 
G01 X33.5057 Y44.4937 
G01 X33.4847 Y44.4623 
G01 X33.4379 Y44.3922 
G01 X33.4168 Y44.3413 
G01 X33.3912 Y44.2793 
G01 X33.3833 Y44.2396 
G01 X33.3673 Y44.1596 
G01 X33.3673 Y44.0991 
G01 X33.3673 Y44.0374 
G01 X33.3743 Y44.0027 
G01 X33.3912 Y43.9177 
G01 X33.4053 Y43.8836 
G01 X33.4379 Y43.8048 
G01 X33.4718 Y43.7541 
G01 X33.4933 Y43.7218 
G01 X33.5287 Y43.6364 
G01 X33.5755 Y43.5236 
G01 X33.6199 Y43.4571 
G01 X33.6433 Y43.4220 
G01 X33.7297 Y43.3357 
G01 X34.6816 Y42.3838 
G01 X34.8089 Y42.0764 
G01 X34.8089 Y38.5686 
G01 X34.6816 Y38.2612 
G01 X34.4023 Y37.9819 
G01 X34.3159 Y37.8955 
G01 X33.8113 Y37.3909 
G01 X33.5039 Y37.2636 
G01 X32.0164 Y37.2636 
G01 X31.8966 Y37.2398 
G01 X31.7838 Y37.1930 
G01 X31.6822 Y37.1252 
G01 X31.5959 Y37.0388 
G01 X31.5667 Y37.0096 
G01 X30.6633 Y37.0096 
G01 X30.6341 Y37.0388 
G01 X30.5504 Y37.1225 
G01 X30.5478 Y37.1252 
G01 X30.4462 Y37.1930 
G01 X30.3334 Y37.2398 
G01 X30.2388 Y37.2586 
G01 X30.2136 Y37.2636 
G01 X23.9636 Y37.2636 
G01 X23.6562 Y37.3909 
G01 X23.2905 Y37.7566 
G01 X21.3820 Y39.6652 
G01 X21.2804 Y39.7330 
G01 X21.1676 Y39.7798 
G01 X21.0478 Y39.8036 
G01 X11.9722 Y39.8036 
G01 X11.8524 Y39.7798 
G01 X11.7396 Y39.7330 
G01 X11.6380 Y39.6652 
G01 X11.5517 Y39.5788 
G01 X10.1188 Y38.1460 
G01 X10.0510 Y38.0444 
G01 X10.0042 Y37.9316 
G01 X9.9804 Y37.8118 
G01 X9.9804 Y37.6483 
G01 X9.3417 Y37.0096 
G01 X9.1782 Y37.0096 
G01 X9.0584 Y36.9858 
G01 X8.9456 Y36.9390 
G01 X8.8440 Y36.8712 
G01 X8.7577 Y36.7848 
G01 X6.0548 Y34.0820 
G01 X5.9870 Y33.9804 
G01 X5.9402 Y33.8676 
G01 X5.9164 Y33.7478 
G01 X5.9164 Y9.4322 
G01 X5.9402 Y9.3124 
G01 X5.9870 Y9.1996 
G01 X6.0548 Y9.0980 
G01 X6.1412 Y9.0117 
G01 X9.0980 Y6.0548 
G01 X9.1996 Y5.9870 
G01 X9.3124 Y5.9402 
G01 X9.4322 Y5.9164 
G01 X19.9774 Y5.9164 
G01 X20.0972 Y5.9402 
G01 X20.2100 Y5.9870 
G01 X20.3116 Y6.0548 
G01 X20.3979 Y6.1412 
G01 X20.4658 Y6.2427 
G01 X20.5125 Y6.3555 
G01 X20.5795 Y6.5172 
G01 X20.9148 Y6.8525 
G01 X21.3529 Y7.0340 
G01 X21.8271 Y7.0340 
G01 X22.2652 Y6.8525 
G01 X22.2772 Y6.8405 
G01 X22.3584 Y6.7859 
G01 X22.3799 Y6.7715 
G01 X22.4834 Y6.7287 
G01 X22.4927 Y6.7248 
G01 X22.6118 Y6.7011 
G01 X22.6729 Y6.7009 
G01 X22.7346 Y6.7009 
G01 X22.8443 Y6.7228 
G01 X22.8544 Y6.7248 
G01 X22.9673 Y6.7715 
G01 X23.0481 Y6.8255 
G01 X23.0688 Y6.8394 
G01 X23.1538 Y6.9244 
G01 X23.2086 Y7.0057 
G01 X23.2230 Y7.0273 
G01 X23.2659 Y7.1307 
G01 X23.2698 Y7.1401 
G01 X23.2935 Y7.2592 
G01 X23.2936 Y7.3203 
G01 X23.2936 Y7.3820 
G01 X23.2936 Y8.3478 
G01 X23.2698 Y8.4676 
G01 X23.2230 Y8.5804 
G01 X23.1552 Y8.6820 
G01 X23.0688 Y8.7683 
G01 X11.9909 Y19.8462 
G01 X11.8636 Y20.1536 
G01 X11.8636 Y20.6886 
G01 X11.8398 Y20.8084 
G01 X11.7930 Y20.9212 
G01 X11.7252 Y21.0228 
G01 X11.6388 Y21.1091 
G01 X11.6096 Y21.1383 
G01 X11.6096 Y21.3018 
G01 X11.5858 Y21.4216 
G01 X11.5390 Y21.5344 
G01 X11.4712 Y21.6360 
G01 X11.3848 Y21.7223 
G01 X9.4509 Y23.6562 
G01 X9.3236 Y23.9636 
G01 X9.3236 Y26.1278 
G01 X9.2998 Y26.2476 
G01 X9.2605 Y26.3424 
G01 X9.2530 Y26.3604 
G01 X9.2175 Y26.4135 
G01 X9.1852 Y26.4620 
G01 X9.0988 Y26.5483 
G01 X9.0223 Y26.6248 
G01 X8.9360 Y26.7112 
G01 X8.8557 Y26.7648 
G01 X8.8344 Y26.7790 
G01 X8.7216 Y26.8258 
G01 X8.6332 Y26.8433 
G01 X8.6018 Y26.8496 
G01 X8.4383 Y26.8496 
G01 X7.7996 Y27.4883 
G01 X7.7996 Y28.3917 
G01 X8.4383 Y29.0304 
G01 X9.3417 Y29.0304 
G01 X9.9804 Y28.3917 
G01 X9.9804 Y28.2282 
G01 X10.0042 Y28.1084 
G01 X10.0322 Y28.0410 
G01 X10.0510 Y27.9956 
G01 X10.0954 Y27.9291 
G01 X10.1188 Y27.8940 
G01 X10.2052 Y27.8077 
G01 X10.5034 Y27.5095 
G01 X10.8691 Y27.1438 
G01 X10.9964 Y26.8364 
G01 X10.9964 Y24.6722 
G01 X11.0202 Y24.5524 
G01 X11.0670 Y24.4396 
G01 X11.1348 Y24.3380 
G01 X11.2212 Y24.2517 
G01 X11.7780 Y23.6948 
G01 X11.8644 Y23.6085 
G01 X11.9244 Y23.5683 
G01 X11.9659 Y23.5406 
G01 X11.9999 Y23.5265 
G01 X12.0788 Y23.4939 
G01 X12.1972 Y23.4703 
G01 X12.3207 Y23.4701 
G01 X12.4404 Y23.4939 
G01 X12.5500 Y23.5393 
G01 X12.5533 Y23.5406 
G01 X12.6548 Y23.6085 
G01 X12.7412 Y23.6948 
G01 X12.7813 Y23.7549 
G01 X12.8090 Y23.7964 
G01 X12.8231 Y23.8304 
G01 X12.8558 Y23.9092 
G01 X12.8592 Y23.9262 
G01 X12.9952 Y24.0622 
G01 X13.0630 Y24.1638 
G01 X13.1098 Y24.2766 
G01 X13.1336 Y24.3964 
G01 X13.1336 Y25.4511 
G01 X13.1098 Y25.5709 
G01 X13.0630 Y25.6837 
G01 X12.9952 Y25.7853 
G01 X12.9088 Y25.8716 
G01 X12.8796 Y25.9008 
G01 X12.8796 Y26.8042 
G01 X13.5183 Y27.4429 
G01 X14.4217 Y27.4429 
G01 X15.0604 Y26.8042 
G01 X15.0604 Y25.9008 
G01 X14.9448 Y25.7853 
G01 X14.8770 Y25.6837 
G01 X14.8302 Y25.5709 
G01 X14.8064 Y25.4511 
G01 X14.8064 Y24.3964 
G01 X14.8302 Y24.2766 
G01 X14.8770 Y24.1638 
G01 X14.9448 Y24.0622 
G01 X15.0604 Y23.9467 
G01 X15.0604 Y22.9553 
G01 X15.0521 Y22.9353 
G01 X15.0378 Y22.8635 
G01 X15.0283 Y22.8155 
G01 X15.0283 Y22.7551 
G01 X15.0283 Y22.6934 
G01 X15.0428 Y22.6204 
G01 X14.8132 Y22.6204 
G00 Z22.0000 
G00 X48.1439 Y44.4926 
G01 Z-0.1000 F30.00 
G01 X48.1439 Y44.4322 F50.00 
G01 X48.1439 Y44.3705 
G01 X48.1439 Y43.9403 
G01 X48.1677 Y43.8205 
G01 X48.2145 Y43.7077 
G01 X48.2823 Y43.6062 
G01 X48.3687 Y43.5198 
G01 X48.4702 Y43.4520 
G01 X48.5830 Y43.4052 
G01 X48.7028 Y43.3814 
G01 X49.6228 Y43.3814 
G01 X49.7034 Y43.3974 
G01 X49.7426 Y43.4052 
G01 X49.8554 Y43.4520 
G01 X49.9174 Y43.4934 
G01 X49.9570 Y43.5198 
G01 X49.9598 Y43.5227 
G01 X50.0541 Y43.6169 
G01 X50.1376 Y43.7004 
G01 X50.1404 Y43.7033 
G01 X50.2065 Y43.8021 
G01 X50.2083 Y43.8048 
G01 X50.2431 Y43.8889 
G01 X50.2550 Y43.9176 
G01 X50.2644 Y43.9646 
G01 X50.2788 Y44.0374 
G01 X50.2788 Y44.1596 
G01 X50.2633 Y44.2379 
G01 X50.2550 Y44.2793 
G01 X50.2083 Y44.3922 
G01 X50.1680 Y44.4525 
G01 X50.1404 Y44.4937 
G01 X50.0541 Y44.5801 
G01 X49.9552 Y44.6461 
G01 X49.9525 Y44.6479 
G01 X49.8684 Y44.6828 
G01 X49.8397 Y44.6947 
G01 X49.7927 Y44.7040 
G01 X49.7199 Y44.7185 
G01 X49.6104 Y44.7185 
G01 X49.1723 Y44.9000 
G01 X49.1603 Y44.9120 
G01 X49.0791 Y44.9666 
G01 X49.0576 Y44.9810 
G01 X48.9541 Y45.0238 
G01 X48.9448 Y45.0277 
G01 X48.8257 Y45.0514 
G01 X48.7646 Y45.0515 
G01 X48.7028 Y45.0515 
G01 X48.5932 Y45.0297 
G01 X48.5831 Y45.0277 
G01 X48.4702 Y44.9810 
G01 X48.3894 Y44.9270 
G01 X48.3687 Y44.9131 
G01 X48.2837 Y44.8281 
G01 X48.2289 Y44.7468 
G01 X48.2145 Y44.7252 
G01 X48.1716 Y44.6218 
G01 X48.1677 Y44.6124 
G01 X48.1440 Y44.4933 
G00 Z22.0000 
G00 X58.3105 Y20.9773 
G01 Z-0.1000 F30.00 
G01 X58.4121 Y20.9095 F50.00 
G01 X58.5249 Y20.8627 
G01 X58.6447 Y20.8389 
G01 X59.7275 Y20.8389 
G01 X59.8473 Y20.8627 
G01 X59.9601 Y20.9095 
G01 X60.0617 Y20.9773 
G01 X60.1480 Y21.0637 
G01 X60.2159 Y21.1652 
G01 X60.2626 Y21.2780 
G01 X60.2864 Y21.3978 
G01 X60.2864 Y21.5200 
G01 X60.2626 Y21.6397 
G01 X60.2159 Y21.7526 
G01 X60.1480 Y21.8541 
G01 X60.0617 Y21.9405 
G01 X55.4408 Y26.5613 
G01 X55.3545 Y26.6477 
G01 X55.2529 Y26.7155 
G01 X55.1401 Y26.7623 
G01 X55.0203 Y26.7861 
G01 X53.9375 Y26.7861 
G01 X53.8177 Y26.7623 
G01 X53.7049 Y26.7155 
G01 X53.6033 Y26.6477 
G01 X53.5170 Y26.5613 
G01 X53.4491 Y26.4598 
G01 X53.4024 Y26.3469 
G01 X53.3786 Y26.2272 
G01 X53.3786 Y26.1050 
G01 X53.4024 Y25.9853 
G01 X53.4491 Y25.8724 
G01 X53.5170 Y25.7709 
G01 X53.6033 Y25.6845 
G01 X58.3105 Y20.9773 
G00 Z22.0000 
G00 X69.6913 Y28.9933 
G01 Z-0.1000 F30.00 
G01 X69.6270 Y29.0200 F50.00 
G01 X69.5785 Y29.0401 
G01 X69.4988 Y29.0731 
G01 X69.4033 Y29.1126 
G01 X69.2836 Y29.1364 
G01 X69.1614 Y29.1364 
G01 X69.1239 Y29.1290 
G01 X69.0416 Y29.1126 
G01 X68.8665 Y29.0401 
G01 X68.7583 Y28.9953 
G01 X68.7537 Y28.9933 
G01 X68.6521 Y28.9255 
G01 X68.5658 Y28.8391 
G01 X68.4988 Y28.7389 
G01 X68.4512 Y28.6247 
G01 X68.4274 Y28.5050 
G01 X68.4274 Y28.3828 
G01 X68.4498 Y28.2698 
G01 X68.4512 Y28.2630 
G01 X68.4979 Y28.1502 
G01 X68.5658 Y28.0487 
G01 X68.6521 Y27.9623 
G01 X68.7523 Y27.8954 
G01 X68.8665 Y27.8477 
G01 X68.9863 Y27.8239 
G01 X69.4587 Y27.8239 
G01 X69.4812 Y27.8284 
G01 X69.5785 Y27.8477 
G01 X69.6913 Y27.8945 
G01 X69.7404 Y27.9273 
G01 X69.7928 Y27.9623 
G01 X69.8792 Y28.0487 
G01 X69.9471 Y28.1502 
G01 X69.9660 Y28.1960 
G01 X69.9938 Y28.2630 
G01 X70.0176 Y28.3828 
G01 X70.0176 Y28.5050 
G01 X70.0131 Y28.5274 
G01 X69.9938 Y28.6247 
G01 X69.9471 Y28.7376 
G01 X69.9143 Y28.7867 
G01 X69.8792 Y28.8391 
G01 X69.7928 Y28.9255 
G01 X69.6913 Y28.9933 
G00 Z22.0000 
G00 X64.6113 Y28.9933 
G01 Z-0.1000 F30.00 
G01 X64.5470 Y29.0200 F50.00 
G01 X64.4985 Y29.0401 
G01 X64.4188 Y29.0731 
G01 X64.3233 Y29.1126 
G01 X64.2036 Y29.1364 
G01 X64.0814 Y29.1364 
G01 X64.0439 Y29.1290 
G01 X63.9616 Y29.1126 
G01 X63.7865 Y29.0401 
G01 X63.6783 Y28.9953 
G01 X63.6737 Y28.9933 
G01 X63.5721 Y28.9255 
G01 X63.4858 Y28.8391 
G01 X63.4188 Y28.7389 
G01 X63.3712 Y28.6247 
G01 X63.3474 Y28.5050 
G01 X63.3474 Y28.3828 
G01 X63.3698 Y28.2698 
G01 X63.3712 Y28.2630 
G01 X63.4179 Y28.1502 
G01 X63.4858 Y28.0487 
G01 X63.5721 Y27.9623 
G01 X63.6723 Y27.8954 
G01 X63.7865 Y27.8477 
G01 X63.9063 Y27.8239 
G01 X64.3787 Y27.8239 
G01 X64.4012 Y27.8284 
G01 X64.4985 Y27.8477 
G01 X64.6113 Y27.8945 
G01 X64.6604 Y27.9273 
G01 X64.7128 Y27.9623 
G01 X64.7992 Y28.0487 
G01 X64.8671 Y28.1502 
G01 X64.8860 Y28.1960 
G01 X64.9138 Y28.2630 
G01 X64.9376 Y28.3828 
G01 X64.9376 Y28.5050 
G01 X64.9331 Y28.5274 
G01 X64.9138 Y28.6247 
G01 X64.8671 Y28.7376 
G01 X64.8342 Y28.7867 
G01 X64.7992 Y28.8391 
G01 X64.7128 Y28.9255 
G01 X64.6113 Y28.9933 
G00 Z22.0000 
G00 X15.0004 Y23.0682 
G01 Z-0.1000 F30.00 
G01 X15.0004 Y23.9218 F50.00 
G01 X14.7464 Y24.1758 
G01 X14.7464 Y25.6717 
G01 X15.0004 Y25.9257 
G01 X15.0004 Y26.7793 
G01 X14.3968 Y27.3829 
G01 X13.5432 Y27.3829 
G01 X12.9396 Y26.7793 
G01 X12.9396 Y25.9257 
G01 X13.1936 Y25.6717 
G01 X13.1936 Y24.1758 
G01 X12.9396 Y23.9218 
G01 X12.9396 Y23.0682 
G01 X13.5432 Y22.4646 
G01 X14.3968 Y22.4646 
G01 X15.0004 Y23.0682 
G00 Z22.0000 
G00 X32.5230 Y47.5236 
G01 Z-0.1000 F30.00 
G01 X32.5230 Y45.8214 F50.00 
G01 X32.5509 Y45.6454 
G01 X32.6059 Y45.4760 
G01 X32.6868 Y45.3172 
G01 X32.7916 Y45.1731 
G01 X32.9175 Y45.0471 
G01 X33.0617 Y44.9423 
G01 X33.2205 Y44.8614 
G01 X33.3899 Y44.8064 
G01 X33.5659 Y44.7785 
G01 X33.7441 Y44.7785 
G01 X33.9201 Y44.8064 
G01 X34.0895 Y44.8614 
G01 X34.2483 Y44.9423 
G01 X34.3924 Y45.0471 
G01 X34.5184 Y45.1731 
G01 X34.6232 Y45.3172 
G01 X34.7041 Y45.4760 
G01 X34.7591 Y45.6454 
G01 X34.7870 Y45.8214 
G01 X34.7870 Y47.5236 
G01 X34.7591 Y47.6996 
G01 X34.7041 Y47.8690 
G01 X34.6232 Y48.0278 
G01 X34.5330 Y48.1519 
G01 X34.5330 Y48.8488 
G01 X34.9712 Y49.2870 
G01 X38.7908 Y49.2870 
G01 X38.9432 Y49.1346 
G01 X39.7968 Y49.1346 
G01 X39.9492 Y49.2870 
G01 X47.5788 Y49.2870 
G01 X48.8654 Y48.0004 
G01 X48.7984 Y47.8690 
G01 X48.7434 Y47.6996 
G01 X48.7155 Y47.5236 
G01 X48.7155 Y45.8214 
G01 X48.7434 Y45.6454 
G01 X48.7984 Y45.4760 
G01 X48.8793 Y45.3172 
G01 X48.9841 Y45.1731 
G01 X49.1101 Y45.0471 
G01 X49.2542 Y44.9423 
G01 X49.4130 Y44.8614 
G01 X49.5824 Y44.8064 
G01 X49.7584 Y44.7785 
G01 X49.9366 Y44.7785 
G01 X50.1126 Y44.8064 
G01 X50.2820 Y44.8614 
G01 X50.4408 Y44.9423 
G01 X50.5849 Y45.0471 
G01 X50.7109 Y45.1731 
G01 X50.8157 Y45.3172 
G01 X50.8966 Y45.4760 
G01 X50.9516 Y45.6454 
G01 X50.9795 Y45.8214 
G01 X50.9795 Y47.5236 
G01 X50.9516 Y47.6996 
G01 X50.8966 Y47.8690 
G01 X50.8157 Y48.0278 
G01 X50.7255 Y48.1519 
G01 X50.7255 Y48.3465 
G01 X50.6918 Y48.5161 
G01 X50.6256 Y48.6759 
G01 X50.5295 Y48.8197 
G01 X48.5022 Y50.8470 
G01 X48.3584 Y50.9431 
G01 X48.1986 Y51.0093 
G01 X48.0290 Y51.0430 
G01 X39.9492 Y51.0430 
G01 X39.7968 Y51.1954 
G01 X38.9432 Y51.1954 
G01 X38.7908 Y51.0430 
G01 X34.5210 Y51.0430 
G01 X34.3514 Y51.0093 
G01 X34.1916 Y50.9431 
G01 X34.0478 Y50.8470 
G01 X33.9725 Y50.7717 
G01 X31.9922 Y52.7520 
G01 X31.8484 Y52.8481 
G01 X31.6886 Y52.9143 
G01 X31.5190 Y52.9480 
G01 X20.2642 Y52.9480 
G01 X20.1118 Y53.1004 
G01 X19.2582 Y53.1004 
G01 X19.1058 Y52.9480 
G01 X12.2744 Y52.9480 
G01 X12.1503 Y53.0382 
G01 X11.9915 Y53.1191 
G01 X11.8221 Y53.1741 
G01 X11.6461 Y53.2020 
G01 X9.9439 Y53.2020 
G01 X9.7679 Y53.1741 
G01 X9.5985 Y53.1191 
G01 X9.4397 Y53.0382 
G01 X9.2956 Y52.9334 
G01 X9.1696 Y52.8074 
G01 X9.0648 Y52.6633 
G01 X8.9839 Y52.5045 
G01 X8.9289 Y52.3351 
G01 X8.9010 Y52.1591 
G01 X8.9010 Y51.9809 
G01 X8.9289 Y51.8049 
G01 X8.9839 Y51.6355 
G01 X9.0648 Y51.4767 
G01 X9.1696 Y51.3326 
G01 X9.2956 Y51.2066 
G01 X9.4397 Y51.1018 
G01 X9.5985 Y51.0209 
G01 X9.7679 Y50.9659 
G01 X9.9439 Y50.9380 
G01 X11.6461 Y50.9380 
G01 X11.8221 Y50.9659 
G01 X11.9915 Y51.0209 
G01 X12.1503 Y51.1018 
G01 X12.2744 Y51.1920 
G01 X19.1058 Y51.1920 
G01 X19.2582 Y51.0396 
G01 X20.1118 Y51.0396 
G01 X20.2642 Y51.1920 
G01 X31.0688 Y51.1920 
G01 X32.7770 Y49.4838 
G01 X32.7770 Y48.1519 
G01 X32.6868 Y48.0278 
G01 X32.6059 Y47.8690 
G01 X32.5509 Y47.6996 
G01 X32.5230 Y47.5236 
G00 Z22.0000 
G00 X22.7220 Y4.2289 
G01 Z-0.1000 F30.00 
G01 X22.7220 Y5.9311 F50.00 
G01 X22.6941 Y6.1071 
G01 X22.6391 Y6.2765 
G01 X22.5582 Y6.4353 
G01 X22.4534 Y6.5794 
G01 X22.3274 Y6.7054 
G01 X22.1833 Y6.8102 
G01 X22.0245 Y6.8911 
G01 X21.8551 Y6.9461 
G01 X21.6791 Y6.9740 
G01 X21.5009 Y6.9740 
G01 X21.3249 Y6.9461 
G01 X21.1555 Y6.8911 
G01 X20.9967 Y6.8102 
G01 X20.8526 Y6.7054 
G01 X20.7266 Y6.5794 
G01 X20.6218 Y6.4353 
G01 X20.5409 Y6.2765 
G01 X20.4859 Y6.1071 
G01 X20.4580 Y5.9311 
G01 X20.4580 Y5.8564 
G01 X9.2116 Y5.8564 
G01 X5.8564 Y9.2116 
G01 X5.8564 Y33.9684 
G01 X8.9576 Y37.0696 
G01 X9.3168 Y37.0696 
G01 X9.9204 Y37.6732 
G01 X9.9204 Y38.0324 
G01 X11.7516 Y39.8636 
G01 X21.2684 Y39.8636 
G01 X23.5269 Y37.6051 
G01 X23.6351 Y37.4969 
G01 X23.7622 Y37.4120 
G01 X23.9035 Y37.3534 
G01 X24.0535 Y37.3236 
G01 X30.4342 Y37.3236 
G01 X30.6882 Y37.0696 
G01 X31.5418 Y37.0696 
G01 X31.7958 Y37.3236 
G01 X33.4140 Y37.3236 
G01 X33.5640 Y37.3534 
G01 X33.7053 Y37.4120 
G01 X33.8324 Y37.4969 
G01 X34.4674 Y38.1319 
G01 X34.5756 Y38.2401 
G01 X34.6605 Y38.3672 
G01 X34.7191 Y38.5085 
G01 X34.7489 Y38.6585 
G01 X34.7489 Y41.9865 
G01 X34.7191 Y42.1365 
G01 X34.6605 Y42.2778 
G01 X34.5756 Y42.4049 
G01 X33.5473 Y43.4331 
G01 X33.5468 Y43.4361 
G01 X33.4806 Y43.5959 
G01 X33.3845 Y43.7397 
G01 X33.2622 Y43.8620 
G01 X33.1184 Y43.9581 
G01 X32.9586 Y44.0243 
G01 X32.7890 Y44.0580 
G01 X31.8914 Y44.0580 
G01 X31.8914 Y45.0860 
G01 X31.9784 Y45.1731 
G01 X32.0832 Y45.3172 
G01 X32.1641 Y45.4760 
G01 X32.2191 Y45.6454 
G01 X32.2470 Y45.8214 
G01 X32.2470 Y47.5236 
G01 X32.2191 Y47.6996 
G01 X32.1641 Y47.8690 
G01 X32.0832 Y48.0278 
G01 X31.9784 Y48.1719 
G01 X31.8524 Y48.2979 
G01 X31.7083 Y48.4027 
G01 X31.5495 Y48.4836 
G01 X31.3801 Y48.5386 
G01 X31.2041 Y48.5665 
G01 X31.0259 Y48.5665 
G01 X30.8499 Y48.5386 
G01 X30.6805 Y48.4836 
G01 X30.5217 Y48.4027 
G01 X30.3776 Y48.2979 
G01 X30.2516 Y48.1719 
G01 X30.1468 Y48.0278 
G01 X30.0659 Y47.8690 
G01 X30.0109 Y47.6996 
G01 X29.9830 Y47.5236 
G01 X29.9830 Y45.8214 
G01 X30.0109 Y45.6454 
G01 X30.0659 Y45.4760 
G01 X30.1468 Y45.3172 
G01 X30.2516 Y45.1731 
G01 X30.3386 Y45.0860 
G01 X30.3386 Y43.8608 
G01 X30.0846 Y43.6068 
G01 X30.0846 Y42.7532 
G01 X30.6882 Y42.1496 
G01 X31.5418 Y42.1496 
G01 X31.6942 Y42.3020 
G01 X32.4825 Y42.3020 
G01 X33.1961 Y41.5884 
G01 X33.1961 Y39.0566 
G01 X33.0159 Y38.8764 
G01 X31.7958 Y38.8764 
G01 X31.5418 Y39.1304 
G01 X30.6882 Y39.1304 
G01 X30.4342 Y38.8764 
G01 X24.4516 Y38.8764 
G01 X22.0849 Y41.2431 
G01 X21.9578 Y41.3280 
G01 X21.8165 Y41.3866 
G01 X21.6665 Y41.4164 
G01 X11.3535 Y41.4164 
G01 X11.2035 Y41.3866 
G01 X11.0622 Y41.3280 
G01 X10.9351 Y41.2431 
G01 X10.8269 Y41.1349 
G01 X8.8224 Y39.1304 
G01 X8.4632 Y39.1304 
G01 X7.8596 Y38.5268 
G01 X7.8596 Y38.1676 
G01 X4.5851 Y34.8931 
G01 X4.4769 Y34.7849 
G01 X4.3920 Y34.6578 
G01 X4.3334 Y34.5165 
G01 X4.3036 Y34.3665 
G01 X4.3036 Y8.8135 
G01 X4.3334 Y8.6635 
G01 X4.3920 Y8.5222 
G01 X4.4769 Y8.3951 
G01 X8.2869 Y4.5851 
G01 X8.3951 Y4.4769 
G01 X8.5222 Y4.3920 
G01 X8.6635 Y4.3334 
G01 X8.8135 Y4.3036 
G01 X20.4580 Y4.3036 
G01 X20.4580 Y4.2289 
G01 X20.4859 Y4.0529 
G01 X20.5409 Y3.8835 
G01 X20.6218 Y3.7247 
G01 X20.7266 Y3.5806 
G01 X20.8526 Y3.4546 
G01 X20.9967 Y3.3498 
G01 X21.1555 Y3.2689 
G01 X21.3249 Y3.2139 
G01 X21.5009 Y3.1860 
G01 X21.6791 Y3.1860 
G01 X21.8551 Y3.2139 
G01 X22.0245 Y3.2689 
G01 X22.1833 Y3.3498 
G01 X22.3274 Y3.4546 
G01 X22.4534 Y3.5806 
G01 X22.5582 Y3.7247 
G01 X22.6391 Y3.8835 
G01 X22.6941 Y4.0529 
G01 X22.7220 Y4.2289 
G00 Z22.0000 
G00 X9.9204 Y28.3668 
G01 Z-0.1000 F30.00 
G01 X9.3168 Y28.9704 F50.00 
G01 X8.4632 Y28.9704 
G01 X7.8596 Y28.3668 
G01 X7.8596 Y27.5132 
G01 X8.4632 Y26.9096 
G01 X8.8224 Y26.9096 
G01 X9.3836 Y26.3484 
G01 X9.3836 Y24.0535 
G01 X9.4134 Y23.9035 
G01 X9.4720 Y23.7622 
G01 X9.5569 Y23.6351 
G01 X11.6696 Y21.5224 
G01 X11.6696 Y21.1632 
G01 X11.9236 Y20.9092 
G01 X11.9236 Y20.2435 
G01 X11.9534 Y20.0935 
G01 X12.0120 Y19.9522 
G01 X12.0969 Y19.8251 
G01 X23.3536 Y8.5684 
G01 X23.3536 Y6.6665 
G01 X23.2666 Y6.5794 
G01 X23.1618 Y6.4353 
G01 X23.0809 Y6.2765 
G01 X23.0259 Y6.1071 
G01 X22.9980 Y5.9311 
G01 X22.9980 Y4.2289 
G01 X23.0259 Y4.0529 
G01 X23.0809 Y3.8835 
G01 X23.1618 Y3.7247 
G01 X23.2666 Y3.5806 
G01 X23.3925 Y3.4546 
G01 X23.5367 Y3.3498 
G01 X23.6955 Y3.2689 
G01 X23.8649 Y3.2139 
G01 X24.0409 Y3.1860 
G01 X24.2191 Y3.1860 
G01 X24.3951 Y3.2139 
G01 X24.5645 Y3.2689 
G01 X24.7233 Y3.3498 
G01 X24.8674 Y3.4546 
G01 X24.9934 Y3.5806 
G01 X25.0982 Y3.7247 
G01 X25.1791 Y3.8835 
G01 X25.2341 Y4.0529 
G01 X25.2620 Y4.2289 
G01 X25.2620 Y5.9311 
G01 X25.2341 Y6.1071 
G01 X25.1791 Y6.2765 
G01 X25.0982 Y6.4353 
G01 X24.9934 Y6.5794 
G01 X24.9064 Y6.6665 
G01 X24.9064 Y8.9665 
G01 X24.8766 Y9.1165 
G01 X24.8180 Y9.2578 
G01 X24.7331 Y9.3849 
G01 X24.6249 Y9.4931 
G01 X13.4764 Y20.6416 
G01 X13.4764 Y20.9092 
G01 X13.7304 Y21.1632 
G01 X13.7304 Y22.0168 
G01 X13.1268 Y22.6204 
G01 X12.7676 Y22.6204 
G01 X10.9364 Y24.4516 
G01 X10.9364 Y26.7465 
G01 X10.9066 Y26.8965 
G01 X10.8480 Y27.0378 
G01 X10.7631 Y27.1649 
G01 X10.6549 Y27.2731 
G01 X9.9204 Y28.0076 
G01 X9.9204 Y28.3668 
G00 Z22.0000 
G00 X43.8929 Y25.2907 
G01 Z-0.1000 F30.00 
G01 X43.8929 Y26.1443 F50.00 
G01 X43.2893 Y26.7479 
G01 X42.4357 Y26.7479 
G01 X42.1817 Y26.4939 
G01 X39.7333 Y26.4939 
G01 X39.4793 Y26.7479 
G01 X38.6257 Y26.7479 
G01 X38.0221 Y26.1443 
G01 X38.0221 Y25.2907 
G01 X38.6257 Y24.6871 
G01 X39.4793 Y24.6871 
G01 X39.7333 Y24.9411 
G01 X42.1817 Y24.9411 
G01 X42.4357 Y24.6871 
G01 X43.2893 Y24.6871 
G01 X43.8929 Y25.2907 
G00 Z22.0000 
G00 X14.3968 Y37.5429 
G01 Z-0.1000 F30.00 
G01 X13.5432 Y37.5429 F50.00 
G01 X12.9396 Y36.9393 
G01 X12.9396 Y36.0857 
G01 X13.5432 Y35.4821 
G01 X14.3968 Y35.4821 
G01 X14.6508 Y35.7361 
G01 X16.8234 Y35.7361 
G01 X20.1426 Y32.4169 
G01 X20.2697 Y32.3320 
G01 X20.4110 Y32.2734 
G01 X20.5610 Y32.2436 
G01 X35.0015 Y32.2436 
G01 X35.1515 Y32.2734 
G01 X35.2928 Y32.3320 
G01 X35.4199 Y32.4169 
G01 X35.5281 Y32.5251 
G01 X40.6441 Y37.6411 
G01 X46.0334 Y37.6411 
G01 X48.0826 Y35.5919 
G01 X48.2097 Y35.5070 
G01 X48.3510 Y35.4484 
G01 X48.5010 Y35.4186 
G01 X59.7665 Y35.4186 
G01 X59.9165 Y35.4484 
G01 X60.0578 Y35.5070 
G01 X60.1849 Y35.5919 
G01 X60.2931 Y35.7001 
G01 X63.4756 Y38.8826 
G01 X63.5605 Y39.0097 
G01 X63.6191 Y39.1510 
G01 X63.6476 Y39.2945 
G01 X63.7193 Y39.3137 
G01 X63.8037 Y39.3624 
G01 X63.8726 Y39.4313 
G01 X63.9213 Y39.5157 
G01 X63.9465 Y39.6098 
G01 X63.9465 Y41.1152 
G01 X63.9213 Y41.2093 
G01 X63.8726 Y41.2937 
G01 X63.8037 Y41.3626 
G01 X63.7193 Y41.4113 
G01 X63.6252 Y41.4365 
G01 X62.1198 Y41.4365 
G01 X62.0257 Y41.4113 
G01 X61.9413 Y41.3626 
G01 X61.8724 Y41.2937 
G01 X61.8237 Y41.2093 
G01 X61.7985 Y41.1152 
G01 X61.7985 Y39.6098 
G01 X61.8237 Y39.5157 
G01 X61.8563 Y39.4593 
G01 X59.3684 Y36.9714 
G01 X48.8991 Y36.9714 
G01 X46.9581 Y38.9124 
G01 X46.8499 Y39.0206 
G01 X46.7228 Y39.1055 
G01 X46.5815 Y39.1641 
G01 X46.4315 Y39.1939 
G01 X40.2460 Y39.1939 
G01 X40.0960 Y39.1641 
G01 X39.9547 Y39.1055 
G01 X39.8276 Y39.0206 
G01 X39.7194 Y38.9124 
G01 X34.6034 Y33.7964 
G01 X20.9591 Y33.7964 
G01 X17.7481 Y37.0074 
G01 X17.6399 Y37.1156 
G01 X17.5128 Y37.2005 
G01 X17.3715 Y37.2591 
G01 X17.2215 Y37.2889 
G01 X14.6508 Y37.2889 
G01 X14.3968 Y37.5429 
G00 Z22.0000 
G00 X89.1161 Y60.8220 
G01 Z-0.1000 F30.00 
G01 X87.4139 Y60.8220 F50.00 
G01 X87.2379 Y60.7941 
G01 X87.0685 Y60.7391 
G01 X86.9097 Y60.6582 
G01 X86.7656 Y60.5534 
G01 X86.6785 Y60.4664 
G01 X70.2133 Y60.4664 
G01 X69.9593 Y60.7204 
G01 X69.1057 Y60.7204 
G01 X68.5021 Y60.1168 
G01 X68.5021 Y59.2632 
G01 X68.7561 Y59.0092 
G01 X68.7561 Y57.1541 
G01 X66.9884 Y55.3864 
G01 X64.0585 Y55.3864 
G01 X63.9085 Y55.3566 
G01 X63.7672 Y55.2980 
G01 X63.6401 Y55.2131 
G01 X63.5319 Y55.1049 
G01 X54.6494 Y46.2224 
G01 X54.5645 Y46.0953 
G01 X54.5059 Y45.9540 
G01 X54.4761 Y45.8040 
G01 X54.4761 Y41.4302 
G01 X54.4057 Y41.4113 
G01 X54.3213 Y41.3626 
G01 X54.2524 Y41.2937 
G01 X54.2037 Y41.2093 
G01 X54.1785 Y41.1152 
G01 X54.1785 Y39.6098 
G01 X54.2037 Y39.5157 
G01 X54.2524 Y39.4313 
G01 X54.3213 Y39.3624 
G01 X54.4057 Y39.3137 
G01 X54.4998 Y39.2885 
G01 X56.0052 Y39.2885 
G01 X56.0993 Y39.3137 
G01 X56.1837 Y39.3624 
G01 X56.2526 Y39.4313 
G01 X56.3013 Y39.5157 
G01 X56.3265 Y39.6098 
G01 X56.3265 Y41.1152 
G01 X56.3013 Y41.2093 
G01 X56.2526 Y41.2937 
G01 X56.1837 Y41.3626 
G01 X56.0993 Y41.4113 
G01 X56.0289 Y41.4302 
G01 X56.0289 Y45.4059 
G01 X64.4566 Y53.8336 
G01 X67.3865 Y53.8336 
G01 X67.5365 Y53.8634 
G01 X67.6778 Y53.9220 
G01 X67.8049 Y54.0069 
G01 X70.0274 Y56.2294 
G01 X70.1356 Y56.3376 
G01 X70.2205 Y56.4647 
G01 X70.2791 Y56.6060 
G01 X70.3089 Y56.7560 
G01 X70.3089 Y58.9136 
G01 X86.6785 Y58.9136 
G01 X86.7656 Y58.8266 
G01 X86.9097 Y58.7218 
G01 X87.0685 Y58.6409 
G01 X87.2379 Y58.5859 
G01 X87.4139 Y58.5580 
G01 X89.1161 Y58.5580 
G01 X89.2921 Y58.5859 
G01 X89.4615 Y58.6409 
G01 X89.6203 Y58.7218 
G01 X89.7644 Y58.8266 
G01 X89.8904 Y58.9526 
G01 X89.9952 Y59.0967 
G01 X90.0761 Y59.2555 
G01 X90.1311 Y59.4249 
G01 X90.1590 Y59.6009 
G01 X90.1590 Y59.7791 
G01 X90.1311 Y59.9551 
G01 X90.0761 Y60.1245 
G01 X89.9952 Y60.2833 
G01 X89.8904 Y60.4274 
G01 X89.7644 Y60.5534 
G01 X89.6203 Y60.6582 
G01 X89.4615 Y60.7391 
G01 X89.2921 Y60.7941 
G01 X89.1161 Y60.8220 
G00 Z22.0000 
G00 X84.9886 Y19.2295 
G01 Z-0.1000 F30.00 
G01 X84.9139 Y19.2295 F50.00 
G01 X84.9139 Y20.0790 
G01 X84.8841 Y20.2290 
G01 X84.8255 Y20.3703 
G01 X84.7406 Y20.4974 
G01 X77.7556 Y27.4824 
G01 X77.6474 Y27.5906 
G01 X77.5203 Y27.6755 
G01 X77.3790 Y27.7341 
G01 X77.2290 Y27.7639 
G01 X62.2341 Y27.7639 
G01 X61.1089 Y28.8891 
G01 X61.1089 Y29.0548 
G01 X61.1793 Y29.0737 
G01 X61.2637 Y29.1224 
G01 X61.3326 Y29.1913 
G01 X61.3813 Y29.2757 
G01 X61.4065 Y29.3698 
G01 X61.4065 Y30.8752 
G01 X61.3813 Y30.9693 
G01 X61.3326 Y31.0537 
G01 X61.2637 Y31.1226 
G01 X61.1793 Y31.1713 
G01 X61.0852 Y31.1965 
G01 X59.5798 Y31.1965 
G01 X59.4857 Y31.1713 
G01 X59.4013 Y31.1226 
G01 X59.3324 Y31.0537 
G01 X59.2837 Y30.9693 
G01 X59.2585 Y30.8752 
G01 X59.2585 Y29.3698 
G01 X59.2837 Y29.2757 
G01 X59.3324 Y29.1913 
G01 X59.4013 Y29.1224 
G01 X59.4857 Y29.0737 
G01 X59.5561 Y29.0548 
G01 X59.5561 Y28.4910 
G01 X59.5859 Y28.3410 
G01 X59.6445 Y28.1997 
G01 X59.7294 Y28.0726 
G01 X61.4176 Y26.3844 
G01 X61.5447 Y26.2995 
G01 X61.6860 Y26.2409 
G01 X61.8360 Y26.2111 
G01 X76.8309 Y26.2111 
G01 X83.3611 Y19.6809 
G01 X83.3611 Y19.2295 
G01 X83.2864 Y19.2295 
G01 X83.1104 Y19.2016 
G01 X82.9410 Y19.1466 
G01 X82.7822 Y19.0657 
G01 X82.6381 Y18.9609 
G01 X82.5121 Y18.8349 
G01 X82.4073 Y18.6908 
G01 X82.3264 Y18.5320 
G01 X82.2714 Y18.3626 
G01 X82.2435 Y18.1866 
G01 X82.2435 Y18.0084 
G01 X82.2714 Y17.8324 
G01 X82.3264 Y17.6630 
G01 X82.4073 Y17.5042 
G01 X82.5121 Y17.3601 
G01 X82.6381 Y17.2341 
G01 X82.7822 Y17.1293 
G01 X82.9410 Y17.0484 
G01 X83.1104 Y16.9934 
G01 X83.2864 Y16.9655 
G01 X84.9886 Y16.9655 
G01 X85.1646 Y16.9934 
G01 X85.3340 Y17.0484 
G01 X85.4928 Y17.1293 
G01 X85.6369 Y17.2341 
G01 X85.7629 Y17.3601 
G01 X85.8677 Y17.5042 
G01 X85.9486 Y17.6630 
G01 X86.0036 Y17.8324 
G01 X86.0315 Y18.0084 
G01 X86.0315 Y18.1866 
G01 X86.0036 Y18.3626 
G01 X85.9486 Y18.5320 
G01 X85.8677 Y18.6908 
G01 X85.7629 Y18.8349 
G01 X85.6369 Y18.9609 
G01 X85.4928 Y19.0657 
G01 X85.3340 Y19.1466 
G01 X85.1646 Y19.2016 
G01 X84.9886 Y19.2295 
G00 Z22.0000 
G00 X84.9886 Y14.1495 
G01 Z-0.1000 F30.00 
G01 X83.2864 Y14.1495 F50.00 
G01 X83.1104 Y14.1216 
G01 X82.9410 Y14.0666 
G01 X82.7822 Y13.9857 
G01 X82.6381 Y13.8809 
G01 X82.5510 Y13.7939 
G01 X81.2841 Y13.7939 
G01 X77.9289 Y17.1491 
G01 X77.9289 Y20.0790 
G01 X77.8991 Y20.2290 
G01 X77.8405 Y20.3703 
G01 X77.7556 Y20.4974 
G01 X77.6474 Y20.6056 
G01 X75.7424 Y22.5106 
G01 X75.6153 Y22.5955 
G01 X75.4740 Y22.6541 
G01 X75.3240 Y22.6839 
G01 X61.5991 Y22.6839 
G01 X56.0574 Y28.2256 
G01 X55.9303 Y28.3105 
G01 X55.7890 Y28.3691 
G01 X55.6390 Y28.3989 
G01 X53.9791 Y28.3989 
G01 X53.4889 Y28.8891 
G01 X53.4889 Y29.0548 
G01 X53.5593 Y29.0737 
G01 X53.6437 Y29.1224 
G01 X53.7126 Y29.1913 
G01 X53.7613 Y29.2757 
G01 X53.7865 Y29.3698 
G01 X53.7865 Y30.8752 
G01 X53.7613 Y30.9693 
G01 X53.7126 Y31.0537 
G01 X53.6437 Y31.1226 
G01 X53.5593 Y31.1713 
G01 X53.4652 Y31.1965 
G01 X51.9598 Y31.1965 
G01 X51.8657 Y31.1713 
G01 X51.7813 Y31.1226 
G01 X51.7124 Y31.0537 
G01 X51.6637 Y30.9693 
G01 X51.6385 Y30.8752 
G01 X51.6385 Y29.3698 
G01 X51.6637 Y29.2757 
G01 X51.7124 Y29.1913 
G01 X51.7813 Y29.1224 
G01 X51.8657 Y29.0737 
G01 X51.9361 Y29.0548 
G01 X51.9361 Y28.4910 
G01 X51.9659 Y28.3410 
G01 X52.0245 Y28.1997 
G01 X52.1094 Y28.0726 
G01 X53.0544 Y27.1276 
G01 X53.1626 Y27.0194 
G01 X53.2897 Y26.9345 
G01 X53.4310 Y26.8759 
G01 X53.5810 Y26.8461 
G01 X55.2409 Y26.8461 
G01 X60.7826 Y21.3044 
G01 X60.9097 Y21.2195 
G01 X61.0510 Y21.1609 
G01 X61.2010 Y21.1311 
G01 X74.9259 Y21.1311 
G01 X76.3761 Y19.6809 
G01 X76.3761 Y16.7510 
G01 X76.4059 Y16.6010 
G01 X76.4645 Y16.4597 
G01 X76.5494 Y16.3326 
G01 X76.6576 Y16.2244 
G01 X80.3594 Y12.5226 
G01 X80.4676 Y12.4144 
G01 X80.5947 Y12.3295 
G01 X80.7360 Y12.2709 
G01 X80.8860 Y12.2411 
G01 X82.5510 Y12.2411 
G01 X82.6381 Y12.1541 
G01 X82.7822 Y12.0493 
G01 X82.9410 Y11.9684 
G01 X83.1104 Y11.9134 
G01 X83.2864 Y11.8855 
G01 X84.9886 Y11.8855 
G01 X85.1646 Y11.9134 
G01 X85.3340 Y11.9684 
G01 X85.4928 Y12.0493 
G01 X85.6369 Y12.1541 
G01 X85.7629 Y12.2801 
G01 X85.8677 Y12.4242 
G01 X85.9486 Y12.5830 
G01 X86.0036 Y12.7524 
G01 X86.0315 Y12.9284 
G01 X86.0315 Y13.1066 
G01 X86.0036 Y13.2826 
G01 X85.9486 Y13.4520 
G01 X85.8677 Y13.6108 
G01 X85.7629 Y13.7549 
G01 X85.6369 Y13.8809 
G01 X85.4928 Y13.9857 
G01 X85.3340 Y14.0666 
G01 X85.1646 Y14.1216 
G01 X84.9886 Y14.1495 
G00 Z22.0000 
G00 X38.8129 Y23.3857 
G01 Z-0.1000 F30.00 
G01 X38.8129 Y24.2393 F50.00 
G01 X38.2093 Y24.8429 
G01 X37.3557 Y24.8429 
G01 X37.1017 Y24.5889 
G01 X35.5641 Y24.5889 
G01 X32.1454 Y28.0076 
G01 X32.1454 Y28.3668 
G01 X31.5418 Y28.9704 
G01 X30.6882 Y28.9704 
G01 X30.0846 Y28.3668 
G01 X30.0846 Y27.5132 
G01 X30.6882 Y26.9096 
G01 X31.0474 Y26.9096 
G01 X34.1445 Y23.8125 
G01 X32.5251 Y22.1931 
G01 X32.4169 Y22.0849 
G01 X32.3320 Y21.9578 
G01 X32.2734 Y21.8165 
G01 X32.2436 Y21.6665 
G01 X32.2436 Y15.5616 
G01 X26.0669 Y9.3849 
G01 X25.9820 Y9.2578 
G01 X25.9234 Y9.1165 
G01 X25.8936 Y8.9665 
G01 X25.8936 Y6.6665 
G01 X25.8066 Y6.5794 
G01 X25.7018 Y6.4353 
G01 X25.6209 Y6.2765 
G01 X25.5659 Y6.1071 
G01 X25.5380 Y5.9311 
G01 X25.5380 Y4.2289 
G01 X25.5659 Y4.0529 
G01 X25.6209 Y3.8835 
G01 X25.7018 Y3.7247 
G01 X25.8066 Y3.5806 
G01 X25.9326 Y3.4546 
G01 X26.0767 Y3.3498 
G01 X26.2355 Y3.2689 
G01 X26.4049 Y3.2139 
G01 X26.5809 Y3.1860 
G01 X26.7591 Y3.1860 
G01 X26.9351 Y3.2139 
G01 X27.1045 Y3.2689 
G01 X27.2633 Y3.3498 
G01 X27.4074 Y3.4546 
G01 X27.5334 Y3.5806 
G01 X27.6382 Y3.7247 
G01 X27.7191 Y3.8835 
G01 X27.7741 Y4.0529 
G01 X27.8020 Y4.2289 
G01 X27.8020 Y5.9311 
G01 X27.7741 Y6.1071 
G01 X27.7191 Y6.2765 
G01 X27.6382 Y6.4353 
G01 X27.5334 Y6.5794 
G01 X27.4464 Y6.6665 
G01 X27.4464 Y8.5684 
G01 X33.5149 Y14.6369 
G01 X33.6231 Y14.7451 
G01 X33.7080 Y14.8722 
G01 X33.7666 Y15.0135 
G01 X33.7964 Y15.1635 
G01 X33.7964 Y21.2684 
G01 X35.5641 Y23.0361 
G01 X37.1017 Y23.0361 
G01 X37.3557 Y22.7821 
G01 X38.2093 Y22.7821 
G01 X38.8129 Y23.3857 
G00 Z22.0000 
G00 X54.4998 Y29.0485 
G01 Z-0.1000 F30.00 
G01 X56.0052 Y29.0485 F50.00 
G01 X56.0993 Y29.0737 
G01 X56.1837 Y29.1224 
G01 X56.2526 Y29.1913 
G01 X56.3013 Y29.2757 
G01 X56.3265 Y29.3698 
G01 X56.3265 Y30.8752 
G01 X56.3013 Y30.9693 
G01 X56.2526 Y31.0537 
G01 X56.1837 Y31.1226 
G01 X56.0993 Y31.1713 
G01 X56.0276 Y31.1905 
G01 X56.0196 Y31.2306 
G01 X56.0138 Y31.2779 
G01 X56.0047 Y31.3055 
G01 X55.9991 Y31.3340 
G01 X55.9809 Y31.3779 
G01 X55.9660 Y31.4231 
G01 X55.9517 Y31.4484 
G01 X55.9405 Y31.4753 
G01 X55.9141 Y31.5148 
G01 X55.8907 Y31.5562 
G01 X55.8717 Y31.5783 
G01 X55.8556 Y31.6024 
G01 X55.8219 Y31.6361 
G01 X54.8860 Y32.7228 
G01 X54.8698 Y32.7469 
G01 X54.8362 Y32.7806 
G01 X54.8051 Y32.8166 
G01 X54.7822 Y32.8345 
G01 X54.7617 Y32.8551 
G01 X54.7221 Y32.8815 
G01 X54.6846 Y32.9108 
G01 X54.6587 Y32.9239 
G01 X54.6345 Y32.9400 
G01 X54.5906 Y32.9582 
G01 X54.5481 Y32.9797 
G01 X54.5201 Y32.9874 
G01 X54.4932 Y32.9986 
G01 X54.4465 Y33.0078 
G01 X54.4007 Y33.0206 
G01 X54.3717 Y33.0227 
G01 X54.3432 Y33.0284 
G01 X54.2956 Y33.0284 
G01 X54.2482 Y33.0319 
G01 X54.2194 Y33.0284 
G01 X51.4640 Y33.0284 
G01 X51.4607 Y33.0290 
G01 X51.3876 Y33.0284 
G01 X51.3143 Y33.0284 
G01 X51.3111 Y33.0278 
G01 X51.3078 Y33.0277 
G01 X51.2362 Y33.0129 
G01 X51.1643 Y32.9986 
G01 X51.1613 Y32.9973 
G01 X51.1580 Y32.9966 
G01 X51.0907 Y32.9680 
G01 X51.0230 Y32.9400 
G01 X51.0203 Y32.9382 
G01 X51.0172 Y32.9369 
G01 X50.9567 Y32.8957 
G01 X50.8959 Y32.8551 
G01 X50.8908 Y32.8509 
G01 X50.8394 Y32.7986 
G01 X50.7877 Y32.7469 
G01 X50.7859 Y32.7442 
G01 X50.7433 Y32.6805 
G01 X50.7028 Y32.6198 
G01 X50.7015 Y32.6167 
G01 X49.8352 Y31.2962 
G01 X49.7945 Y31.2352 
G01 X49.7932 Y31.2321 
G01 X49.7914 Y31.2294 
G01 X49.7640 Y31.1616 
G01 X49.7359 Y31.0939 
G01 X49.7353 Y31.0907 
G01 X49.7341 Y31.0876 
G01 X49.7204 Y31.0156 
G01 X49.7061 Y30.9439 
G01 X49.7061 Y30.9406 
G01 X49.7055 Y30.9374 
G01 X49.7061 Y30.8642 
G01 X49.7061 Y27.5460 
G01 X49.7359 Y27.3960 
G01 X49.7945 Y27.2547 
G01 X49.8794 Y27.1276 
G01 X49.9876 Y27.0194 
G01 X57.6076 Y19.3994 
G01 X57.7347 Y19.3145 
G01 X57.8760 Y19.2559 
G01 X58.0260 Y19.2261 
G01 X73.6559 Y19.2261 
G01 X74.4711 Y18.4109 
G01 X74.4711 Y16.1160 
G01 X74.5009 Y15.9660 
G01 X74.5595 Y15.8247 
G01 X74.6444 Y15.6976 
G01 X74.7526 Y15.5894 
G01 X80.4676 Y9.8744 
G01 X80.5947 Y9.7895 
G01 X80.7360 Y9.7309 
G01 X80.8860 Y9.7011 
G01 X82.5510 Y9.7011 
G01 X82.6381 Y9.6141 
G01 X82.7822 Y9.5093 
G01 X82.9410 Y9.4284 
G01 X83.1104 Y9.3734 
G01 X83.2864 Y9.3455 
G01 X84.9886 Y9.3455 
G01 X85.1646 Y9.3734 
G01 X85.3340 Y9.4284 
G01 X85.4928 Y9.5093 
G01 X85.6369 Y9.6141 
G01 X85.7629 Y9.7401 
G01 X85.8677 Y9.8842 
G01 X85.9486 Y10.0430 
G01 X86.0036 Y10.2124 
G01 X86.0315 Y10.3884 
G01 X86.0315 Y10.5666 
G01 X86.0036 Y10.7426 
G01 X85.9486 Y10.9120 
G01 X85.8677 Y11.0708 
G01 X85.7629 Y11.2149 
G01 X85.6369 Y11.3409 
G01 X85.4928 Y11.4457 
G01 X85.3340 Y11.5266 
G01 X85.1646 Y11.5816 
G01 X84.9886 Y11.6095 
G01 X83.2864 Y11.6095 
G01 X83.1104 Y11.5816 
G01 X82.9410 Y11.5266 
G01 X82.7822 Y11.4457 
G01 X82.6381 Y11.3409 
G01 X82.5510 Y11.2539 
G01 X81.2841 Y11.2539 
G01 X76.0239 Y16.5141 
G01 X76.0239 Y18.8090 
G01 X75.9941 Y18.9590 
G01 X75.9355 Y19.1003 
G01 X75.8506 Y19.2274 
G01 X74.5806 Y20.4974 
G01 X74.4724 Y20.6056 
G01 X74.3453 Y20.6905 
G01 X74.2040 Y20.7491 
G01 X74.0540 Y20.7789 
G01 X58.4241 Y20.7789 
G01 X51.2589 Y27.9441 
G01 X51.2589 Y30.6355 
G01 X51.8100 Y31.4756 
G01 X53.9108 Y31.4756 
G01 X54.2641 Y31.0654 
G01 X54.2524 Y31.0537 
G01 X54.2037 Y30.9693 
G01 X54.1785 Y30.8752 
G01 X54.1785 Y29.3698 
G01 X54.2037 Y29.2757 
G01 X54.2524 Y29.1913 
G01 X54.3213 Y29.1224 
G01 X54.4057 Y29.0737 
G01 X54.4998 Y29.0485 
G00 Z22.0000 
G00 X58.6393 Y29.0737 
G01 Z-0.1000 F30.00 
G01 X58.7237 Y29.1224 F50.00 
G01 X58.7926 Y29.1913 
G01 X58.8413 Y29.2757 
G01 X58.8665 Y29.3698 
G01 X58.8665 Y30.8752 
G01 X58.8413 Y30.9693 
G01 X58.7926 Y31.0537 
G01 X58.7237 Y31.1226 
G01 X58.6393 Y31.1713 
G01 X58.5452 Y31.1965 
G01 X57.0398 Y31.1965 
G01 X56.9457 Y31.1713 
G01 X56.8613 Y31.1226 
G01 X56.7924 Y31.0537 
G01 X56.7437 Y30.9693 
G01 X56.7185 Y30.8752 
G01 X56.7185 Y29.3698 
G01 X56.7437 Y29.2757 
G01 X56.7924 Y29.1913 
G01 X56.8613 Y29.1224 
G01 X56.9457 Y29.0737 
G01 X57.0161 Y29.0548 
G01 X57.0161 Y27.8560 
G01 X57.0459 Y27.7060 
G01 X57.1045 Y27.5647 
G01 X57.1894 Y27.4376 
G01 X60.7826 Y23.8444 
G01 X60.9097 Y23.7595 
G01 X61.0510 Y23.7009 
G01 X61.2010 Y23.6711 
G01 X76.1959 Y23.6711 
G01 X78.9161 Y20.9509 
G01 X78.9161 Y17.3860 
G01 X78.9459 Y17.2360 
G01 X79.0045 Y17.0947 
G01 X79.0894 Y16.9676 
G01 X79.1976 Y16.8594 
G01 X81.1026 Y14.9544 
G01 X81.2297 Y14.8695 
G01 X81.3710 Y14.8109 
G01 X81.5210 Y14.7811 
G01 X82.5510 Y14.7811 
G01 X82.6381 Y14.6941 
G01 X82.7822 Y14.5893 
G01 X82.9410 Y14.5084 
G01 X83.1104 Y14.4534 
G01 X83.2864 Y14.4255 
G01 X84.9886 Y14.4255 
G01 X85.1646 Y14.4534 
G01 X85.3340 Y14.5084 
G01 X85.4928 Y14.5893 
G01 X85.6369 Y14.6941 
G01 X85.7629 Y14.8201 
G01 X85.8677 Y14.9642 
G01 X85.9486 Y15.1230 
G01 X86.0036 Y15.2924 
G01 X86.0315 Y15.4684 
G01 X86.0315 Y15.6466 
G01 X86.0036 Y15.8226 
G01 X85.9486 Y15.9920 
G01 X85.8677 Y16.1508 
G01 X85.7629 Y16.2949 
G01 X85.6369 Y16.4209 
G01 X85.4928 Y16.5257 
G01 X85.3340 Y16.6066 
G01 X85.1646 Y16.6616 
G01 X84.9886 Y16.6895 
G01 X83.2864 Y16.6895 
G01 X83.1104 Y16.6616 
G01 X82.9410 Y16.6066 
G01 X82.7822 Y16.5257 
G01 X82.6381 Y16.4209 
G01 X82.5510 Y16.3339 
G01 X81.9191 Y16.3339 
G01 X80.4689 Y17.7841 
G01 X80.4689 Y21.3490 
G01 X80.4391 Y21.4990 
G01 X80.3805 Y21.6403 
G01 X80.2956 Y21.7674 
G01 X80.1874 Y21.8756 
G01 X77.1206 Y24.9424 
G01 X77.0124 Y25.0506 
G01 X76.8853 Y25.1355 
G01 X76.7440 Y25.1941 
G01 X76.5940 Y25.2239 
G01 X61.5991 Y25.2239 
G01 X58.5689 Y28.2541 
G01 X58.5689 Y29.0548 
G01 X58.6393 Y29.0737 
G00 Z22.0000 
G00 X62.1198 Y29.0485 
G01 Z-0.1000 F30.00 
G01 X63.6252 Y29.0485 F50.00 
G01 X63.7193 Y29.0737 
G01 X63.8037 Y29.1224 
G01 X63.8726 Y29.1913 
G01 X63.9213 Y29.2757 
G01 X63.9465 Y29.3698 
G01 X63.9465 Y30.8752 
G01 X63.9213 Y30.9693 
G01 X63.8726 Y31.0537 
G01 X63.8037 Y31.1226 
G01 X63.7193 Y31.1713 
G01 X63.6252 Y31.1965 
G01 X62.1198 Y31.1965 
G01 X62.0257 Y31.1713 
G01 X61.9413 Y31.1226 
G01 X61.8724 Y31.0537 
G01 X61.8237 Y30.9693 
G01 X61.7985 Y30.8752 
G01 X61.7985 Y29.3698 
G01 X61.8237 Y29.2757 
G01 X61.8724 Y29.1913 
G01 X61.9413 Y29.1224 
G01 X62.0257 Y29.0737 
G01 X62.1198 Y29.0485 
G00 Z22.0000 
G00 X64.6598 Y29.0485 
G01 Z-0.1000 F30.00 
G01 X66.1652 Y29.0485 F50.00 
G01 X66.2593 Y29.0737 
G01 X66.3437 Y29.1224 
G01 X66.4126 Y29.1913 
G01 X66.4613 Y29.2757 
G01 X66.4865 Y29.3698 
G01 X66.4865 Y30.8752 
G01 X66.4613 Y30.9693 
G01 X66.4126 Y31.0537 
G01 X66.3437 Y31.1226 
G01 X66.2593 Y31.1713 
G01 X66.1652 Y31.1965 
G01 X64.6598 Y31.1965 
G01 X64.5657 Y31.1713 
G01 X64.4813 Y31.1226 
G01 X64.4124 Y31.0537 
G01 X64.3637 Y30.9693 
G01 X64.3385 Y30.8752 
G01 X64.3385 Y29.3698 
G01 X64.3637 Y29.2757 
G01 X64.4124 Y29.1913 
G01 X64.4813 Y29.1224 
G01 X64.5657 Y29.0737 
G01 X64.6598 Y29.0485 
G00 Z22.0000 
G00 X67.1998 Y29.0485 
G01 Z-0.1000 F30.00 
G01 X68.7052 Y29.0485 F50.00 
G01 X68.7993 Y29.0737 
G01 X68.8837 Y29.1224 
G01 X68.9526 Y29.1913 
G01 X69.0013 Y29.2757 
G01 X69.0265 Y29.3698 
G01 X69.0265 Y30.8752 
G01 X69.0013 Y30.9693 
G01 X68.9526 Y31.0537 
G01 X68.8837 Y31.1226 
G01 X68.7993 Y31.1713 
G01 X68.7052 Y31.1965 
G01 X67.1998 Y31.1965 
G01 X67.1057 Y31.1713 
G01 X67.0213 Y31.1226 
G01 X66.9524 Y31.0537 
G01 X66.9037 Y30.9693 
G01 X66.8785 Y30.8752 
G01 X66.8785 Y29.3698 
G01 X66.9037 Y29.2757 
G01 X66.9524 Y29.1913 
G01 X67.0213 Y29.1224 
G01 X67.1057 Y29.0737 
G01 X67.1998 Y29.0485 
G00 Z22.0000 
G00 X69.7398 Y29.0485 
G01 Z-0.1000 F30.00 
G01 X71.2452 Y29.0485 F50.00 
G01 X71.3393 Y29.0737 
G01 X71.4237 Y29.1224 
G01 X71.4926 Y29.1913 
G01 X71.5413 Y29.2757 
G01 X71.5665 Y29.3698 
G01 X71.5665 Y30.8752 
G01 X71.5413 Y30.9693 
G01 X71.4926 Y31.0537 
G01 X71.4237 Y31.1226 
G01 X71.3393 Y31.1713 
G01 X71.2452 Y31.1965 
G01 X69.7398 Y31.1965 
G01 X69.6457 Y31.1713 
G01 X69.5613 Y31.1226 
G01 X69.4924 Y31.0537 
G01 X69.4437 Y30.9693 
G01 X69.4185 Y30.8752 
G01 X69.4185 Y29.3698 
G01 X69.4437 Y29.2757 
G01 X69.4924 Y29.1913 
G01 X69.5613 Y29.1224 
G01 X69.6457 Y29.0737 
G01 X69.7398 Y29.0485 
G00 Z22.0000 
G00 X69.7398 Y39.2885 
G01 Z-0.1000 F30.00 
G01 X71.2452 Y39.2885 F50.00 
G01 X71.3393 Y39.3137 
G01 X71.4237 Y39.3624 
G01 X71.4926 Y39.4313 
G01 X71.5413 Y39.5157 
G01 X71.5665 Y39.6098 
G01 X71.5665 Y41.1152 
G01 X71.5413 Y41.2093 
G01 X71.4926 Y41.2937 
G01 X71.4237 Y41.3626 
G01 X71.3393 Y41.4113 
G01 X71.2452 Y41.4365 
G01 X69.7398 Y41.4365 
G01 X69.6457 Y41.4113 
G01 X69.5613 Y41.3626 
G01 X69.4924 Y41.2937 
G01 X69.4437 Y41.2093 
G01 X69.4185 Y41.1152 
G01 X69.4185 Y39.6098 
G01 X69.4437 Y39.5157 
G01 X69.4924 Y39.4313 
G01 X69.5613 Y39.3624 
G01 X69.6457 Y39.3137 
G01 X69.7398 Y39.2885 
G00 Z22.0000 
G00 X67.1998 Y39.2885 
G01 Z-0.1000 F30.00 
G01 X68.7052 Y39.2885 F50.00 
G01 X68.7993 Y39.3137 
G01 X68.8837 Y39.3624 
G01 X68.9526 Y39.4313 
G01 X69.0013 Y39.5157 
G01 X69.0265 Y39.6098 
G01 X69.0265 Y41.1152 
G01 X69.0013 Y41.2093 
G01 X68.9526 Y41.2937 
G01 X68.8837 Y41.3626 
G01 X68.7993 Y41.4113 
G01 X68.7052 Y41.4365 
G01 X67.1998 Y41.4365 
G01 X67.1057 Y41.4113 
G01 X67.0213 Y41.3626 
G01 X66.9524 Y41.2937 
G01 X66.9037 Y41.2093 
G01 X66.8785 Y41.1152 
G01 X66.8785 Y39.6098 
G01 X66.9037 Y39.5157 
G01 X66.9524 Y39.4313 
G01 X67.0213 Y39.3624 
G01 X67.1057 Y39.3137 
G01 X67.1998 Y39.2885 
G00 Z22.0000 
G00 X66.2593 Y39.3137 
G01 Z-0.1000 F30.00 
G01 X66.3437 Y39.3624 F50.00 
G01 X66.4126 Y39.4313 
G01 X66.4613 Y39.5157 
G01 X66.4865 Y39.6098 
G01 X66.4865 Y41.1152 
G01 X66.4613 Y41.2093 
G01 X66.4126 Y41.2937 
G01 X66.3437 Y41.3626 
G01 X66.2593 Y41.4113 
G01 X66.1652 Y41.4365 
G01 X64.6598 Y41.4365 
G01 X64.5657 Y41.4113 
G01 X64.4813 Y41.3626 
G01 X64.4124 Y41.2937 
G01 X64.3637 Y41.2093 
G01 X64.3385 Y41.1152 
G01 X64.3385 Y39.6098 
G01 X64.3637 Y39.5157 
G01 X64.4124 Y39.4313 
G01 X64.4813 Y39.3624 
G01 X64.5657 Y39.3137 
G01 X60.0034 Y34.7489 
G01 X48.2641 Y34.7489 
G01 X46.6406 Y36.3724 
G01 X46.5324 Y36.4806 
G01 X46.4053 Y36.5655 
G01 X46.2640 Y36.6241 
G01 X46.1140 Y36.6539 
G01 X43.5433 Y36.6539 
G01 X43.2893 Y36.9079 
G01 X42.4357 Y36.9079 
G01 X41.8321 Y36.3043 
G01 X41.8321 Y35.4507 
G01 X42.4357 Y34.8471 
G01 X43.2893 Y34.8471 
G01 X43.5433 Y35.1011 
G01 X45.7159 Y35.1011 
G01 X47.4476 Y33.3694 
G01 X47.5747 Y33.2845 
G01 X47.7160 Y33.2259 
G01 X47.8660 Y33.1961 
G01 X60.4015 Y33.1961 
G01 X60.5515 Y33.2259 
G01 X60.6928 Y33.2845 
G01 X60.8199 Y33.3694 
G01 X60.9281 Y33.4776 
G01 X66.0156 Y38.5651 
G01 X66.1005 Y38.6922 
G01 X66.1591 Y38.8335 
G01 X66.1889 Y38.9835 
G01 X66.1889 Y39.2948 
G01 X66.2593 Y39.3137 
G00 Z22.0000 
G00 X61.2637 Y39.3624 
G01 Z-0.1000 F30.00 
G01 X61.3326 Y39.4313 F50.00 
G01 X61.3813 Y39.5157 
G01 X61.4065 Y39.6098 
G01 X61.4065 Y40.9408 
G01 X61.4455 Y40.9567 
G01 X61.4841 Y40.9698 
G01 X61.5018 Y40.9800 
G01 X61.5207 Y40.9878 
G01 X61.5546 Y41.0104 
G01 X61.5898 Y41.0308 
G01 X61.6052 Y41.0443 
G01 X61.6222 Y41.0556 
G01 X61.6510 Y41.0845 
G01 X61.6817 Y41.1113 
G01 X61.6941 Y41.1276 
G01 X61.7086 Y41.1420 
G01 X61.7312 Y41.1759 
G01 X61.7560 Y41.2082 
G01 X61.7651 Y41.2266 
G01 X61.7764 Y41.2436 
G01 X61.7920 Y41.2812 
G01 X61.8085 Y41.3146 
G01 X61.9249 Y41.4310 
G01 X62.0830 Y41.4965 
G01 X63.6620 Y41.4965 
G01 X63.8488 Y41.4191 
G01 X63.9616 Y41.3724 
G01 X64.0563 Y41.3536 
G01 X64.0814 Y41.3486 
G01 X64.2036 Y41.3486 
G01 X64.3233 Y41.3724 
G01 X64.6230 Y41.4965 
G01 X66.2020 Y41.4965 
G01 X66.5016 Y41.3724 
G01 X66.6214 Y41.3486 
G01 X66.7436 Y41.3486 
G01 X66.7660 Y41.3530 
G01 X66.8633 Y41.3724 
G01 X66.9762 Y41.4191 
G01 X67.1630 Y41.4965 
G01 X68.7420 Y41.4965 
G01 X69.0417 Y41.3724 
G01 X69.1614 Y41.3486 
G01 X69.2836 Y41.3486 
G01 X69.3060 Y41.3530 
G01 X69.4033 Y41.3724 
G01 X69.5162 Y41.4191 
G01 X69.7030 Y41.4965 
G01 X71.2820 Y41.4965 
G01 X71.4401 Y41.4310 
G01 X71.5610 Y41.3101 
G01 X71.6265 Y41.1520 
G01 X71.6265 Y39.5730 
G01 X71.5610 Y39.4149 
G01 X71.4401 Y39.2940 
G01 X71.2820 Y39.2285 
G01 X69.7030 Y39.2285 
G01 X69.5162 Y39.3059 
G01 X69.4033 Y39.3526 
G01 X69.3087 Y39.3714 
G01 X69.2836 Y39.3764 
G01 X69.1614 Y39.3764 
G01 X69.0417 Y39.3526 
G01 X68.7420 Y39.2285 
G01 X67.1630 Y39.2285 
G01 X67.0175 Y39.2887 
G01 X66.8978 Y39.3126 
G01 X66.7756 Y39.3126 
G01 X66.6558 Y39.2887 
G01 X66.5463 Y39.2433 
G01 X66.5430 Y39.2420 
G01 X66.4415 Y39.1741 
G01 X66.3551 Y39.0878 
G01 X66.2882 Y38.9876 
G01 X66.2405 Y38.8734 
G01 X66.1216 Y38.5862 
G01 X61.0781 Y33.5427 
G01 X60.7988 Y33.2634 
G01 X60.4914 Y33.1361 
G01 X55.9845 Y33.1361 
G01 X55.9466 Y33.1389 
G01 X55.9235 Y33.1361 
G01 X55.9003 Y33.1361 
G01 X55.8631 Y33.1287 
G01 X55.8254 Y33.1241 
G01 X55.8033 Y33.1168 
G01 X55.7806 Y33.1123 
G01 X55.7454 Y33.0977 
G01 X55.7094 Y33.0858 
G01 X55.6892 Y33.0744 
G01 X55.6677 Y33.0655 
G01 X55.6361 Y33.0444 
G01 X55.6031 Y33.0257 
G01 X55.5855 Y33.0106 
G01 X55.5662 Y32.9977 
G01 X55.5393 Y32.9708 
G01 X55.5105 Y32.9460 
G01 X55.4962 Y32.9277 
G01 X55.4798 Y32.9113 
G01 X55.4587 Y32.8797 
G01 X55.4353 Y32.8498 
G01 X55.4249 Y32.8291 
G01 X55.4120 Y32.8098 
G01 X55.3974 Y32.7747 
G01 X55.3803 Y32.7407 
G01 X55.3741 Y32.7184 
G01 X55.3652 Y32.6969 
G01 X55.3578 Y32.6597 
G01 X55.3477 Y32.6231 
G01 X55.3459 Y32.5999 
G01 X55.3414 Y32.5772 
G01 X55.3414 Y32.5392 
G01 X55.3386 Y32.5013 
G01 X55.3414 Y32.4782 
G01 X55.3414 Y32.4550 
G01 X55.3488 Y32.4178 
G01 X55.3534 Y32.3801 
G01 X55.3607 Y32.3580 
G01 X55.3652 Y32.3353 
G01 X55.3798 Y32.3001 
G01 X55.3917 Y32.2641 
G01 X55.4031 Y32.2439 
G01 X55.4120 Y32.2224 
G01 X55.4331 Y32.1908 
G01 X55.4518 Y32.1578 
G01 X55.4669 Y32.1402 
G01 X55.4798 Y32.1209 
G01 X55.5067 Y32.0940 
G01 X55.8262 Y31.7231 
G01 X55.8391 Y31.7038 
G01 X55.8660 Y31.6769 
G01 X55.8907 Y31.6481 
G01 X55.9090 Y31.6338 
G01 X55.9661 Y31.5768 
G01 X55.9802 Y31.5556 
G01 X55.9928 Y31.5333 
G01 X56.0045 Y31.4979 
G01 X56.0159 Y31.4777 
G01 X56.0248 Y31.4563 
G01 X56.0459 Y31.4247 
G01 X56.0646 Y31.3916 
G01 X56.0797 Y31.3741 
G01 X56.0926 Y31.3548 
G01 X56.1195 Y31.3279 
G01 X56.1443 Y31.2991 
G01 X56.1626 Y31.2848 
G01 X56.1790 Y31.2684 
G01 X56.2106 Y31.2473 
G01 X56.2405 Y31.2239 
G01 X56.2612 Y31.2134 
G01 X56.2805 Y31.2005 
G01 X56.3156 Y31.1860 
G01 X56.3496 Y31.1689 
G01 X56.3719 Y31.1627 
G01 X56.3934 Y31.1538 
G01 X56.4306 Y31.1464 
G01 X56.4672 Y31.1362 
G01 X56.4904 Y31.1345 
G01 X56.5132 Y31.1300 
G01 X56.5511 Y31.1300 
G01 X56.5890 Y31.1272 
G01 X56.6121 Y31.1300 
G01 X56.6353 Y31.1300 
G01 X56.6725 Y31.1374 
G01 X56.7103 Y31.1420 
G01 X56.7323 Y31.1493 
G01 X56.7551 Y31.1538 
G01 X56.7902 Y31.1683 
G01 X56.8263 Y31.1802 
G01 X56.8465 Y31.1917 
G01 X57.0030 Y31.2565 
G01 X58.5820 Y31.2565 
G01 X58.7688 Y31.1791 
G01 X58.8816 Y31.1324 
G01 X58.9763 Y31.1136 
G01 X59.0014 Y31.1086 
G01 X59.1236 Y31.1086 
G01 X59.2433 Y31.1324 
G01 X59.5430 Y31.2565 
G01 X61.1220 Y31.2565 
G01 X61.3088 Y31.1791 
G01 X61.4216 Y31.1324 
G01 X61.5163 Y31.1136 
G01 X61.5414 Y31.1086 
G01 X61.6636 Y31.1086 
G01 X61.7833 Y31.1324 
G01 X62.0830 Y31.2565 
G01 X63.6620 Y31.2565 
G01 X63.8488 Y31.1791 
G01 X63.9616 Y31.1324 
G01 X64.0563 Y31.1136 
G01 X64.0814 Y31.1086 
G01 X64.2036 Y31.1086 
G01 X64.3233 Y31.1324 
G01 X64.6230 Y31.2565 
G01 X66.2020 Y31.2565 
G01 X66.3888 Y31.1791 
G01 X66.5016 Y31.1324 
G01 X66.5963 Y31.1136 
G01 X66.6214 Y31.1086 
G01 X66.7436 Y31.1086 
G01 X66.8633 Y31.1324 
G01 X67.1630 Y31.2565 
G01 X68.7420 Y31.2565 
G01 X68.9288 Y31.1791 
G01 X69.0416 Y31.1324 
G01 X69.1363 Y31.1136 
G01 X69.1614 Y31.1086 
G01 X69.2836 Y31.1086 
G01 X69.4033 Y31.1324 
G01 X69.7030 Y31.2565 
G01 X71.2820 Y31.2565 
G01 X71.4401 Y31.1910 
G01 X71.5610 Y31.0701 
G01 X71.6265 Y30.9120 
G01 X71.6265 Y29.3330 
G01 X71.5610 Y29.1749 
G01 X71.4401 Y29.0540 
G01 X71.4065 Y29.0401 
G01 X71.3129 Y29.0013 
G01 X71.2937 Y28.9933 
G01 X71.1921 Y28.9255 
G01 X71.1058 Y28.8391 
G01 X71.0379 Y28.7376 
G01 X70.9912 Y28.6247 
G01 X70.9674 Y28.5050 
G01 X70.9674 Y28.3828 
G01 X70.9912 Y28.2630 
G01 X71.0324 Y28.1635 
G01 X71.0379 Y28.1502 
G01 X71.1058 Y28.0487 
G01 X71.1921 Y27.9623 
G01 X71.2937 Y27.8945 
G01 X71.4065 Y27.8477 
G01 X71.5263 Y27.8239 
G01 X77.3189 Y27.8239 
G01 X77.6263 Y27.6966 
G01 X77.9919 Y27.3309 
G01 X84.8466 Y20.4763 
G01 X84.9739 Y20.1689 
G01 X84.9739 Y19.7101 
G01 X84.9977 Y19.5903 
G01 X85.0445 Y19.4775 
G01 X85.1123 Y19.3759 
G01 X85.1987 Y19.2896 
G01 X85.2337 Y19.2662 
G01 X85.3002 Y19.2217 
G01 X85.3988 Y19.1809 
G01 X85.4130 Y19.1750 
G01 X85.5624 Y19.1131 
G01 X85.6753 Y19.0664 
G01 X85.7933 Y19.0429 
G01 X85.9172 Y19.0426 
G01 X86.0369 Y19.0664 
G01 X86.1498 Y19.1131 
G01 X86.2513 Y19.1810 
G01 X86.3363 Y19.2660 
G01 X86.3593 Y19.2997 
G01 X86.4055 Y19.3689 
G01 X86.4255 Y19.4170 
G01 X86.4523 Y19.4817 
G01 X86.4758 Y19.5998 
G01 X86.4761 Y46.7653 
G01 X86.4523 Y46.8851 
G01 X86.4055 Y46.9979 
G01 X86.3377 Y47.0995 
G01 X86.2513 Y47.1858 
G01 X85.1995 Y48.2377 
G01 X85.0979 Y48.3055 
G01 X84.9851 Y48.3523 
G01 X84.8653 Y48.3761 
G01 X63.0897 Y48.3761 
G01 X62.9699 Y48.3523 
G01 X62.8571 Y48.3055 
G01 X62.7555 Y48.2377 
G01 X62.6692 Y48.1513 
G01 X58.7673 Y44.2495 
G01 X58.6995 Y44.1479 
G01 X58.6527 Y44.0351 
G01 X58.6289 Y43.9153 
G01 X58.6289 Y41.7379 
G01 X58.6381 Y41.6916 
G01 X58.6527 Y41.6182 
G01 X58.6995 Y41.5053 
G01 X58.7214 Y41.4725 
G01 X58.7673 Y41.4038 
G01 X58.8537 Y41.3174 
G01 X58.8565 Y41.3146 
G01 X58.8730 Y41.2812 
G01 X58.8886 Y41.2436 
G01 X58.8999 Y41.2266 
G01 X58.9090 Y41.2082 
G01 X58.9338 Y41.1759 
G01 X58.9564 Y41.1420 
G01 X58.9709 Y41.1276 
G01 X58.9833 Y41.1113 
G01 X59.0140 Y41.0845 
G01 X59.0428 Y41.0556 
G01 X59.0598 Y41.0443 
G01 X59.0752 Y41.0308 
G01 X59.1104 Y41.0104 
G01 X59.1443 Y40.9878 
G01 X59.1632 Y40.9800 
G01 X59.1809 Y40.9698 
G01 X59.2195 Y40.9567 
G01 X59.2572 Y40.9411 
G01 X59.2585 Y39.7842 
G01 X59.2195 Y39.7683 
G01 X59.1809 Y39.7552 
G01 X59.1632 Y39.7450 
G01 X59.1443 Y39.7372 
G01 X59.1104 Y39.7145 
G01 X59.0752 Y39.6942 
G01 X59.0598 Y39.6807 
G01 X59.0428 Y39.6693 
G01 X59.0140 Y39.6405 
G01 X58.9833 Y39.6137 
G01 X58.9709 Y39.5974 
G01 X58.9564 Y39.5830 
G01 X58.9338 Y39.5491 
G01 X58.9090 Y39.5168 
G01 X58.8999 Y39.4984 
G01 X58.8886 Y39.4814 
G01 X58.8730 Y39.4438 
G01 X58.8565 Y39.4104 
G01 X58.7392 Y39.2931 
G01 X58.7110 Y39.2649 
G01 X58.6529 Y39.2068 
G01 X58.5850 Y39.1052 
G01 X58.5687 Y39.0658 
G01 X58.5383 Y38.9924 
G01 X58.5016 Y38.9037 
G01 X57.7308 Y38.1330 
G01 X57.6445 Y38.0466 
G01 X57.5775 Y37.9464 
G01 X57.5299 Y37.8322 
G01 X57.5061 Y37.7125 
G01 X57.5061 Y37.5903 
G01 X57.5285 Y37.4773 
G01 X57.5299 Y37.4705 
G01 X57.5766 Y37.3577 
G01 X57.6445 Y37.2562 
G01 X57.7308 Y37.1698 
G01 X57.8310 Y37.1029 
G01 X57.9452 Y37.0552 
G01 X58.0650 Y37.0314 
G01 X59.1478 Y37.0314 
G01 X59.2676 Y37.0552 
G01 X59.3804 Y37.1020 
G01 X59.4820 Y37.1698 
G01 X59.5683 Y37.2562 
G01 X60.9851 Y38.6729 
G01 X61.0714 Y38.7593 
G01 X61.1384 Y38.8595 
G01 X61.1860 Y38.9736 
G01 X61.2098 Y39.0934 
G01 X61.2098 Y39.2156 
G01 X61.1892 Y39.3194 
G01 X61.2637 Y39.3624 
G00 Z22.0000 
G00 X51.9598 Y39.2885 
G01 Z-0.1000 F30.00 
G01 X53.4652 Y39.2885 F50.00 
G01 X53.5593 Y39.3137 
G01 X53.6437 Y39.3624 
G01 X53.7126 Y39.4313 
G01 X53.7613 Y39.5157 
G01 X53.7865 Y39.6098 
G01 X53.7865 Y41.1152 
G01 X53.7613 Y41.2093 
G01 X53.7126 Y41.2937 
G01 X53.6437 Y41.3626 
G01 X53.5593 Y41.4113 
G01 X53.4652 Y41.4365 
G01 X51.9598 Y41.4365 
G01 X51.8657 Y41.4113 
G01 X51.7813 Y41.3626 
G01 X51.7124 Y41.2937 
G01 X51.6637 Y41.2093 
G01 X51.6385 Y41.1152 
G01 X51.6385 Y39.6098 
G01 X51.6637 Y39.5157 
G01 X51.7124 Y39.4313 
G01 X51.7813 Y39.3624 
G01 X51.8657 Y39.3137 
G01 X51.9598 Y39.2885 
G00 Z22.0000 
G00 X54.4161 Y44.4235 
G01 Z-0.1000 F30.00 
G01 X54.4116 Y44.4460 F50.00 
G01 X54.3923 Y44.5433 
G01 X54.3455 Y44.6561 
G01 X54.2777 Y44.7576 
G01 X54.1913 Y44.8440 
G01 X54.1221 Y44.8902 
G01 X54.0898 Y44.9119 
G01 X54.0250 Y44.9387 
G01 X53.9769 Y44.9586 
G01 X53.8572 Y44.9824 
G01 X53.7350 Y44.9824 
G01 X53.7126 Y44.9779 
G01 X53.6153 Y44.9586 
G01 X53.5024 Y44.9119 
G01 X53.4009 Y44.8440 
G01 X53.3145 Y44.7576 
G01 X53.2683 Y44.6884 
G01 X53.2467 Y44.6561 
G01 X53.2111 Y44.5701 
G01 X53.1999 Y44.5433 
G01 X53.0966 Y44.2937 
G01 X51.3984 Y42.5956 
G01 X51.3520 Y42.5491 
G01 X51.3121 Y42.5093 
G01 X51.2785 Y42.4590 
G01 X51.2442 Y42.4077 
G01 X51.2228 Y42.3559 
G01 X51.1975 Y42.2949 
G01 X51.1867 Y42.2407 
G01 X51.1737 Y42.1751 
G01 X51.1737 Y42.1141 
G01 X51.1737 Y42.0530 
G01 X51.1853 Y41.9947 
G01 X51.1975 Y41.9332 
G01 X51.2168 Y41.8867 
G01 X51.2249 Y41.8671 
G01 X51.1963 Y41.8790 
G01 X51.1504 Y41.8980 
G01 X51.0904 Y41.9099 
G01 X51.0306 Y41.9218 
G01 X50.9702 Y41.9218 
G01 X50.9084 Y41.9218 
G01 X50.8227 Y41.9048 
G01 X50.7887 Y41.8980 
G01 X50.7180 Y41.8687 
G01 X50.6758 Y41.8513 
G01 X50.3314 Y41.7086 
G01 X48.8044 Y41.7086 
G01 X48.6846 Y41.6848 
G01 X48.5718 Y41.6380 
G01 X48.4703 Y41.5702 
G01 X48.3839 Y41.4838 
G01 X48.3161 Y41.3823 
G01 X48.2693 Y41.2694 
G01 X48.2455 Y41.1497 
G01 X48.2455 Y40.7631 
G01 X48.2693 Y40.6433 
G01 X48.3161 Y40.5305 
G01 X48.3839 Y40.4289 
G01 X48.4703 Y40.3426 
G01 X49.7380 Y39.0748 
G01 X49.8396 Y39.0070 
G01 X49.9524 Y38.9602 
G01 X49.9592 Y38.9589 
G01 X50.0722 Y38.9364 
G01 X51.0196 Y38.9364 
G01 X51.1393 Y38.9602 
G01 X51.2522 Y39.0070 
G01 X51.3537 Y39.0748 
G01 X51.4401 Y39.1612 
G01 X51.5079 Y39.2627 
G01 X51.5547 Y39.3755 
G01 X51.5785 Y39.4953 
G01 X51.5785 Y41.1856 
G01 X51.5895 Y41.2407 
G01 X51.5895 Y41.3011 
G01 X51.5895 Y41.3629 
G01 X51.5724 Y41.4486 
G01 X51.5656 Y41.4826 
G01 X51.5388 Y41.5474 
G01 X51.5518 Y41.5432 
G01 X51.6128 Y41.5179 
G01 X51.6670 Y41.5071 
G01 X51.7326 Y41.4940 
G01 X51.7937 Y41.4940 
G01 X51.8547 Y41.4940 
G01 X51.8672 Y41.4965 
G01 X53.5020 Y41.4965 
G01 X53.5697 Y41.4685 
G01 X53.6152 Y41.4496 
G01 X53.6622 Y41.4403 
G01 X53.7350 Y41.4258 
G01 X53.8572 Y41.4258 
G01 X53.9511 Y41.4445 
G01 X53.9769 Y41.4496 
G01 X54.0284 Y41.4709 
G01 X54.0898 Y41.4963 
G01 X54.1913 Y41.5642 
G01 X54.2763 Y41.6492 
G01 X54.3443 Y41.7503 
G01 X54.3804 Y41.8362 
G01 X54.3923 Y41.8649 
G01 X54.4016 Y41.9119 
G01 X54.4161 Y41.9847 
G01 X54.4161 Y44.4235 
G00 Z22.0000 
G00 X80.5289 Y18.0047 
G01 Z-0.1000 F30.00 
G01 X80.5527 Y17.8849 F50.00 
G01 X80.5995 Y17.7721 
G01 X80.6673 Y17.6705 
G01 X80.7537 Y17.5842 
G01 X81.2290 Y17.1088 
G01 X81.2686 Y17.0824 
G01 X81.3306 Y17.0410 
G01 X81.4434 Y16.9942 
G01 X81.4826 Y16.9864 
G01 X81.5632 Y16.9704 
G01 X81.6853 Y16.9704 
G01 X81.7555 Y16.9843 
G01 X81.8051 Y16.9942 
G01 X81.8311 Y17.0050 
G01 X81.9179 Y17.0410 
G01 X82.0195 Y17.1088 
G01 X82.1058 Y17.1952 
G01 X82.1323 Y17.2348 
G01 X82.1737 Y17.2967 
G01 X82.2204 Y17.4095 
G01 X82.2282 Y17.4487 
G01 X82.2443 Y17.5293 
G01 X82.2443 Y17.6515 
G01 X82.2303 Y17.7216 
G01 X82.2204 Y17.7712 
G01 X82.2022 Y17.8153 
G01 X82.1835 Y17.8604 
G01 X82.1835 Y18.3346 
G01 X82.3650 Y18.7727 
G01 X82.7003 Y19.1080 
G01 X82.7118 Y19.1128 
G01 X82.8120 Y19.1797 
G01 X82.8983 Y19.2656 
G01 X82.9396 Y19.3268 
G01 X82.9675 Y19.3685 
G01 X83.0143 Y19.4814 
G01 X83.0285 Y19.5528 
G01 X83.0381 Y19.6011 
G01 X83.0381 Y19.7233 
G01 X83.0186 Y19.8215 
G01 X83.0143 Y19.8431 
G01 X82.9841 Y19.9158 
G01 X82.9676 Y19.9559 
G01 X82.9006 Y20.0561 
G01 X82.8147 Y20.1425 
G01 X81.5441 Y21.4130 
G01 X81.4426 Y21.4809 
G01 X81.3297 Y21.5276 
G01 X81.2100 Y21.5514 
G01 X81.0878 Y21.5514 
G01 X80.9680 Y21.5276 
G01 X80.8552 Y21.4809 
G01 X80.7537 Y21.4130 
G01 X80.6673 Y21.3267 
G01 X80.5995 Y21.2251 
G01 X80.5527 Y21.1123 
G01 X80.5289 Y20.9925 
G01 X80.5289 Y20.8704 
G01 X80.5289 Y18.0047 
G00 Z22.0000 
G00 X67.1513 Y28.9933 
G01 Z-0.1000 F30.00 
G01 X67.0870 Y29.0200 F50.00 
G01 X67.0385 Y29.0401 
G01 X66.9588 Y29.0731 
G01 X66.8633 Y29.1126 
G01 X66.7436 Y29.1364 
G01 X66.6214 Y29.1364 
G01 X66.5839 Y29.1290 
G01 X66.5016 Y29.1126 
G01 X66.3265 Y29.0401 
G01 X66.2183 Y28.9953 
G01 X66.2137 Y28.9933 
G01 X66.1121 Y28.9255 
G01 X66.0258 Y28.8391 
G01 X65.9588 Y28.7389 
G01 X65.9112 Y28.6247 
G01 X65.8874 Y28.5050 
G01 X65.8874 Y28.3828 
G01 X65.9099 Y28.2698 
G01 X65.9112 Y28.2630 
G01 X65.9579 Y28.1502 
G01 X66.0258 Y28.0487 
G01 X66.1121 Y27.9623 
G01 X66.2123 Y27.8954 
G01 X66.3265 Y27.8477 
G01 X66.4463 Y27.8239 
G01 X66.9187 Y27.8239 
G01 X66.9412 Y27.8284 
G01 X67.0385 Y27.8477 
G01 X67.1513 Y27.8945 
G01 X67.2004 Y27.9273 
G01 X67.2528 Y27.9623 
G01 X67.3392 Y28.0487 
G01 X67.4071 Y28.1502 
G01 X67.4260 Y28.1960 
G01 X67.4538 Y28.2630 
G01 X67.4776 Y28.3828 
G01 X67.4776 Y28.5050 
G01 X67.4731 Y28.5274 
G01 X67.4538 Y28.6247 
G01 X67.4071 Y28.7376 
G01 X67.3743 Y28.7867 
G01 X67.3392 Y28.8391 
G01 X67.2528 Y28.9255 
G01 X67.1513 Y28.9933 
G00 Z22.0000 
G00 X68.5577 Y57.0405 
G01 Z-0.1000 F30.00 
G01 X68.6255 Y57.1421 F50.00 
G01 X68.6723 Y57.2549 
G01 X68.6961 Y57.3747 
G01 X68.6961 Y58.7886 
G01 X68.6723 Y58.9084 
G01 X68.6255 Y59.0212 
G01 X68.5577 Y59.1228 
G01 X68.4713 Y59.2091 
G01 X68.4421 Y59.2383 
G01 X68.4421 Y60.1417 
G01 X68.5925 Y60.2920 
G01 X68.6752 Y60.3748 
G01 X68.6788 Y60.3784 
G01 X68.7004 Y60.4107 
G01 X68.7467 Y60.4799 
G01 X68.7666 Y60.5280 
G01 X68.7934 Y60.5928 
G01 X68.8169 Y60.7108 
G01 X68.8172 Y60.8347 
G01 X68.7934 Y60.9544 
G01 X68.7467 Y61.0673 
G01 X68.6788 Y61.1688 
G01 X68.5938 Y61.2538 
G01 X68.5601 Y61.2768 
G01 X68.4909 Y61.3230 
G01 X68.4428 Y61.3430 
G01 X68.3781 Y61.3698 
G01 X68.2600 Y61.3933 
G01 X67.8522 Y61.3936 
G01 X67.7324 Y61.3698 
G01 X67.6196 Y61.3230 
G01 X67.5180 Y61.2552 
G01 X67.4317 Y61.1688 
G01 X53.3623 Y47.0995 
G01 X53.2945 Y46.9979 
G01 X53.2477 Y46.8851 
G01 X53.2239 Y46.7653 
G01 X53.2239 Y46.0715 
G01 X53.2284 Y46.0490 
G01 X53.2477 Y45.9517 
G01 X53.2945 Y45.8389 
G01 X53.3623 Y45.7374 
G01 X53.4487 Y45.6510 
G01 X53.5179 Y45.6048 
G01 X53.5502 Y45.5831 
G01 X53.6150 Y45.5563 
G01 X53.6630 Y45.5364 
G01 X53.7828 Y45.5126 
G01 X53.9050 Y45.5126 
G01 X53.9274 Y45.5171 
G01 X54.0247 Y45.5364 
G01 X54.1376 Y45.5831 
G01 X54.2391 Y45.6510 
G01 X54.3255 Y45.7374 
G01 X54.3717 Y45.8066 
G01 X54.3933 Y45.8389 
G01 X54.4289 Y45.9249 
G01 X54.4401 Y45.9517 
G01 X54.5434 Y46.2013 
G01 X63.2955 Y54.9534 
G01 X63.6612 Y55.3191 
G01 X63.9686 Y55.4464 
G01 X66.7678 Y55.4464 
G01 X66.8876 Y55.4702 
G01 X67.0004 Y55.5170 
G01 X67.1020 Y55.5848 
G01 X67.1883 Y55.6712 
G01 X68.5577 Y57.0405 
G00 Z22.0000 
G00 X51.6111 Y45.0891 
G01 Z-0.1000 F30.00 
G01 X49.8434 Y43.3214 F50.00 
G01 X48.0839 Y43.3214 
G01 X48.0839 Y45.0860 
G01 X48.1709 Y45.1731 
G01 X48.2757 Y45.3172 
G01 X48.3566 Y45.4760 
G01 X48.4116 Y45.6454 
G01 X48.4395 Y45.8214 
G01 X48.4395 Y47.5236 
G01 X48.4116 Y47.6996 
G01 X48.3566 Y47.8690 
G01 X48.2757 Y48.0278 
G01 X48.1709 Y48.1719 
G01 X48.0449 Y48.2979 
G01 X47.9008 Y48.4027 
G01 X47.7420 Y48.4836 
G01 X47.5726 Y48.5386 
G01 X47.3966 Y48.5665 
G01 X47.2184 Y48.5665 
G01 X47.0424 Y48.5386 
G01 X46.8730 Y48.4836 
G01 X46.7142 Y48.4027 
G01 X46.5701 Y48.2979 
G01 X46.4441 Y48.1719 
G01 X46.3393 Y48.0278 
G01 X46.2584 Y47.8690 
G01 X46.2034 Y47.6996 
G01 X46.1755 Y47.5236 
G01 X46.1755 Y45.8214 
G01 X46.2034 Y45.6454 
G01 X46.2584 Y45.4760 
G01 X46.3393 Y45.3172 
G01 X46.4441 Y45.1731 
G01 X46.5311 Y45.0860 
G01 X46.5311 Y43.2258 
G01 X46.2771 Y42.9718 
G01 X46.2771 Y42.1182 
G01 X46.4295 Y41.9658 
G01 X46.4295 Y40.2360 
G01 X46.4632 Y40.0664 
G01 X46.5294 Y39.9066 
G01 X46.6255 Y39.7628 
G01 X46.7478 Y39.6405 
G01 X46.8916 Y39.5444 
G01 X47.0514 Y39.4782 
G01 X47.0543 Y39.4777 
G01 X49.0351 Y37.4969 
G01 X49.1622 Y37.4120 
G01 X49.3035 Y37.3534 
G01 X49.4535 Y37.3236 
G01 X56.5915 Y37.3236 
G01 X56.7415 Y37.3534 
G01 X56.8828 Y37.4120 
G01 X57.0099 Y37.4969 
G01 X57.1181 Y37.6051 
G01 X58.3956 Y38.8826 
G01 X58.4805 Y39.0097 
G01 X58.5391 Y39.1510 
G01 X58.5676 Y39.2945 
G01 X58.6393 Y39.3137 
G01 X58.7237 Y39.3624 
G01 X58.7926 Y39.4313 
G01 X58.8413 Y39.5157 
G01 X58.8665 Y39.6098 
G01 X58.8665 Y41.1152 
G01 X58.8413 Y41.2093 
G01 X58.7926 Y41.2937 
G01 X58.7237 Y41.3626 
G01 X58.6393 Y41.4113 
G01 X58.5689 Y41.4302 
G01 X58.5689 Y44.1359 
G01 X62.8691 Y48.4361 
G01 X85.0859 Y48.4361 
G01 X86.5361 Y46.9859 
G01 X86.5361 Y8.8941 
G01 X86.3559 Y8.7139 
G01 X85.7240 Y8.7139 
G01 X85.6369 Y8.8009 
G01 X85.4928 Y8.9057 
G01 X85.3340 Y8.9866 
G01 X85.1646 Y9.0416 
G01 X84.9886 Y9.0695 
G01 X83.2864 Y9.0695 
G01 X83.1104 Y9.0416 
G01 X82.9410 Y8.9866 
G01 X82.7822 Y8.9057 
G01 X82.6381 Y8.8009 
G01 X82.5121 Y8.6749 
G01 X82.4073 Y8.5308 
G01 X82.3264 Y8.3720 
G01 X82.2714 Y8.2026 
G01 X82.2435 Y8.0266 
G01 X82.2435 Y7.8484 
G01 X82.2714 Y7.6724 
G01 X82.3264 Y7.5030 
G01 X82.4073 Y7.3442 
G01 X82.5121 Y7.2001 
G01 X82.6381 Y7.0741 
G01 X82.7822 Y6.9693 
G01 X82.9410 Y6.8884 
G01 X83.1104 Y6.8334 
G01 X83.2864 Y6.8055 
G01 X84.9886 Y6.8055 
G01 X85.1646 Y6.8334 
G01 X85.3340 Y6.8884 
G01 X85.4928 Y6.9693 
G01 X85.6369 Y7.0741 
G01 X85.7240 Y7.1611 
G01 X86.7540 Y7.1611 
G01 X86.9040 Y7.1909 
G01 X87.0453 Y7.2495 
G01 X87.1724 Y7.3344 
G01 X87.8074 Y7.9694 
G01 X87.9156 Y8.0776 
G01 X88.0005 Y8.2047 
G01 X88.0591 Y8.3460 
G01 X88.0889 Y8.4960 
G01 X88.0889 Y47.3840 
G01 X88.0591 Y47.5340 
G01 X88.0005 Y47.6753 
G01 X87.9156 Y47.8024 
G01 X87.8074 Y47.9106 
G01 X86.0106 Y49.7074 
G01 X85.9024 Y49.8156 
G01 X85.7753 Y49.9005 
G01 X85.6340 Y49.9591 
G01 X85.4840 Y49.9889 
G01 X62.4710 Y49.9889 
G01 X62.3210 Y49.9591 
G01 X62.1797 Y49.9005 
G01 X62.0526 Y49.8156 
G01 X57.1894 Y44.9524 
G01 X57.1045 Y44.8253 
G01 X57.0459 Y44.6840 
G01 X57.0161 Y44.5340 
G01 X57.0161 Y41.4302 
G01 X56.9457 Y41.4113 
G01 X56.8613 Y41.3626 
G01 X56.7924 Y41.2937 
G01 X56.7437 Y41.2093 
G01 X56.7185 Y41.1152 
G01 X56.7185 Y39.6098 
G01 X56.7437 Y39.5157 
G01 X56.7763 Y39.4593 
G01 X56.1934 Y38.8764 
G01 X49.8516 Y38.8764 
G01 X48.1855 Y40.5425 
G01 X48.1855 Y41.7686 
G01 X50.2415 Y41.7686 
G01 X50.3915 Y41.7984 
G01 X50.5328 Y41.8570 
G01 X50.6599 Y41.9419 
G01 X52.9906 Y44.2726 
G01 X53.0755 Y44.3997 
G01 X53.1341 Y44.5410 
G01 X53.1639 Y44.6910 
G01 X53.1639 Y46.9859 
G01 X67.6316 Y61.4536 
G01 X86.6785 Y61.4536 
G01 X86.7656 Y61.3666 
G01 X86.9097 Y61.2618 
G01 X87.0685 Y61.1809 
G01 X87.2379 Y61.1259 
G01 X87.4139 Y61.0980 
G01 X89.1161 Y61.0980 
G01 X89.2921 Y61.1259 
G01 X89.4615 Y61.1809 
G01 X89.6203 Y61.2618 
G01 X89.7644 Y61.3666 
G01 X89.8904 Y61.4926 
G01 X89.9952 Y61.6367 
G01 X90.0761 Y61.7955 
G01 X90.1311 Y61.9649 
G01 X90.1590 Y62.1409 
G01 X90.1590 Y62.3191 
G01 X90.1311 Y62.4951 
G01 X90.0761 Y62.6645 
G01 X89.9952 Y62.8233 
G01 X89.8904 Y62.9674 
G01 X89.7644 Y63.0934 
G01 X89.6203 Y63.1982 
G01 X89.4615 Y63.2791 
G01 X89.2921 Y63.3341 
G01 X89.1161 Y63.3620 
G01 X87.4139 Y63.3620 
G01 X87.2379 Y63.3341 
G01 X87.0685 Y63.2791 
G01 X86.9097 Y63.1982 
G01 X86.7656 Y63.0934 
G01 X86.6785 Y63.0064 
G01 X67.2335 Y63.0064 
G01 X67.0835 Y62.9766 
G01 X66.9422 Y62.9180 
G01 X66.8151 Y62.8331 
G01 X51.7844 Y47.8024 
G01 X51.6995 Y47.6753 
G01 X51.6409 Y47.5340 
G01 X51.6111 Y47.3840 
G01 X51.6111 Y47.2310 
G01 X51.6111 Y45.0891 
G00 Z22.0000 
G00 X49.1328 Y60.2579 
G01 Z-0.1000 F30.00 
G01 X48.7081 Y59.8332 F50.00 
G01 X48.1879 Y59.5329 
G01 X47.6078 Y59.3775 
G01 X47.0072 Y59.3775 
G01 X46.4271 Y59.5329 
G01 X45.9069 Y59.8332 
G01 X45.4822 Y60.2579 
G01 X45.1819 Y60.7781 
G01 X45.0265 Y61.3582 
G01 X45.0265 Y61.9588 
G01 X45.1819 Y62.5389 
G01 X45.4822 Y63.0591 
G01 X45.9069 Y63.4838 
G01 X46.4271 Y63.7841 
G01 X47.0072 Y63.9395 
G01 X47.6078 Y63.9395 
G01 X48.1879 Y63.7841 
G01 X48.7081 Y63.4838 
G01 X49.1328 Y63.0591 
G01 X49.4331 Y62.5389 
G01 X49.5885 Y61.9588 
G01 X49.5885 Y61.3582 
G01 X49.4331 Y60.7781 
G01 X49.1328 Y60.2579 
G00 Z22.0000 
G00 X-24.2111 Y93.3400 
G01 Z-0.1000 F30.00 
G01 X-24.3308 Y93.3162 F50.00 
G01 X-24.4437 Y93.2694 
G01 X-24.5452 Y93.2016 
G01 X-24.6316 Y93.1152 
G01 X-24.6994 Y93.0137 
G01 X-24.7462 Y92.9008 
G01 X-24.7700 Y92.7811 
G01 X-24.7700 Y-24.2111 
G01 X-24.7462 Y-24.3308 
G01 X-24.6994 Y-24.4437 
G01 X-24.6316 Y-24.5452 
G01 X-24.5452 Y-24.6316 
G01 X-24.4437 Y-24.6994 
G01 X-24.3308 Y-24.7462 
G01 X-24.2111 Y-24.7700 
G01 X116.5911 Y-24.7700 
G01 X116.7108 Y-24.7462 
G01 X116.8237 Y-24.6994 
G01 X116.9252 Y-24.6316 
G01 X117.0116 Y-24.5452 
G01 X117.0794 Y-24.4437 
G01 X117.1262 Y-24.3308 
G01 X117.1500 Y-24.2111 
G01 X117.1500 Y92.7811 
G01 X117.1262 Y92.9008 
G01 X117.0794 Y93.0137 
G01 X117.0116 Y93.1152 
G01 X116.9252 Y93.2016 
G01 X116.8237 Y93.2694 
G01 X116.7108 Y93.3162 
G01 X116.5911 Y93.3400 
G01 X116.4689 Y93.3400 
G01 X-24.2111 Y93.3400 
G00 Z22.0000 
G00 X49.0527 Y60.3193 
G01 Z-0.1000 F30.00 
G01 X48.6467 Y59.9133 F50.00 
G01 X48.1493 Y59.6261 
G01 X47.5946 Y59.4775 
G01 X47.0204 Y59.4775 
G01 X46.4657 Y59.6261 
G01 X45.9683 Y59.9133 
G01 X45.5623 Y60.3193 
G01 X45.2751 Y60.8167 
G01 X45.1265 Y61.3714 
G01 X45.1265 Y61.9456 
G01 X45.2751 Y62.5003 
G01 X45.5623 Y62.9977 
G01 X45.9683 Y63.4037 
G01 X46.4657 Y63.6909 
G01 X47.0204 Y63.8395 
G01 X47.5946 Y63.8395 
G01 X48.1493 Y63.6909 
G01 X48.6467 Y63.4037 
G01 X49.0527 Y62.9977 
G01 X49.3399 Y62.5003 
G01 X49.4885 Y61.9456 
G01 X49.4885 Y61.3714 
G01 X49.3399 Y60.8167 
G01 X49.0527 Y60.3193 
G00 Z22.0000 
G00 X70.5299 Y58.7929 
G01 Z-0.1000 F30.00 
G01 X70.4296 Y58.6926 F50.00 
G01 X70.4089 Y58.6615 
G01 X70.4089 Y58.8136 
G01 X70.5610 Y58.8136 
G01 X70.5299 Y58.7929 
G00 Z22.0000 
G00 X70.0007 Y60.8204 
G01 Z-0.1000 F30.00 
G01 X69.0643 Y60.8204 F50.00 
G01 X68.9099 Y60.6661 
G01 X68.9172 Y60.7027 
G01 X68.9172 Y60.8445 
G01 X68.8896 Y60.9836 
G01 X68.8353 Y61.1146 
G01 X68.7565 Y61.2326 
G01 X68.6578 Y61.3313 
G01 X68.6252 Y61.3536 
G01 X86.6371 Y61.3536 
G01 X86.7004 Y61.2903 
G01 X86.8573 Y61.1763 
G01 X87.0301 Y61.0883 
G01 X87.2145 Y61.0283 
G01 X87.4060 Y60.9980 
G01 X89.1240 Y60.9980 
G01 X89.3155 Y61.0283 
G01 X89.4999 Y61.0883 
G01 X89.6235 Y61.1512 
G01 X89.5996 Y61.0309 
G01 X89.5996 Y60.8891 
G01 X89.6085 Y60.8442 
G01 X89.6235 Y60.7688 
G01 X89.4999 Y60.8317 
G01 X89.3155 Y60.8917 
G01 X89.1240 Y60.9220 
G01 X87.4060 Y60.9220 
G01 X87.2145 Y60.8917 
G01 X87.0301 Y60.8317 
G01 X86.8573 Y60.7437 
G01 X86.7004 Y60.6297 
G01 X86.6371 Y60.5664 
G01 X70.2547 Y60.5664 
G01 X70.0007 Y60.8204 
G00 Z22.0000 
G00 X54.4866 Y39.1885 
G01 Z-0.1000 F30.00 
G01 X56.0184 Y39.1885 F50.00 
G01 X56.1379 Y39.2205 
G01 X56.2451 Y39.2824 
G01 X56.3326 Y39.3699 
G01 X56.3945 Y39.4771 
G01 X56.4265 Y39.5966 
G01 X56.4265 Y41.1284 
G01 X56.3945 Y41.2479 
G01 X56.3326 Y41.3551 
G01 X56.2451 Y41.4426 
G01 X56.1379 Y41.5045 
G01 X56.1289 Y41.5069 
G01 X56.1289 Y45.3645 
G01 X61.5378 Y50.7734 
G01 X61.5306 Y50.7368 
G01 X61.5306 Y50.5950 
G01 X61.5412 Y50.5412 
G01 X61.5582 Y50.4559 
G01 X61.6125 Y50.3248 
G01 X61.6278 Y50.3020 
G01 X61.6913 Y50.2069 
G01 X61.7916 Y50.1066 
G01 X61.8683 Y50.0554 
G01 X61.9095 Y50.0278 
G01 X62.0405 Y49.9736 
G01 X62.0933 Y49.9631 
G01 X61.9888 Y49.8932 
G01 X57.1118 Y45.0162 
G01 X57.0158 Y44.8726 
G01 X56.9498 Y44.7131 
G01 X56.9161 Y44.5438 
G01 X56.9161 Y41.5069 
G01 X56.9071 Y41.5045 
G01 X56.7999 Y41.4426 
G01 X56.7124 Y41.3551 
G01 X56.6505 Y41.2479 
G01 X56.6185 Y41.1284 
G01 X56.6185 Y39.5966 
G01 X56.6505 Y39.4771 
G01 X56.1520 Y38.9764 
G01 X51.3864 Y38.9764 
G01 X51.4175 Y38.9971 
G01 X51.5178 Y39.0974 
G01 X51.5966 Y39.2153 
G01 X51.6508 Y39.3464 
G01 X51.6517 Y39.3506 
G01 X51.7199 Y39.2824 
G01 X51.8271 Y39.2205 
G01 X51.9466 Y39.1885 
G01 X53.4784 Y39.1885 
G01 X53.5979 Y39.2205 
G01 X53.7051 Y39.2824 
G01 X53.7926 Y39.3699 
G01 X53.8545 Y39.4771 
G01 X53.8865 Y39.5966 
G01 X53.8865 Y41.1284 
G01 X53.8545 Y41.2479 
G01 X53.8095 Y41.3258 
G01 X53.8670 Y41.3258 
G01 X53.9761 Y41.3475 
G01 X54.0061 Y41.3534 
G01 X54.0906 Y41.3884 
G01 X54.1371 Y41.4077 
G01 X54.2551 Y41.4865 
G01 X54.3546 Y41.5860 
G01 X54.3761 Y41.6178 
G01 X54.3761 Y41.5069 
G01 X54.3671 Y41.5045 
G01 X54.2599 Y41.4426 
G01 X54.1724 Y41.3551 
G01 X54.1105 Y41.2479 
G01 X54.0785 Y41.1284 
G01 X54.0785 Y39.5966 
G01 X54.1105 Y39.4771 
G01 X54.1724 Y39.3699 
G01 X54.2599 Y39.2824 
G01 X54.3671 Y39.2205 
G01 X54.4866 Y39.1885 
G00 Z22.0000 
G00 X54.3554 Y44.8214 
G01 Z-0.1000 F30.00 
G01 X54.2551 Y44.9217 F50.00 
G01 X54.2551 Y44.9217 
G01 X54.1988 Y44.9592 
G01 X54.1371 Y45.0005 
G01 X54.1162 Y45.0091 
G01 X54.0061 Y45.0547 
G01 X53.8670 Y45.0824 
G01 X53.7252 Y45.0824 
G01 X53.6803 Y45.0735 
G01 X53.5861 Y45.0547 
G01 X53.4550 Y45.0005 
G01 X53.3371 Y44.9217 
G01 X53.2639 Y44.8484 
G01 X53.2639 Y45.7046 
G01 X53.2846 Y45.6736 
G01 X53.3849 Y45.5733 
G01 X53.4411 Y45.5358 
G01 X53.5028 Y45.4945 
G01 X53.5238 Y45.4859 
G01 X53.6339 Y45.4402 
G01 X53.7730 Y45.4126 
G01 X53.9148 Y45.4126 
G01 X53.9597 Y45.4215 
G01 X54.0539 Y45.4402 
G01 X54.1849 Y45.4945 
G01 X54.3029 Y45.5733 
G01 X54.3761 Y45.6466 
G01 X54.3761 Y44.7903 
G01 X54.3554 Y44.8214 
G00 Z22.0000 
G00 X59.1585 Y39.8532 
G01 Z-0.1000 F30.00 
G01 X59.1395 Y39.8468 F50.00 
G01 X59.1189 Y39.8349 
G01 X59.0970 Y39.8258 
G01 X59.0576 Y39.7995 
G01 X59.0166 Y39.7759 
G01 X58.9988 Y39.7602 
G01 X58.9790 Y39.7470 
G01 X58.9665 Y39.7345 
G01 X58.9665 Y40.9905 
G01 X58.9790 Y40.9780 
G01 X58.9988 Y40.9648 
G01 X59.0166 Y40.9491 
G01 X59.0576 Y40.9255 
G01 X59.0970 Y40.8992 
G01 X59.1189 Y40.8901 
G01 X59.1395 Y40.8782 
G01 X59.1585 Y40.8718 
G01 X59.1585 Y39.8532 
G00 Z22.0000 
G00 X69.0945 Y39.4771 
G01 Z-0.1000 F30.00 
G01 X69.1265 Y39.5966 F50.00 
G01 X69.1265 Y41.1284 
G01 X69.0945 Y41.2479 
G01 X69.0866 Y41.2615 
G01 X69.1516 Y41.2486 
G01 X69.2934 Y41.2486 
G01 X69.3584 Y41.2615 
G01 X69.3505 Y41.2479 
G01 X69.3185 Y41.1284 
G01 X69.3185 Y39.5966 
G01 X69.3505 Y39.4771 
G01 X69.3584 Y39.4635 
G01 X69.2934 Y39.4764 
G01 X69.1516 Y39.4764 
G01 X69.0866 Y39.4635 
G01 X69.0945 Y39.4771 
G00 Z22.0000 
G00 X64.0145 Y29.2371 
G01 Z-0.1000 F30.00 
G01 X64.0465 Y29.3566 F50.00 
G01 X64.0465 Y30.8884 
G01 X64.0145 Y31.0079 
G01 X64.0066 Y31.0215 
G01 X64.0716 Y31.0086 
G01 X64.2134 Y31.0086 
G01 X64.2784 Y31.0215 
G01 X64.2705 Y31.0079 
G01 X64.2385 Y30.8884 
G01 X64.2385 Y29.3566 
G01 X64.2705 Y29.2371 
G01 X64.2784 Y29.2235 
G01 X64.2134 Y29.2364 
G01 X64.0716 Y29.2364 
G01 X64.0194 Y29.2260 
G01 X64.0066 Y29.2235 
G01 X64.0145 Y29.2371 
G00 Z22.0000 
G00 X69.0945 Y29.2371 
G01 Z-0.1000 F30.00 
G01 X69.1265 Y29.3566 F50.00 
G01 X69.1265 Y30.8884 
G01 X69.0945 Y31.0079 
G01 X69.0866 Y31.0215 
G01 X69.1516 Y31.0086 
G01 X69.2934 Y31.0086 
G01 X69.3584 Y31.0215 
G01 X69.3505 Y31.0079 
G01 X69.3185 Y30.8884 
G01 X69.3185 Y29.3566 
G01 X69.3505 Y29.2371 
G01 X69.3584 Y29.2235 
G01 X69.2934 Y29.2364 
G01 X69.1516 Y29.2364 
G01 X69.0994 Y29.2260 
G01 X69.0866 Y29.2235 
G01 X69.0945 Y29.2371 
G00 Z22.0000 
G00 X48.1839 Y43.5735 
G01 Z-0.1000 F30.00 
G01 X48.2046 Y43.5424 F50.00 
G01 X48.3049 Y43.4421 
G01 X48.3360 Y43.4214 
G01 X48.1839 Y43.4214 
G01 X48.1839 Y43.5735 
G00 Z22.0000 
G00 X48.4065 Y41.6479 
G01 Z-0.1000 F30.00 
G01 X48.3062 Y41.5476 F50.00 
G01 X48.2855 Y41.5165 
G01 X48.2855 Y41.6686 
G01 X48.4376 Y41.6686 
G01 X48.4065 Y41.6479 
G00 Z22.0000 
G00 X50.3788 Y44.0276 
G01 Z-0.1000 F30.00 
G01 X50.3788 Y44.1694 F50.00 
G01 X50.3586 Y44.2711 
G01 X50.3512 Y44.3085 
G01 X50.3264 Y44.3683 
G01 X50.2969 Y44.4395 
G01 X50.2181 Y44.5575 
G01 X50.1194 Y44.6562 
G01 X50.0595 Y44.6967 
G01 X50.1360 Y44.7088 
G01 X50.3204 Y44.7688 
G01 X50.4932 Y44.8568 
G01 X50.6501 Y44.9708 
G01 X50.7872 Y45.1079 
G01 X50.9012 Y45.2648 
G01 X50.9892 Y45.4376 
G01 X51.0492 Y45.6220 
G01 X51.0795 Y45.8135 
G01 X51.0795 Y47.5315 
G01 X51.0492 Y47.7230 
G01 X51.0303 Y47.7812 
G01 X51.0712 Y47.7538 
G01 X51.1720 Y47.7121 
G01 X51.2022 Y47.6996 
G01 X51.2599 Y47.6881 
G01 X51.3413 Y47.6719 
G01 X51.4832 Y47.6719 
G01 X51.5768 Y47.6905 
G01 X51.5994 Y47.6950 
G01 X51.5448 Y47.5631 
G01 X51.5111 Y47.3938 
G01 X51.5111 Y45.1305 
G01 X50.3716 Y43.9910 
G01 X50.3788 Y44.0276 
G00 Z22.0000 
G00 X51.0737 Y42.1849 
G01 Z-0.1000 F30.00 
G01 X51.0737 Y42.1849 F50.00 
G01 X51.0737 Y42.1140 
G01 X51.0737 Y42.0431 
G01 X51.0795 Y42.0141 
G01 X51.0404 Y42.0218 
G01 X50.9703 Y42.0218 
G01 X50.8986 Y42.0218 
G01 X50.8769 Y42.0175 
G01 X51.0810 Y42.2216 
G01 X51.0737 Y42.1849 
G00 Z22.0000 
G00 X48.2472 Y45.1079 
G01 Z-0.1000 F30.00 
G01 X48.3612 Y45.2648 F50.00 
G01 X48.4492 Y45.4376 
G01 X48.5092 Y45.6220 
G01 X48.5395 Y45.8135 
G01 X48.5395 Y47.5315 
G01 X48.5092 Y47.7230 
G01 X48.4492 Y47.9074 
G01 X48.3612 Y48.0802 
G01 X48.2472 Y48.2371 
G01 X48.1101 Y48.3742 
G01 X47.9532 Y48.4882 
G01 X47.7804 Y48.5762 
G01 X47.5960 Y48.6362 
G01 X47.4045 Y48.6665 
G01 X47.2105 Y48.6665 
G01 X47.0190 Y48.6362 
G01 X46.8346 Y48.5762 
G01 X46.6618 Y48.4882 
G01 X46.6222 Y48.4594 
G01 X46.6234 Y48.4655 
G01 X46.6374 Y48.5361 
G01 X46.6374 Y48.6779 
G01 X46.6268 Y48.7317 
G01 X46.6098 Y48.8170 
G01 X46.5555 Y48.9480 
G01 X46.4767 Y49.0660 
G01 X46.3780 Y49.1647 
G01 X46.3454 Y49.1870 
G01 X47.5374 Y49.1870 
G01 X48.7433 Y47.9811 
G01 X48.7058 Y47.9074 
G01 X48.6458 Y47.7230 
G01 X48.6155 Y47.5315 
G01 X48.6155 Y45.8135 
G01 X48.6458 Y45.6220 
G01 X48.7058 Y45.4376 
G01 X48.7938 Y45.2648 
G01 X48.8831 Y45.1420 
G01 X48.8348 Y45.1515 
G01 X48.7647 Y45.1515 
G01 X48.6930 Y45.1516 
G01 X48.6677 Y45.1465 
G01 X48.5539 Y45.1239 
G01 X48.4919 Y45.0982 
G01 X48.4229 Y45.0696 
G01 X48.3525 Y45.0226 
G01 X48.3049 Y44.9908 
G01 X48.2556 Y44.9415 
G01 X48.2046 Y44.8905 
G01 X48.1839 Y44.8595 
G01 X48.1839 Y45.0446 
G01 X48.2472 Y45.1079 
G00 Z22.0000 
G00 X66.5545 Y29.2371 
G01 Z-0.1000 F30.00 
G01 X66.5865 Y29.3566 F50.00 
G01 X66.5865 Y30.8884 
G01 X66.5545 Y31.0079 
G01 X66.5466 Y31.0215 
G01 X66.6116 Y31.0086 
G01 X66.7534 Y31.0086 
G01 X66.8184 Y31.0215 
G01 X66.8105 Y31.0079 
G01 X66.7785 Y30.8884 
G01 X66.7785 Y29.3566 
G01 X66.8105 Y29.2371 
G01 X66.8184 Y29.2235 
G01 X66.7534 Y29.2364 
G01 X66.6116 Y29.2364 
G01 X66.5594 Y29.2260 
G01 X66.5466 Y29.2235 
G01 X66.5545 Y29.2371 
G00 Z22.0000 
G00 X38.9129 Y24.2807 
G01 Z-0.1000 F30.00 
G01 X38.6065 Y24.5871 F50.00 
G01 X39.4985 Y24.5871 
G01 X39.1921 Y24.2807 
G01 X39.1921 Y23.7269 
G01 X39.0975 Y23.6878 
G01 X38.9796 Y23.6090 
G01 X38.9129 Y23.5423 
G01 X38.9129 Y24.2807 
G00 Z22.0000 
G00 X41.0279 Y24.8204 
G01 Z-0.1000 F30.00 
G01 X40.9706 Y24.7630 F50.00 
G01 X40.8925 Y24.8411 
G01 X41.0590 Y24.8411 
G01 X41.0279 Y24.8204 
G00 Z22.0000 
G00 X38.2285 Y24.9429 
G01 Z-0.1000 F30.00 
G01 X37.7700 Y24.9429 F50.00 
G01 X37.8011 Y24.9636 
G01 X37.9014 Y25.0639 
G01 X37.9802 Y25.1818 
G01 X37.9829 Y25.1885 
G01 X38.2285 Y24.9429 
G00 Z22.0000 
G00 X12.8396 Y23.0268 
G01 Z-0.1000 F30.00 
G01 X13.1460 Y22.7204 F50.00 
G01 X12.8090 Y22.7204 
G01 X12.1521 Y23.3773 
G01 X12.1887 Y23.3701 
G01 X12.3305 Y23.3701 
G01 X12.3384 Y23.3716 
G01 X12.4696 Y23.3977 
G01 X12.6006 Y23.4520 
G01 X12.7186 Y23.5308 
G01 X12.8189 Y23.6311 
G01 X12.8396 Y23.6621 
G01 X12.8396 Y23.0268 
G00 Z22.0000 
G00 X14.7940 Y22.7204 
G01 Z-0.1000 F30.00 
G01 X14.9355 Y22.8619 F50.00 
G01 X14.9283 Y22.8253 
G01 X14.9283 Y22.7204 
G01 X14.7940 Y22.7204 
G00 Z22.0000 
G00 X13.8304 Y22.0582 
G01 Z-0.1000 F30.00 
G01 X13.5240 Y22.3646 F50.00 
G01 X14.4160 Y22.3646 
G01 X14.1096 Y22.0582 
G01 X14.1096 Y21.5044 
G01 X14.1000 Y21.5005 
G01 X14.0151 Y21.4653 
G01 X13.9733 Y21.4374 
G01 X13.8971 Y21.3865 
G01 X13.8456 Y21.3350 
G01 X13.8304 Y21.3198 
G01 X13.8304 Y22.0582 
G00 Z22.0000 
G00 X13.5764 Y20.8678 
G01 Z-0.1000 F30.00 
G01 X13.5915 Y20.8829 F50.00 
G01 X13.5843 Y20.8463 
G01 X13.5843 Y20.7762 
G01 X13.5843 Y20.7045 
G01 X13.5915 Y20.6679 
G01 X13.5764 Y20.6830 
G01 X13.5764 Y20.8678 
G00 Z22.0000 
G00 X25.7303 Y6.6446 
G01 Z-0.1000 F30.00 
G01 X25.6163 Y6.4877 F50.00 
G01 X25.5283 Y6.3149 
G01 X25.4683 Y6.1305 
G01 X25.4380 Y5.9390 
G01 X25.4380 Y4.2210 
G01 X25.4683 Y4.0295 
G01 X25.5283 Y3.8451 
G01 X25.5912 Y3.7215 
G01 X25.5184 Y3.7360 
G01 X25.4709 Y3.7454 
G01 X25.3291 Y3.7454 
G01 X25.2088 Y3.7215 
G01 X25.2717 Y3.8451 
G01 X25.3317 Y4.0295 
G01 X25.3620 Y4.2210 
G01 X25.3620 Y5.9390 
G01 X25.3317 Y6.1305 
G01 X25.2717 Y6.3149 
G01 X25.1837 Y6.4877 
G01 X25.0697 Y6.6446 
G01 X25.0064 Y6.7079 
G01 X25.0064 Y8.9763 
G01 X24.9948 Y9.0345 
G01 X25.0339 Y9.0084 
G01 X25.0590 Y8.9916 
G01 X25.1791 Y8.9419 
G01 X25.1900 Y8.9374 
G01 X25.3054 Y8.9144 
G01 X25.3291 Y8.9097 
G01 X25.3992 Y8.9097 
G01 X25.4709 Y8.9097 
G01 X25.4921 Y8.9139 
G01 X25.6100 Y8.9374 
G01 X25.6178 Y8.9406 
G01 X25.7411 Y8.9916 
G01 X25.8052 Y9.0345 
G01 X25.7936 Y8.9763 
G01 X25.7936 Y6.7079 
G01 X25.7303 Y6.6446 
G00 Z22.0000 
G00 X23.1903 Y6.6446 
G01 Z-0.1000 F30.00 
G01 X23.0763 Y6.4877 F50.00 
G01 X22.9883 Y6.3149 
G01 X22.9283 Y6.1305 
G01 X22.8980 Y5.9390 
G01 X22.8980 Y4.2210 
G01 X22.9283 Y4.0295 
G01 X22.9883 Y3.8451 
G01 X23.0512 Y3.7215 
G01 X22.9784 Y3.7360 
G01 X22.9309 Y3.7454 
G01 X22.7891 Y3.7454 
G01 X22.6688 Y3.7215 
G01 X22.7317 Y3.8451 
G01 X22.7917 Y4.0295 
G01 X22.8220 Y4.2210 
G01 X22.8220 Y5.9390 
G01 X22.7917 Y6.1305 
G01 X22.7317 Y6.3149 
G01 X22.6437 Y6.4877 
G01 X22.5545 Y6.6105 
G01 X22.6027 Y6.6010 
G01 X22.6728 Y6.6009 
G01 X22.7445 Y6.6009 
G01 X22.7698 Y6.6060 
G01 X22.8836 Y6.6286 
G01 X22.9456 Y6.6543 
G01 X23.0146 Y6.6829 
G01 X23.0850 Y6.7299 
G01 X23.1326 Y6.7617 
G01 X23.1819 Y6.8110 
G01 X23.2328 Y6.8620 
G01 X23.2536 Y6.8930 
G01 X23.2536 Y6.7079 
G01 X23.1903 Y6.6446 
G00 Z22.0000 
G00 X33.9028 Y23.7416 
G01 Z-0.1000 F30.00 
G01 X33.9028 Y23.8834 F50.00 
G01 X33.8956 Y23.9200 
G01 X34.0031 Y23.8125 
G01 X33.8956 Y23.7050 
G01 X33.9028 Y23.7416 
G00 Z22.0000 
G00 X84.9965 Y6.6295 
G01 Z-0.1000 F30.00 
G01 X83.2785 Y6.6295 F50.00 
G01 X83.1808 Y6.6140 
G01 X83.1568 Y6.6721 
G01 X83.1174 Y6.7310 
G01 X83.2785 Y6.7055 
G01 X84.9965 Y6.7055 
G01 X85.1576 Y6.7310 
G01 X85.1193 Y6.6737 
G01 X85.0942 Y6.6140 
G01 X84.9965 Y6.6295 
G00 Z22.0000 
G00 X51.5385 Y29.3566 
G01 Z-0.1000 F30.00 
G01 X51.5705 Y29.2371 F50.00 
G01 X51.6324 Y29.1299 
G01 X51.7199 Y29.0424 
G01 X51.8271 Y28.9805 
G01 X51.8361 Y28.9781 
G01 X51.8361 Y28.4812 
G01 X51.8698 Y28.3119 
G01 X51.9358 Y28.1524 
G01 X52.0318 Y28.0088 
G01 X52.9768 Y27.0638 
G01 X53.0988 Y26.9418 
G01 X53.2424 Y26.8458 
G01 X53.4019 Y26.7798 
G01 X53.5708 Y26.7462 
G01 X53.5396 Y26.7254 
G01 X53.4393 Y26.6251 
G01 X53.3605 Y26.5071 
G01 X53.3062 Y26.3761 
G01 X53.2786 Y26.2370 
G01 X53.2786 Y26.0952 
G01 X53.2858 Y26.0586 
G01 X51.3589 Y27.9855 
G01 X51.3589 Y30.6056 
G01 X51.5385 Y30.8794 
G01 X51.5385 Y29.3566 
G00 Z22.0000 
G00 X51.1352 Y33.0947 
G01 Z-0.1000 F30.00 
G01 X51.1317 Y33.0933 F50.00 
G01 X51.1281 Y33.0925 
G01 X51.0519 Y33.0602 
G01 X50.9757 Y33.0287 
G01 X50.9726 Y33.0266 
G01 X50.9691 Y33.0251 
G01 X50.9007 Y32.9786 
G01 X50.8321 Y32.9327 
G01 X50.8295 Y32.9301 
G01 X50.8264 Y32.9280 
G01 X50.7685 Y32.8691 
G01 X50.7101 Y32.8107 
G01 X50.7080 Y32.8076 
G01 X50.7054 Y32.8049 
G01 X50.6600 Y32.7358 
G01 X50.6141 Y32.6671 
G01 X50.6127 Y32.6637 
G01 X50.5422 Y32.5562 
G01 X50.5422 Y32.5870 
G01 X50.5416 Y32.5900 
G01 X50.5416 Y32.5931 
G01 X50.5278 Y32.6595 
G01 X50.5146 Y32.7261 
G01 X50.5134 Y32.7290 
G01 X50.5128 Y32.7320 
G01 X50.4863 Y32.7944 
G01 X50.4603 Y32.8571 
G01 X50.4586 Y32.8597 
G01 X50.4574 Y32.8625 
G01 X50.4192 Y32.9186 
G01 X50.3815 Y32.9751 
G01 X50.3776 Y32.9798 
G01 X50.3293 Y33.0273 
G01 X50.2812 Y33.0754 
G01 X50.2786 Y33.0771 
G01 X50.2507 Y33.0961 
G01 X51.1421 Y33.0961 
G01 X51.1352 Y33.0947 
G00 Z22.0000 
G00 X61.3098 Y39.0836 
G01 Z-0.1000 F30.00 
G01 X61.3098 Y39.2254 F50.00 
G01 X61.3012 Y39.2686 
G01 X61.3251 Y39.2824 
G01 X61.4126 Y39.3699 
G01 X61.4745 Y39.4771 
G01 X61.5065 Y39.5966 
G01 X61.5065 Y40.8718 
G01 X61.5255 Y40.8782 
G01 X61.5461 Y40.8901 
G01 X61.5680 Y40.8992 
G01 X61.6074 Y40.9255 
G01 X61.6484 Y40.9491 
G01 X61.6662 Y40.9648 
G01 X61.6860 Y40.9780 
G01 X61.6985 Y40.9905 
G01 X61.6985 Y39.5966 
G01 X61.7305 Y39.4771 
G01 X61.3026 Y39.0470 
G01 X61.3098 Y39.0836 
G00 Z22.0000 
G00 X46.2659 Y39.3146 
G01 Z-0.1000 F30.00 
G01 X46.3662 Y39.4149 F50.00 
G01 X46.3662 Y39.4149 
G01 X46.4038 Y39.4711 
G01 X46.4450 Y39.5328 
G01 X46.4537 Y39.5538 
G01 X46.4993 Y39.6639 
G01 X46.5158 Y39.7470 
G01 X46.5478 Y39.6991 
G01 X46.6841 Y39.5628 
G01 X46.8442 Y39.4558 
G01 X46.9988 Y39.3918 
G01 X48.9713 Y37.4193 
G01 X49.1149 Y37.3233 
G01 X49.2744 Y37.2573 
G01 X49.4437 Y37.2236 
G01 X56.6013 Y37.2236 
G01 X56.7706 Y37.2573 
G01 X56.9301 Y37.3233 
G01 X57.0737 Y37.4193 
G01 X57.1957 Y37.5413 
G01 X57.4133 Y37.7589 
G01 X57.4061 Y37.7223 
G01 X57.4061 Y37.5805 
G01 X57.4337 Y37.4414 
G01 X57.4353 Y37.4376 
G01 X57.4880 Y37.3103 
G01 X57.5668 Y37.1924 
G01 X57.6671 Y37.0921 
G01 X57.6981 Y37.0714 
G01 X48.9405 Y37.0714 
G01 X47.0357 Y38.9762 
G01 X46.9137 Y39.0982 
G01 X46.7701 Y39.1942 
G01 X46.6106 Y39.2602 
G01 X46.4413 Y39.2939 
G01 X46.2349 Y39.2939 
G01 X46.2659 Y39.3146 
G00 Z22.0000 
G00 X43.3307 Y37.0079 
G01 Z-0.1000 F30.00 
G01 X42.3943 Y37.0079 F50.00 
G01 X42.2400 Y36.8536 
G01 X42.2472 Y36.8902 
