(.../pcb-gcode-3.6.0.4/pcb-gcode.ulp)
(Copyright 2005 - 2012 by John Johnson)
(See readme.txt for licensing terms.)
(This file generated from the board:)
(.../Documents/eagle/LED-Globe/LED-Globe.brd)
(Current profile is .../pcb-gcode-3.6.0.4/profiles/generic.pp  )
(This file generated 04.01.2018 16:44)
(Settings from pcb-machine.h)
(  Tool Size)
(0.7000 )
(Z Axis Settings)
(  High     Up        Down     Drill)
(22.0000 	22.0000 	-0.1000 	-1.4000 )
(spindle on time = 3.0000)
(milling depth = -0.2000)
(text depth = -0.1000)
(tool change at 20.0000 -15.0000 40.0000 )
(feed rate xy = F50.00 )
(feed rate z  = F30.00 )
(Settings from pcb-defaults.h)
(isolate min = 0.0200)
(isolate max = 0.8000)
(isolate step = 0.1000)
(Generated top outlines, top drill, )
(Unit of measure: mm)
( Tool|       Size       |  Min Sub |  Max Sub |   Count )
( T01  3.302mm 0.1300in 0.0000in 0.0000in )
( T02  0.813mm 0.0320in 0.0000in 0.0000in )
( T03  0.900mm 0.0354in 0.0000in 0.0000in )
( T04  1.016mm 0.0400in 0.0000in 0.0000in )
(Metric Mode)
G21
(Absolute Coordinates)
G90
M05
G00 Z40.0000 
G00 X20.0000 Y-15.0000 
M06 T01  ; 3.3020 
G01 Z0.0000 F30.00 
M06 T01  ; 3.3020 
G00 Z22.0000 
M03
G04 P3.000000
G00 Z22.000000
G00 X47.3075 Y61.6585 
G01 Z-1.4000 F30.00 
G01 Z22.000000
(R22.0000  P1.000000)
(G00 Z22.000000)
G00 X31.1150 Y61.6585 
G01 Z-1.400000
G01 Z22.000000
M05
G00 Z40.0000 
M06 T02  ; 0.8128 
G01 Z0.0000 F30.00 
M06 T02  ; 0.8128 
G00 Z22.0000 
M03
G04 P3.000000
G00 Z22.000000
G00 X37.7825 Y23.8125 
G01 Z-1.4000 F30.00 
G01 Z22.000000
(R22.0000  P1.000000)
(G00 Z22.000000)
G00 X39.0525 Y25.7175 
G01 Z-1.400000
G01 Z22.000000
(G00 Z22.000000)
G00 X39.3700 Y50.1650 
G01 Z-1.400000
G01 Z22.000000
(G00 Z22.000000)
G00 X39.3700 Y55.2450 
G01 Z-1.400000
G01 Z22.000000
(G00 Z22.000000)
G00 X40.3225 Y23.8125 
G01 Z-1.400000
G01 Z22.000000
(G00 Z22.000000)
G00 X42.8625 Y35.8775 
G01 Z-1.400000
G01 Z22.000000
(G00 Z22.000000)
G00 X42.8625 Y25.7175 
G01 Z-1.400000
G01 Z22.000000
(G00 Z22.000000)
G00 X44.7675 Y42.5450 
G01 Z-1.400000
G01 Z22.000000
(G00 Z22.000000)
G00 X47.3075 Y42.5450 
G01 Z-1.400000
G01 Z22.000000
(G00 Z22.000000)
G00 X59.3725 Y59.6900 
G01 Z-1.400000
G01 Z22.000000
(G00 Z22.000000)
G00 X69.5325 Y59.6900 
G01 Z-1.400000
G01 Z22.000000
(G00 Z22.000000)
G00 X80.9625 Y45.4025 
G01 Z-1.400000
G01 Z22.000000
(G00 Z22.000000)
G00 X80.9625 Y55.5625 
G01 Z-1.400000
G01 Z22.000000
(G00 Z22.000000)
G00 X8.8900 Y38.1000 
G01 Z-1.400000
G01 Z22.000000
(G00 Z22.000000)
G00 X8.8900 Y27.9400 
G01 Z-1.400000
G01 Z22.000000
(G00 Z22.000000)
G00 X12.7000 Y21.5900 
G01 Z-1.400000
G01 Z22.000000
(G00 Z22.000000)
G00 X13.9700 Y36.5125 
G01 Z-1.400000
G01 Z22.000000
(G00 Z22.000000)
G00 X13.9700 Y23.4950 
G01 Z-1.400000
G01 Z22.000000
(G00 Z22.000000)
G00 X13.9700 Y26.3525 
G01 Z-1.400000
G01 Z22.000000
(G00 Z22.000000)
G00 X15.2400 Y21.5900 
G01 Z-1.400000
G01 Z22.000000
(G00 Z22.000000)
G00 X19.6850 Y49.5300 
G01 Z-1.400000
G01 Z22.000000
(G00 Z22.000000)
G00 X19.6850 Y52.0700 
G01 Z-1.400000
G01 Z22.000000
(G00 Z22.000000)
G00 X31.1150 Y38.1000 
G01 Z-1.400000
G01 Z22.000000
(G00 Z22.000000)
G00 X31.1150 Y40.6400 
G01 Z-1.400000
G01 Z22.000000
(G00 Z22.000000)
G00 X31.1150 Y43.1800 
G01 Z-1.400000
G01 Z22.000000
(G00 Z22.000000)
G00 X31.1150 Y27.9400 
G01 Z-1.400000
G01 Z22.000000
M05
G00 Z40.0000 
M06 T03  ; 0.9000 
G01 Z0.0000 F30.00 
M06 T03  ; 0.9000 
G00 Z22.0000 
M03
G04 P3.000000
G00 Z22.000000
G00 X52.7125 Y40.3625 
G01 Z-1.4000 F30.00 
G01 Z22.000000
(R22.0000  P1.000000)
(G00 Z22.000000)
G00 X52.7125 Y30.1225 
G01 Z-1.400000
G01 Z22.000000
(G00 Z22.000000)
G00 X55.2525 Y40.3625 
G01 Z-1.400000
G01 Z22.000000
(G00 Z22.000000)
G00 X55.2525 Y30.1225 
G01 Z-1.400000
G01 Z22.000000
(G00 Z22.000000)
G00 X57.7925 Y40.3625 
G01 Z-1.400000
G01 Z22.000000
(G00 Z22.000000)
G00 X57.7925 Y30.1225 
G01 Z-1.400000
G01 Z22.000000
(G00 Z22.000000)
G00 X60.3325 Y40.3625 
G01 Z-1.400000
G01 Z22.000000
(G00 Z22.000000)
G00 X60.3325 Y30.1225 
G01 Z-1.400000
G01 Z22.000000
(G00 Z22.000000)
G00 X62.8725 Y40.3625 
G01 Z-1.400000
G01 Z22.000000
(G00 Z22.000000)
G00 X62.8725 Y30.1225 
G01 Z-1.400000
G01 Z22.000000
(G00 Z22.000000)
G00 X65.4125 Y40.3625 
G01 Z-1.400000
G01 Z22.000000
(G00 Z22.000000)
G00 X65.4125 Y30.1225 
G01 Z-1.400000
G01 Z22.000000
(G00 Z22.000000)
G00 X67.9525 Y40.3625 
G01 Z-1.400000
G01 Z22.000000
(G00 Z22.000000)
G00 X67.9525 Y30.1225 
G01 Z-1.400000
G01 Z22.000000
(G00 Z22.000000)
G00 X70.4925 Y40.3625 
G01 Z-1.400000
G01 Z22.000000
(G00 Z22.000000)
G00 X70.4925 Y30.1225 
G01 Z-1.400000
G01 Z22.000000
M05
G00 Z40.0000 
M06 T04  ; 1.0160 
G01 Z0.0000 F30.00 
M06 T04  ; 1.0160 
G00 Z22.0000 
M03
G04 P3.000000
G00 Z22.000000
G00 X33.6550 Y46.6725 
G01 Z-1.4000 F30.00 
G01 Z22.000000
(R22.0000  P1.000000)
(G00 Z22.000000)
G00 X44.7675 Y46.6725 
G01 Z-1.400000
G01 Z22.000000
(G00 Z22.000000)
G00 X47.3075 Y46.6725 
G01 Z-1.400000
G01 Z22.000000
(G00 Z22.000000)
G00 X49.8475 Y46.6725 
G01 Z-1.400000
G01 Z22.000000
(G00 Z22.000000)
G00 X84.1375 Y5.3975 
G01 Z-1.400000
G01 Z22.000000
(G00 Z22.000000)
G00 X84.1375 Y7.9375 
G01 Z-1.400000
G01 Z22.000000
(G00 Z22.000000)
G00 X84.1375 Y10.4775 
G01 Z-1.400000
G01 Z22.000000
(G00 Z22.000000)
G00 X84.1375 Y13.0175 
G01 Z-1.400000
G01 Z22.000000
(G00 Z22.000000)
G00 X84.1375 Y15.5575 
G01 Z-1.400000
G01 Z22.000000
(G00 Z22.000000)
G00 X84.1375 Y18.0975 
G01 Z-1.400000
G01 Z22.000000
(G00 Z22.000000)
G00 X88.2650 Y59.6900 
G01 Z-1.400000
G01 Z22.000000
(G00 Z22.000000)
G00 X88.2650 Y62.2300 
G01 Z-1.400000
G01 Z22.000000
(G00 Z22.000000)
G00 X10.7950 Y49.5300 
G01 Z-1.400000
G01 Z22.000000
(G00 Z22.000000)
G00 X10.7950 Y52.0700 
G01 Z-1.400000
G01 Z22.000000
(G00 Z22.000000)
G00 X21.5900 Y5.0800 
G01 Z-1.400000
G01 Z22.000000
(G00 Z22.000000)
G00 X24.1300 Y5.0800 
G01 Z-1.400000
G01 Z22.000000
(G00 Z22.000000)
G00 X26.6700 Y5.0800 
G01 Z-1.400000
G01 Z22.000000
(G00 Z22.000000)
G00 X28.5750 Y46.6725 
G01 Z-1.400000
G01 Z22.000000
(G00 Z22.000000)
G00 X29.2100 Y5.0800 
G01 Z-1.400000
G01 Z22.000000
(G00 Z22.000000)
G00 X31.1150 Y46.6725 
G01 Z-1.400000
G01 Z22.000000
T01 
M05
M02
