(.../pcb-gcode-3_6_0_4/pcb-gcode.ulp)
(Copyright 2005 - 2012 by John Johnson)
(See readme.txt for licensing terms.)
(This file generated from the board:)
(.../Documents/eagle/Globe V3/Globe V3.brd)
(Current profile is .../pcb-gcode-3_6_0_4/profiles/generic.pp  )
(This file generated 12.03.2018 15:20)
(Settings from pcb-machine.h)
(  Tool Size)
(0.8000 )
(Z Axis Settings)
(  High     Up        Down     Drill)
(25.0000 	2.0000 	-0.1000 	-1.5000 )
(spindle on time = 3.0000)
(milling depth = -0.2540)
(text depth = -0.1270)
(tool change at 1.0000 1.0000 25.0000 )
(feed rate xy = F100.00 )
(feed rate z  = F50.00 )
(Settings from pcb-defaults.h)
(isolate min = 0.0025)
(isolate max = 1.1000)
(isolate step = 0.9000)
(Generated bottom outlines, bottom drill, )
(Unit of measure: mm)
(Metric Mode)
G21
(Absolute Coordinates)
G90
G00 X0.0000 Y0.0000 
M03
G04 P3.000000
G00 Z2.0000 
G00 X65.3120 Y58.0456 
G01 Z-0.1000 F50.00 
G01 X64.8904 Y57.6240 F100.00 
G01 X64.3741 Y57.3258 
G01 X63.7981 Y57.1715 
G01 X63.2019 Y57.1715 
G01 X62.6259 Y57.3258 
G01 X62.1096 Y57.6240 
G01 X61.6880 Y58.0456 
G01 X61.3898 Y58.5619 
G01 X61.2355 Y59.1379 
G01 X61.2355 Y59.7341 
G01 X61.3898 Y60.3101 
G01 X61.6880 Y60.8264 
G01 X62.1096 Y61.2480 
G01 X62.6259 Y61.5462 
G01 X63.2019 Y61.7005 
G01 X63.7981 Y61.7005 
G01 X64.3741 Y61.5462 
G01 X64.8904 Y61.2480 
G01 X65.3120 Y60.8264 
G01 X65.6102 Y60.3101 
G01 X65.7645 Y59.7341 
G01 X65.7645 Y59.1379 
G01 X65.6102 Y58.5619 
G01 X65.3120 Y58.0456 
G00 Z2.0000 
G00 X32.2920 Y58.0456 
G01 Z-0.1000 F50.00 
G01 X31.8704 Y57.6240 F100.00 
G01 X31.3541 Y57.3258 
G01 X30.7781 Y57.1715 
G01 X30.1819 Y57.1715 
G01 X29.6059 Y57.3258 
G01 X29.0896 Y57.6240 
G01 X28.6680 Y58.0456 
G01 X28.3698 Y58.5619 
G01 X28.2155 Y59.1379 
G01 X28.2155 Y59.7341 
G01 X28.3698 Y60.3101 
G01 X28.6680 Y60.8264 
G01 X29.0896 Y61.2480 
G01 X29.6059 Y61.5462 
G01 X30.1819 Y61.7005 
G01 X30.7781 Y61.7005 
G01 X31.3541 Y61.5462 
G01 X31.8704 Y61.2480 
G01 X32.2920 Y60.8264 
G01 X32.5902 Y60.3101 
G01 X32.7445 Y59.7341 
G01 X32.7445 Y59.1379 
G01 X32.5902 Y58.5619 
G01 X32.2920 Y58.0456 
G00 Z2.0000 
G00 X32.9145 Y6.7664 
G01 Z-0.1000 F50.00 
G01 X32.9145 Y8.4736 F100.00 
G01 X32.8858 Y8.6547 
G01 X32.8451 Y8.7800 
G01 X32.9331 Y8.8388 
G01 X33.0174 Y8.9231 
G01 X33.0433 Y8.9618 
G01 X33.0837 Y9.0223 
G01 X33.1156 Y9.0992 
G01 X33.1612 Y9.2094 
G01 X33.1709 Y9.2579 
G01 X33.1845 Y9.3264 
G01 X33.1845 Y11.6499 
G01 X33.3528 Y12.0562 
G01 X43.4698 Y22.1732 
G01 X43.8238 Y22.5272 
G01 X44.2301 Y22.6955 
G01 X85.1438 Y22.6955 
G01 X85.1505 Y22.6968 
G01 X85.2609 Y22.7188 
G01 X85.2922 Y22.7318 
G01 X85.3711 Y22.7644 
G01 X85.4703 Y22.8307 
G01 X85.5547 Y22.9151 
G01 X85.5939 Y22.9738 
G01 X85.6209 Y23.0143 
G01 X85.6347 Y23.0475 
G01 X85.6666 Y23.1245 
G01 X85.6858 Y23.2210 
G01 X85.6899 Y23.2415 
G01 X85.6899 Y23.3609 
G01 X85.6886 Y23.3675 
G01 X85.6666 Y23.4779 
G01 X85.6508 Y23.5161 
G01 X85.6209 Y23.5881 
G01 X85.5085 Y23.8596 
G01 X85.5085 Y24.4004 
G01 X85.7155 Y24.9001 
G01 X86.0979 Y25.2825 
G01 X86.1101 Y25.2876 
G01 X86.2057 Y25.3272 
G01 X86.2844 Y25.3797 
G01 X86.3049 Y25.3935 
G01 X86.3893 Y25.4778 
G01 X86.4556 Y25.5770 
G01 X86.4741 Y25.6218 
G01 X86.5012 Y25.6873 
G01 X86.5245 Y25.8043 
G01 X86.5245 Y27.2909 
G01 X86.5012 Y27.4079 
G01 X86.4556 Y27.5181 
G01 X86.3893 Y27.6173 
G01 X86.3049 Y27.7017 
G01 X82.2273 Y31.7793 
G01 X82.1281 Y31.8456 
G01 X82.0179 Y31.8912 
G01 X81.9009 Y31.9145 
G01 X79.1443 Y31.9145 
G01 X79.0273 Y31.8912 
G01 X78.9636 Y31.8649 
G01 X78.9170 Y31.8456 
G01 X78.8178 Y31.7793 
G01 X78.7335 Y31.6949 
G01 X78.7208 Y31.6760 
G01 X78.6672 Y31.5957 
G01 X78.6264 Y31.4973 
G01 X78.6225 Y31.4879 
G01 X78.2401 Y31.1055 
G01 X77.7404 Y30.8985 
G01 X77.1996 Y30.8985 
G01 X76.6999 Y31.1055 
G01 X76.5861 Y31.2193 
G01 X76.4869 Y31.2856 
G01 X76.3767 Y31.3312 
G01 X76.3075 Y31.3450 
G01 X76.2597 Y31.3545 
G01 X76.1403 Y31.3545 
G01 X76.0233 Y31.3312 
G01 X75.9597 Y31.3049 
G01 X75.9131 Y31.2856 
G01 X75.8139 Y31.2193 
G01 X75.7295 Y31.1349 
G01 X75.7001 Y31.1055 
G01 X75.2004 Y30.8985 
G01 X74.6596 Y30.8985 
G01 X74.1599 Y31.1055 
G01 X74.1305 Y31.1349 
G01 X74.0843 Y31.1811 
G01 X74.0461 Y31.2193 
G01 X73.9469 Y31.2856 
G01 X73.8367 Y31.3312 
G01 X73.7200 Y31.3544 
G01 X73.6003 Y31.3545 
G01 X73.4833 Y31.3312 
G01 X73.3861 Y31.2909 
G01 X73.3731 Y31.2856 
G01 X73.2739 Y31.2193 
G01 X73.2079 Y31.1533 
G01 X73.1895 Y31.1349 
G01 X73.1601 Y31.1055 
G01 X72.6604 Y30.8985 
G01 X72.1196 Y30.8985 
G01 X71.6199 Y31.1055 
G01 X71.5061 Y31.2193 
G01 X71.4069 Y31.2856 
G01 X71.2967 Y31.3312 
G01 X71.2275 Y31.3450 
G01 X71.1797 Y31.3545 
G01 X71.0603 Y31.3545 
G01 X70.9433 Y31.3312 
G01 X70.8797 Y31.3049 
G01 X70.8331 Y31.2856 
G01 X70.7339 Y31.2193 
G01 X70.6495 Y31.1349 
G01 X70.6201 Y31.1055 
G01 X70.1204 Y30.8985 
G01 X69.5796 Y30.8985 
G01 X69.0799 Y31.1055 
G01 X68.9661 Y31.2193 
G01 X68.8669 Y31.2856 
G01 X68.7567 Y31.3312 
G01 X68.6875 Y31.3450 
G01 X68.6397 Y31.3545 
G01 X68.5203 Y31.3545 
G01 X68.4033 Y31.3312 
G01 X68.3397 Y31.3049 
G01 X68.2931 Y31.2856 
G01 X68.1939 Y31.2193 
G01 X68.1095 Y31.1349 
G01 X68.0801 Y31.1055 
G01 X67.5804 Y30.8985 
G01 X67.0396 Y30.8985 
G01 X66.5399 Y31.1055 
G01 X66.1575 Y31.4879 
G01 X66.1493 Y31.5076 
G01 X66.1250 Y31.5664 
G01 X66.1037 Y31.6177 
G01 X66.0688 Y31.6699 
G01 X66.0374 Y31.7169 
G01 X65.9950 Y31.7593 
G01 X65.9531 Y31.8012 
G01 X65.9044 Y31.8337 
G01 X65.8651 Y31.8600 
G01 X65.9058 Y31.9853 
G01 X65.9345 Y32.1664 
G01 X65.9345 Y33.8736 
G01 X65.9058 Y34.0547 
G01 X65.8651 Y34.1800 
G01 X65.9043 Y34.2062 
G01 X65.9528 Y34.2385 
G01 X65.9950 Y34.2807 
G01 X66.0372 Y34.3229 
G01 X66.0688 Y34.3700 
G01 X66.1036 Y34.4220 
G01 X66.1249 Y34.4735 
G01 X66.1493 Y34.5322 
G01 X66.1575 Y34.5521 
G01 X66.5399 Y34.9345 
G01 X67.0396 Y35.1415 
G01 X67.5804 Y35.1415 
G01 X68.0801 Y34.9345 
G01 X68.1095 Y34.9051 
G01 X68.1920 Y34.8226 
G01 X68.2931 Y34.7544 
G01 X68.3378 Y34.7359 
G01 X68.4033 Y34.7088 
G01 X68.5203 Y34.6855 
G01 X68.6397 Y34.6855 
G01 X68.6849 Y34.6945 
G01 X68.7567 Y34.7088 
G01 X68.8669 Y34.7544 
G01 X68.9661 Y34.8207 
G01 X69.0491 Y34.9038 
G01 X69.0799 Y34.9345 
G01 X69.5796 Y35.1415 
G01 X70.1204 Y35.1415 
G01 X70.6201 Y34.9345 
G01 X70.6495 Y34.9051 
G01 X70.7320 Y34.8226 
G01 X70.8331 Y34.7544 
G01 X70.8778 Y34.7359 
G01 X70.9433 Y34.7088 
G01 X71.0603 Y34.6855 
G01 X71.1797 Y34.6855 
G01 X71.2249 Y34.6945 
G01 X71.2967 Y34.7088 
G01 X71.4069 Y34.7544 
G01 X71.5061 Y34.8207 
G01 X71.5892 Y34.9038 
G01 X71.6199 Y34.9345 
G01 X72.1196 Y35.1415 
G01 X72.6604 Y35.1415 
G01 X73.1601 Y34.9345 
G01 X73.1895 Y34.9051 
G01 X73.2720 Y34.8226 
G01 X73.3731 Y34.7544 
G01 X73.4178 Y34.7359 
G01 X73.4833 Y34.7088 
G01 X73.6003 Y34.6855 
G01 X73.7197 Y34.6855 
G01 X73.7649 Y34.6945 
G01 X73.8367 Y34.7088 
G01 X73.9469 Y34.7544 
G01 X74.0461 Y34.8207 
G01 X74.1292 Y34.9038 
G01 X74.1599 Y34.9345 
G01 X74.6596 Y35.1415 
G01 X75.2004 Y35.1415 
G01 X75.4719 Y35.0291 
G01 X75.5416 Y35.0002 
G01 X75.5821 Y34.9834 
G01 X75.6991 Y34.9601 
G01 X75.8185 Y34.9601 
G01 X75.8368 Y34.9638 
G01 X75.9355 Y34.9834 
G01 X76.0144 Y35.0161 
G01 X76.0457 Y35.0290 
G01 X76.0846 Y35.0551 
G01 X76.1449 Y35.0953 
G01 X76.2293 Y35.1797 
G01 X76.2956 Y35.2789 
G01 X76.3275 Y35.3559 
G01 X76.3412 Y35.3891 
G01 X76.3645 Y35.5062 
G01 X76.3645 Y42.5309 
G01 X76.3412 Y42.6479 
G01 X76.2956 Y42.7581 
G01 X76.2293 Y42.8573 
G01 X76.1449 Y42.9417 
G01 X76.0297 Y43.0569 
G01 X75.9305 Y43.1232 
G01 X75.8203 Y43.1688 
G01 X75.7033 Y43.1921 
G01 X75.6790 Y43.1921 
G01 X75.6618 Y43.2093 
G01 X75.5626 Y43.2756 
G01 X75.4523 Y43.3212 
G01 X75.3353 Y43.3445 
G01 X74.2978 Y43.3445 
G01 X74.1808 Y43.3212 
G01 X74.0719 Y43.2761 
G01 X73.9714 Y43.2093 
G01 X73.8870 Y43.1249 
G01 X68.2834 Y37.5213 
G01 X67.9317 Y37.1696 
G01 X67.5283 Y37.0025 
G01 X64.5517 Y37.0025 
G01 X64.1483 Y37.1696 
G01 X62.9213 Y38.3966 
G01 X62.5696 Y38.7483 
G01 X62.4025 Y39.1517 
G01 X62.4025 Y40.3865 
G01 X62.4012 Y40.3931 
G01 X62.3792 Y40.5035 
G01 X62.3662 Y40.5348 
G01 X62.3336 Y40.6137 
G01 X62.2673 Y40.7129 
G01 X62.1829 Y40.7973 
G01 X62.0837 Y40.8636 
G01 X62.0505 Y40.8773 
G01 X61.9735 Y40.9092 
G01 X61.8770 Y40.9284 
G01 X61.8565 Y40.9325 
G01 X61.7371 Y40.9325 
G01 X61.7305 Y40.9312 
G01 X61.6201 Y40.9092 
G01 X61.5888 Y40.8962 
G01 X61.5099 Y40.8636 
G01 X61.4107 Y40.7973 
G01 X61.3263 Y40.7129 
G01 X60.6702 Y40.0568 
G01 X60.3162 Y39.7028 
G01 X59.9099 Y39.5345 
G01 X54.3901 Y39.5345 
G01 X53.9838 Y39.7028 
G01 X51.8997 Y41.7869 
G01 X51.8005 Y41.8532 
G01 X51.6903 Y41.8988 
G01 X51.5733 Y41.9221 
G01 X51.5490 Y41.9221 
G01 X51.5318 Y41.9393 
G01 X51.4326 Y42.0056 
G01 X51.3223 Y42.0512 
G01 X51.2053 Y42.0745 
G01 X49.3101 Y42.0745 
G01 X48.9038 Y42.2428 
G01 X44.1273 Y47.0193 
G01 X44.0281 Y47.0856 
G01 X43.9179 Y47.1312 
G01 X43.8009 Y47.1545 
G01 X41.5047 Y47.1545 
G01 X41.3876 Y47.1312 
G01 X41.3240 Y47.1049 
G01 X41.2774 Y47.0856 
G01 X41.2262 Y47.0513 
G01 X41.1782 Y47.0193 
G01 X41.1610 Y47.0021 
G01 X40.1190 Y47.0021 
G01 X40.1018 Y47.0193 
G01 X40.0026 Y47.0856 
G01 X39.8923 Y47.1312 
G01 X39.7753 Y47.1545 
G01 X31.8627 Y47.1545 
G01 X31.7457 Y47.1312 
G01 X31.7014 Y47.1129 
G01 X31.6355 Y47.0856 
G01 X31.5363 Y47.0193 
G01 X31.4519 Y46.9349 
G01 X31.4393 Y46.9160 
G01 X31.3856 Y46.8357 
G01 X31.3585 Y46.7702 
G01 X31.3400 Y46.7255 
G01 X31.3216 Y46.6331 
G01 X31.3167 Y46.6085 
G01 X31.3167 Y46.4891 
G01 X31.3400 Y46.3721 
G01 X31.3583 Y46.3278 
G01 X31.3856 Y46.2619 
G01 X31.4519 Y46.1627 
G01 X31.5363 Y46.0783 
G01 X31.6325 Y45.9821 
G01 X31.6863 Y45.8523 
G01 X31.7077 Y45.8203 
G01 X31.7526 Y45.7531 
G01 X31.8369 Y45.6688 
G01 X31.9249 Y45.6100 
G01 X31.8842 Y45.4847 
G01 X31.8555 Y45.3036 
G01 X31.8555 Y43.5964 
G01 X31.8842 Y43.4153 
G01 X31.9249 Y43.2900 
G01 X31.8369 Y43.2312 
G01 X31.7526 Y43.1469 
G01 X31.7267 Y43.1082 
G01 X31.6863 Y43.0477 
G01 X31.6544 Y42.9708 
G01 X31.6088 Y42.8606 
G01 X31.5991 Y42.8120 
G01 X31.5855 Y42.7435 
G01 X31.5855 Y35.6767 
G01 X31.6088 Y35.5597 
G01 X31.6544 Y35.4495 
G01 X31.7207 Y35.3503 
G01 X31.8051 Y35.2659 
G01 X31.9043 Y35.1996 
G01 X32.5201 Y34.9445 
G01 X32.5545 Y34.9101 
G01 X32.6350 Y34.8296 
G01 X32.6389 Y34.8257 
G01 X32.7381 Y34.7594 
G01 X32.7828 Y34.7409 
G01 X32.8483 Y34.7138 
G01 X32.9653 Y34.6905 
G01 X33.0847 Y34.6905 
G01 X33.1299 Y34.6995 
G01 X33.2017 Y34.7138 
G01 X33.3119 Y34.7594 
G01 X33.3599 Y34.7915 
G01 X33.4111 Y34.8257 
G01 X33.4955 Y34.9101 
G01 X33.5199 Y34.9345 
G01 X34.0196 Y35.1415 
G01 X34.5604 Y35.1415 
G01 X35.0601 Y34.9345 
G01 X35.0895 Y34.9051 
G01 X35.1720 Y34.8226 
G01 X35.2731 Y34.7544 
G01 X35.3178 Y34.7359 
G01 X35.3833 Y34.7088 
G01 X35.5003 Y34.6855 
G01 X35.6197 Y34.6855 
G01 X35.6649 Y34.6945 
G01 X35.7367 Y34.7088 
G01 X35.8469 Y34.7544 
G01 X35.9461 Y34.8207 
G01 X36.0292 Y34.9038 
G01 X36.0599 Y34.9345 
G01 X36.5596 Y35.1415 
G01 X37.1004 Y35.1415 
G01 X37.6001 Y34.9345 
G01 X37.6295 Y34.9051 
G01 X37.7120 Y34.8226 
G01 X37.8131 Y34.7544 
G01 X37.8578 Y34.7359 
G01 X37.9233 Y34.7088 
G01 X38.0403 Y34.6855 
G01 X38.1597 Y34.6855 
G01 X38.2049 Y34.6945 
G01 X38.2767 Y34.7088 
G01 X38.3869 Y34.7544 
G01 X38.4861 Y34.8207 
G01 X38.5692 Y34.9038 
G01 X38.5999 Y34.9345 
G01 X39.0996 Y35.1415 
G01 X39.6404 Y35.1415 
G01 X40.1401 Y34.9345 
G01 X40.1695 Y34.9051 
G01 X40.2520 Y34.8226 
G01 X40.3531 Y34.7544 
G01 X40.3978 Y34.7359 
G01 X40.4633 Y34.7088 
G01 X40.5803 Y34.6855 
G01 X40.6997 Y34.6855 
G01 X40.7449 Y34.6945 
G01 X40.8167 Y34.7088 
G01 X40.9269 Y34.7544 
G01 X41.0261 Y34.8207 
G01 X41.1091 Y34.9038 
G01 X41.1399 Y34.9345 
G01 X41.6396 Y35.1415 
G01 X42.1804 Y35.1415 
G01 X42.6801 Y34.9345 
G01 X42.7095 Y34.9051 
G01 X42.7920 Y34.8226 
G01 X42.8931 Y34.7544 
G01 X42.9378 Y34.7359 
G01 X43.0033 Y34.7088 
G01 X43.1203 Y34.6855 
G01 X43.2397 Y34.6855 
G01 X43.2849 Y34.6945 
G01 X43.3567 Y34.7088 
G01 X43.4669 Y34.7544 
G01 X43.5661 Y34.8207 
G01 X43.6491 Y34.9038 
G01 X43.6799 Y34.9345 
G01 X44.1796 Y35.1415 
G01 X44.7204 Y35.1415 
G01 X45.2201 Y34.9345 
G01 X45.2495 Y34.9051 
G01 X45.3320 Y34.8226 
G01 X45.4331 Y34.7544 
G01 X45.4778 Y34.7359 
G01 X45.5433 Y34.7088 
G01 X45.6603 Y34.6855 
G01 X45.7797 Y34.6855 
G01 X45.8249 Y34.6945 
G01 X45.8967 Y34.7088 
G01 X46.0069 Y34.7544 
G01 X46.1061 Y34.8207 
G01 X46.1891 Y34.9038 
G01 X46.2199 Y34.9345 
G01 X46.7196 Y35.1415 
G01 X47.2604 Y35.1415 
G01 X47.7601 Y34.9345 
G01 X47.8739 Y34.8207 
G01 X47.9731 Y34.7544 
G01 X48.0833 Y34.7088 
G01 X48.1525 Y34.6950 
G01 X48.2003 Y34.6855 
G01 X48.3197 Y34.6855 
G01 X48.4367 Y34.7088 
G01 X48.5003 Y34.7351 
G01 X48.5469 Y34.7544 
G01 X48.6461 Y34.8207 
G01 X48.7305 Y34.9051 
G01 X48.7599 Y34.9345 
G01 X49.2596 Y35.1415 
G01 X49.8004 Y35.1415 
G01 X50.3001 Y34.9345 
G01 X50.3295 Y34.9051 
G01 X50.4120 Y34.8226 
G01 X50.5131 Y34.7544 
G01 X50.5578 Y34.7359 
G01 X50.6233 Y34.7088 
G01 X50.7403 Y34.6855 
G01 X50.8597 Y34.6855 
G01 X50.9049 Y34.6945 
G01 X50.9767 Y34.7088 
G01 X51.0869 Y34.7544 
G01 X51.1861 Y34.8207 
G01 X51.2691 Y34.9038 
G01 X51.2999 Y34.9345 
G01 X51.7996 Y35.1415 
G01 X52.3404 Y35.1415 
G01 X52.8401 Y34.9345 
G01 X52.8695 Y34.9051 
G01 X52.9520 Y34.8226 
G01 X53.0531 Y34.7544 
G01 X53.0978 Y34.7359 
G01 X53.1633 Y34.7088 
G01 X53.2803 Y34.6855 
G01 X53.3997 Y34.6855 
G01 X53.4449 Y34.6945 
G01 X53.5167 Y34.7088 
G01 X53.6269 Y34.7544 
G01 X53.7261 Y34.8207 
G01 X53.8092 Y34.9038 
G01 X53.8399 Y34.9345 
G01 X54.3396 Y35.1415 
G01 X54.8804 Y35.1415 
G01 X55.3801 Y34.9345 
G01 X55.4095 Y34.9051 
G01 X55.4920 Y34.8226 
G01 X55.5931 Y34.7544 
G01 X55.6378 Y34.7359 
G01 X55.7033 Y34.7088 
G01 X55.8203 Y34.6855 
G01 X55.9397 Y34.6855 
G01 X55.9849 Y34.6945 
G01 X56.0567 Y34.7088 
G01 X56.1669 Y34.7544 
G01 X56.2661 Y34.8207 
G01 X56.3492 Y34.9038 
G01 X56.3799 Y34.9345 
G01 X56.8796 Y35.1415 
G01 X57.4204 Y35.1415 
G01 X57.9201 Y34.9345 
G01 X57.9495 Y34.9051 
G01 X58.0320 Y34.8226 
G01 X58.1331 Y34.7544 
G01 X58.1778 Y34.7359 
G01 X58.2433 Y34.7088 
G01 X58.3603 Y34.6855 
G01 X58.4797 Y34.6855 
G01 X58.5249 Y34.6945 
G01 X58.5967 Y34.7088 
G01 X58.7069 Y34.7544 
G01 X58.8061 Y34.8207 
G01 X58.8892 Y34.9038 
G01 X58.9199 Y34.9345 
G01 X59.4196 Y35.1415 
G01 X59.9604 Y35.1415 
G01 X60.4601 Y34.9345 
G01 X60.4895 Y34.9051 
G01 X60.5720 Y34.8226 
G01 X60.6731 Y34.7544 
G01 X60.7178 Y34.7359 
G01 X60.7833 Y34.7088 
G01 X60.9003 Y34.6855 
G01 X61.0197 Y34.6855 
G01 X61.0649 Y34.6945 
G01 X61.1367 Y34.7088 
G01 X61.2469 Y34.7544 
G01 X61.3461 Y34.8207 
G01 X61.4291 Y34.9038 
G01 X61.4599 Y34.9345 
G01 X61.9596 Y35.1415 
G01 X62.5004 Y35.1415 
G01 X63.0001 Y34.9345 
G01 X63.3825 Y34.5521 
G01 X63.4363 Y34.4223 
G01 X63.4577 Y34.3903 
G01 X63.5026 Y34.3231 
G01 X63.5869 Y34.2388 
G01 X63.6749 Y34.1800 
G01 X63.6342 Y34.0547 
G01 X63.6055 Y33.8736 
G01 X63.6055 Y32.1664 
G01 X63.6342 Y31.9853 
G01 X63.6749 Y31.8600 
G01 X63.5869 Y31.8012 
G01 X63.5039 Y31.7182 
G01 X63.4594 Y31.6523 
G01 X63.4363 Y31.6177 
G01 X63.3825 Y31.4879 
G01 X63.0001 Y31.1055 
G01 X62.5004 Y30.8985 
G01 X61.9596 Y30.8985 
G01 X61.4599 Y31.1055 
G01 X61.3461 Y31.2193 
G01 X61.2469 Y31.2856 
G01 X61.1367 Y31.3312 
G01 X61.0675 Y31.3450 
G01 X61.0197 Y31.3545 
G01 X60.9003 Y31.3545 
G01 X60.7833 Y31.3312 
G01 X60.7197 Y31.3049 
G01 X60.6731 Y31.2856 
G01 X60.5739 Y31.2193 
G01 X60.4895 Y31.1349 
G01 X60.4601 Y31.1055 
G01 X59.9604 Y30.8985 
G01 X59.4196 Y30.8985 
G01 X58.9199 Y31.1055 
G01 X58.8061 Y31.2193 
G01 X58.7069 Y31.2856 
G01 X58.5967 Y31.3312 
G01 X58.5275 Y31.3450 
G01 X58.4797 Y31.3545 
G01 X58.3603 Y31.3545 
G01 X58.2433 Y31.3312 
G01 X58.1797 Y31.3049 
G01 X58.1331 Y31.2856 
G01 X58.0339 Y31.2193 
G01 X57.9495 Y31.1349 
G01 X57.9201 Y31.1055 
G01 X57.4204 Y30.8985 
G01 X56.8796 Y30.8985 
G01 X56.3799 Y31.1055 
G01 X56.2661 Y31.2193 
G01 X56.1669 Y31.2856 
G01 X56.0567 Y31.3312 
G01 X55.9875 Y31.3450 
G01 X55.9397 Y31.3545 
G01 X55.8203 Y31.3545 
G01 X55.7033 Y31.3312 
G01 X55.6397 Y31.3049 
G01 X55.5931 Y31.2856 
G01 X55.4939 Y31.2193 
G01 X55.4095 Y31.1349 
G01 X55.3801 Y31.1055 
G01 X54.8804 Y30.8985 
G01 X54.3396 Y30.8985 
G01 X53.8399 Y31.1055 
G01 X53.7261 Y31.2193 
G01 X53.6269 Y31.2856 
G01 X53.5167 Y31.3312 
G01 X53.4475 Y31.3450 
G01 X53.3997 Y31.3545 
G01 X53.2803 Y31.3545 
G01 X53.1633 Y31.3312 
G01 X53.0997 Y31.3049 
G01 X53.0531 Y31.2856 
G01 X52.9539 Y31.2193 
G01 X52.8695 Y31.1349 
G01 X52.8401 Y31.1055 
G01 X52.3404 Y30.8985 
G01 X51.7996 Y30.8985 
G01 X51.5281 Y31.0109 
G01 X51.4860 Y31.0284 
G01 X51.4179 Y31.0566 
G01 X51.3009 Y31.0799 
G01 X51.1815 Y31.0799 
G01 X51.1363 Y31.0709 
G01 X51.0645 Y31.0566 
G01 X50.9543 Y31.0110 
G01 X50.9063 Y30.9789 
G01 X50.8551 Y30.9447 
G01 X50.7707 Y30.8603 
G01 X50.7044 Y30.7611 
G01 X50.6859 Y30.7164 
G01 X50.6588 Y30.6509 
G01 X50.6355 Y30.5339 
G01 X50.6355 Y28.9901 
G01 X50.4672 Y28.5838 
G01 X47.9702 Y26.0868 
G01 X47.6162 Y25.7328 
G01 X47.2099 Y25.5645 
G01 X21.3701 Y25.5645 
G01 X20.9638 Y25.7328 
G01 X17.4573 Y29.2393 
G01 X17.3581 Y29.3056 
G01 X17.2479 Y29.3512 
G01 X17.1309 Y29.3745 
G01 X11.3762 Y29.3745 
G01 X11.3695 Y29.3732 
G01 X11.2591 Y29.3512 
G01 X11.2278 Y29.3382 
G01 X11.1489 Y29.3056 
G01 X11.0497 Y29.2393 
G01 X10.9653 Y29.1549 
G01 X10.9261 Y29.0962 
G01 X10.8990 Y29.0557 
G01 X10.8853 Y29.0225 
G01 X10.8534 Y28.9455 
G01 X10.8342 Y28.8490 
G01 X10.8301 Y28.8285 
G01 X10.8301 Y28.7091 
G01 X10.8314 Y28.7025 
G01 X10.8534 Y28.5921 
G01 X10.8692 Y28.5538 
G01 X10.8990 Y28.4819 
G01 X11.0115 Y28.2104 
G01 X11.0115 Y27.6696 
G01 X10.8045 Y27.1699 
G01 X10.4221 Y26.7875 
G01 X9.9224 Y26.5805 
G01 X7.8576 Y26.5805 
G01 X7.4108 Y26.7656 
G01 X7.3006 Y26.8112 
G01 X7.1835 Y26.8345 
G01 X6.1301 Y26.8345 
G01 X5.7238 Y27.0028 
G01 X5.2854 Y27.4412 
G01 X4.1428 Y28.5838 
G01 X3.9745 Y28.9901 
G01 X3.9745 Y40.8599 
G01 X4.1428 Y41.2662 
G01 X4.5812 Y41.7046 
G01 X6.9938 Y44.1172 
G01 X7.4001 Y44.2855 
G01 X15.6453 Y44.2855 
G01 X15.7624 Y44.3088 
G01 X15.8726 Y44.3544 
G01 X15.9718 Y44.4207 
G01 X16.0562 Y44.5051 
G01 X16.1425 Y44.5914 
G01 X16.1636 Y44.6230 
G01 X16.1864 Y44.6571 
G01 X16.8336 Y44.6571 
G01 X16.8547 Y44.6256 
G01 X16.8775 Y44.5914 
G01 X16.9619 Y44.5070 
G01 X17.0482 Y44.4207 
G01 X17.1474 Y44.3544 
G01 X17.2576 Y44.3088 
G01 X17.3747 Y44.2855 
G01 X21.8199 Y44.2855 
G01 X22.2262 Y44.1172 
G01 X28.3827 Y37.9607 
G01 X28.4819 Y37.8944 
G01 X28.5921 Y37.8488 
G01 X28.7091 Y37.8255 
G01 X28.8285 Y37.8255 
G01 X28.9455 Y37.8488 
G01 X29.0557 Y37.8944 
G01 X29.1549 Y37.9607 
G01 X29.2393 Y38.0451 
G01 X29.3056 Y38.1443 
G01 X29.3512 Y38.2545 
G01 X29.3745 Y38.3715 
G01 X29.3745 Y41.9639 
G01 X29.3512 Y42.0809 
G01 X29.3109 Y42.1781 
G01 X29.3056 Y42.1911 
G01 X29.2393 Y42.2903 
G01 X29.1549 Y42.3747 
G01 X29.0557 Y42.4410 
G01 X28.9455 Y42.4866 
G01 X28.8288 Y42.5098 
G01 X28.7091 Y42.5099 
G01 X28.5921 Y42.4866 
G01 X28.4910 Y42.4447 
G01 X28.4819 Y42.4410 
G01 X28.2104 Y42.3285 
G01 X27.6696 Y42.3285 
G01 X27.1699 Y42.5355 
G01 X26.7875 Y42.9179 
G01 X26.5805 Y43.4176 
G01 X26.5805 Y45.4824 
G01 X26.7656 Y45.9292 
G01 X26.7947 Y45.9996 
G01 X26.8112 Y46.0394 
G01 X26.8345 Y46.1564 
G01 X26.8345 Y47.2099 
G01 X27.0028 Y47.6162 
G01 X27.4412 Y48.0546 
G01 X28.5838 Y49.1972 
G01 X28.9901 Y49.3655 
G01 X39.7753 Y49.3655 
G01 X39.8923 Y49.3888 
G01 X40.0026 Y49.4344 
G01 X40.1018 Y49.5007 
G01 X40.1190 Y49.5179 
G01 X41.1610 Y49.5179 
G01 X41.1782 Y49.5007 
G01 X41.2301 Y49.4660 
G01 X41.2774 Y49.4344 
G01 X41.3221 Y49.4159 
G01 X41.3876 Y49.3888 
G01 X41.5047 Y49.3655 
G01 X44.6699 Y49.3655 
G01 X45.0762 Y49.1972 
G01 X45.5146 Y48.7588 
G01 X49.8527 Y44.4207 
G01 X49.9519 Y44.3544 
G01 X50.0621 Y44.3088 
G01 X50.1791 Y44.2855 
G01 X51.2053 Y44.2855 
G01 X51.2483 Y44.2940 
G01 X51.3223 Y44.3088 
G01 X51.4045 Y44.3428 
G01 X51.4326 Y44.3544 
G01 X51.5318 Y44.4207 
G01 X51.5896 Y44.4785 
G01 X51.6181 Y44.5070 
G01 X51.6447 Y44.5336 
G01 X51.7024 Y44.5914 
G01 X51.7233 Y44.6225 
G01 X51.7464 Y44.6571 
G01 X52.3936 Y44.6571 
G01 X52.4147 Y44.6256 
G01 X52.4375 Y44.5914 
G01 X52.5219 Y44.5070 
G01 X53.3279 Y43.7010 
G01 X53.3279 Y43.6767 
G01 X53.3512 Y43.5597 
G01 X53.3968 Y43.4495 
G01 X53.4631 Y43.3503 
G01 X53.5475 Y43.2659 
G01 X54.9327 Y41.8807 
G01 X55.0319 Y41.8144 
G01 X55.1421 Y41.7688 
G01 X55.2591 Y41.7455 
G01 X59.0409 Y41.7455 
G01 X59.1579 Y41.7688 
G01 X59.2681 Y41.8144 
G01 X59.3673 Y41.8807 
G01 X59.4517 Y41.9651 
G01 X59.7193 Y42.2327 
G01 X59.7856 Y42.3319 
G01 X59.8312 Y42.4421 
G01 X59.8545 Y42.5591 
G01 X59.8545 Y42.7435 
G01 X59.8532 Y42.7502 
G01 X59.8312 Y42.8606 
G01 X59.8122 Y42.9065 
G01 X59.7856 Y42.9708 
G01 X59.6005 Y43.4176 
G01 X59.6005 Y45.4824 
G01 X59.7856 Y45.9292 
G01 X59.8111 Y45.9908 
G01 X59.8312 Y46.0394 
G01 X59.8545 Y46.1564 
G01 X59.8545 Y49.7499 
G01 X60.0228 Y50.1562 
G01 X60.4612 Y50.5946 
G01 X61.2498 Y51.3832 
G01 X61.6038 Y51.7372 
G01 X62.0101 Y51.9055 
G01 X81.4999 Y51.9055 
G01 X81.9062 Y51.7372 
G01 X82.3446 Y51.2988 
G01 X85.4127 Y48.2307 
G01 X85.5119 Y48.1644 
G01 X85.6221 Y48.1188 
G01 X85.7391 Y48.0955 
G01 X85.9235 Y48.0955 
G01 X85.9302 Y48.0968 
G01 X86.0406 Y48.1188 
G01 X86.0865 Y48.1378 
G01 X86.1508 Y48.1644 
G01 X86.5976 Y48.3495 
G01 X88.6624 Y48.3495 
G01 X89.1621 Y48.1425 
G01 X89.5445 Y47.7601 
G01 X89.7515 Y47.2604 
G01 X89.7515 Y46.7196 
G01 X89.5445 Y46.2199 
G01 X89.1621 Y45.8375 
G01 X89.1424 Y45.8293 
G01 X89.0836 Y45.8050 
G01 X89.0323 Y45.7837 
G01 X88.9801 Y45.7488 
G01 X88.9331 Y45.7174 
G01 X88.8907 Y45.6750 
G01 X88.8488 Y45.6331 
G01 X88.8163 Y45.5844 
G01 X88.7900 Y45.5451 
G01 X88.6647 Y45.5858 
G01 X88.4836 Y45.6145 
G01 X86.7764 Y45.6145 
G01 X86.5953 Y45.5858 
G01 X86.4700 Y45.5451 
G01 X86.4438 Y45.5843 
G01 X86.4115 Y45.6328 
G01 X86.3693 Y45.6750 
G01 X86.3271 Y45.7172 
G01 X86.2794 Y45.7491 
G01 X86.2280 Y45.7836 
G01 X86.1748 Y45.8056 
G01 X86.1178 Y45.8293 
G01 X86.0836 Y45.8434 
G01 X86.0406 Y45.8612 
G01 X85.9235 Y45.8845 
G01 X84.8701 Y45.8845 
G01 X84.4638 Y46.0528 
G01 X80.9573 Y49.5593 
G01 X80.8581 Y49.6256 
G01 X80.7479 Y49.6712 
G01 X80.6309 Y49.6945 
G01 X62.8791 Y49.6945 
G01 X62.7621 Y49.6712 
G01 X62.6519 Y49.6256 
G01 X62.5527 Y49.5593 
G01 X62.4683 Y49.4749 
G01 X62.2007 Y49.2073 
G01 X62.1344 Y49.1081 
G01 X62.0888 Y48.9979 
G01 X62.0655 Y48.8809 
G01 X62.0655 Y46.9361 
G01 X62.0888 Y46.8191 
G01 X62.1151 Y46.7555 
G01 X62.1344 Y46.7089 
G01 X62.2007 Y46.6097 
G01 X62.2851 Y46.5253 
G01 X62.3324 Y46.4937 
G01 X62.3843 Y46.4590 
G01 X62.4945 Y46.4134 
G01 X62.5637 Y46.3996 
G01 X62.6115 Y46.3901 
G01 X62.7309 Y46.3901 
G01 X62.8479 Y46.4134 
G01 X62.9141 Y46.4408 
G01 X62.9581 Y46.4590 
G01 X63.2296 Y46.5715 
G01 X63.7704 Y46.5715 
G01 X64.2701 Y46.3645 
G01 X64.6525 Y45.9821 
G01 X64.6607 Y45.9624 
G01 X64.6850 Y45.9036 
G01 X64.7063 Y45.8523 
G01 X64.7411 Y45.8001 
G01 X64.7726 Y45.7531 
G01 X64.8149 Y45.7107 
G01 X64.8569 Y45.6688 
G01 X64.9056 Y45.6362 
G01 X64.9449 Y45.6100 
G01 X64.9042 Y45.4847 
G01 X64.8755 Y45.3036 
G01 X64.8755 Y43.5964 
G01 X64.9042 Y43.4153 
G01 X64.9449 Y43.2900 
G01 X64.9051 Y43.2634 
G01 X64.8572 Y43.2315 
G01 X64.8150 Y43.1893 
G01 X64.7728 Y43.1471 
G01 X64.7409 Y43.0994 
G01 X64.7064 Y43.0480 
G01 X64.6841 Y42.9942 
G01 X64.6607 Y42.9378 
G01 X64.6485 Y42.9081 
G01 X64.6208 Y42.8413 
G01 X64.5975 Y42.7242 
G01 X64.5975 Y40.0158 
G01 X64.6208 Y39.8988 
G01 X64.6664 Y39.7886 
G01 X64.7327 Y39.6894 
G01 X64.8171 Y39.6050 
G01 X65.0894 Y39.3327 
G01 X65.1886 Y39.2664 
G01 X65.2988 Y39.2208 
G01 X65.4158 Y39.1975 
G01 X66.6642 Y39.1975 
G01 X66.7812 Y39.2208 
G01 X66.8901 Y39.2659 
G01 X66.9906 Y39.3327 
G01 X67.0750 Y39.4171 
G01 X72.5875 Y44.9295 
G01 X72.6235 Y44.9656 
G01 X72.6718 Y45.0139 
G01 X72.6946 Y45.0480 
G01 X73.0338 Y45.3872 
G01 X73.4401 Y45.5555 
G01 X75.3353 Y45.5555 
G01 X75.3783 Y45.5640 
G01 X75.4523 Y45.5788 
G01 X75.5345 Y45.6128 
G01 X75.5626 Y45.6244 
G01 X75.6618 Y45.6907 
G01 X75.7196 Y45.7485 
G01 X75.7481 Y45.7770 
G01 X75.7747 Y45.8036 
G01 X75.8324 Y45.8614 
G01 X75.8533 Y45.8925 
G01 X75.8764 Y45.9271 
G01 X76.5236 Y45.9271 
G01 X76.5447 Y45.8956 
G01 X76.5675 Y45.8614 
G01 X76.6519 Y45.7770 
G01 X77.4579 Y44.9710 
G01 X77.4579 Y44.9467 
G01 X77.4812 Y44.8297 
G01 X77.5268 Y44.7195 
G01 X77.5931 Y44.6203 
G01 X77.6775 Y44.5359 
G01 X78.4072 Y43.8062 
G01 X78.5755 Y43.3999 
G01 X78.5755 Y34.7264 
G01 X78.5804 Y34.7019 
G01 X78.5988 Y34.6094 
G01 X78.6212 Y34.5553 
G01 X78.6444 Y34.4992 
G01 X78.6672 Y34.4443 
G01 X78.7198 Y34.3656 
G01 X78.7335 Y34.3451 
G01 X78.8178 Y34.2607 
G01 X78.9170 Y34.1944 
G01 X78.9803 Y34.1682 
G01 X79.0273 Y34.1488 
G01 X79.1443 Y34.1255 
G01 X82.7699 Y34.1255 
G01 X83.1762 Y33.9572 
G01 X83.6146 Y33.5188 
G01 X88.5672 Y28.5662 
G01 X88.7355 Y28.1599 
G01 X88.7355 Y25.8043 
G01 X88.7588 Y25.6873 
G01 X88.7990 Y25.5900 
G01 X88.8044 Y25.5770 
G01 X88.8707 Y25.4778 
G01 X88.9551 Y25.3935 
G01 X89.0025 Y25.3618 
G01 X89.0543 Y25.3272 
G01 X89.1022 Y25.3073 
G01 X89.1621 Y25.2825 
G01 X89.5445 Y24.9001 
G01 X89.7515 Y24.4004 
G01 X89.7515 Y23.8596 
G01 X89.5445 Y23.3599 
G01 X89.4307 Y23.2461 
G01 X89.3644 Y23.1469 
G01 X89.3188 Y23.0367 
G01 X89.3050 Y22.9675 
G01 X89.2955 Y22.9197 
G01 X89.2955 Y22.8003 
G01 X89.3188 Y22.6833 
G01 X89.3451 Y22.6197 
G01 X89.3644 Y22.5731 
G01 X89.4307 Y22.4739 
G01 X89.5151 Y22.3895 
G01 X89.5445 Y22.3601 
G01 X89.7515 Y21.8604 
G01 X89.7515 Y21.3196 
G01 X89.5445 Y20.8199 
G01 X89.4307 Y20.7061 
G01 X89.3644 Y20.6069 
G01 X89.3188 Y20.4967 
G01 X89.3050 Y20.4275 
G01 X89.2955 Y20.3797 
G01 X89.2955 Y20.2603 
G01 X89.3188 Y20.1433 
G01 X89.3451 Y20.0797 
G01 X89.3644 Y20.0331 
G01 X89.4307 Y19.9339 
G01 X89.5151 Y19.8495 
G01 X89.5445 Y19.8201 
G01 X89.7515 Y19.3204 
G01 X89.7515 Y18.7796 
G01 X89.5445 Y18.2799 
G01 X89.1621 Y17.8975 
G01 X89.1424 Y17.8893 
G01 X89.0836 Y17.8650 
G01 X89.0323 Y17.8437 
G01 X88.9801 Y17.8088 
G01 X88.9331 Y17.7774 
G01 X88.8907 Y17.7350 
G01 X88.8488 Y17.6931 
G01 X88.8162 Y17.6444 
G01 X88.7900 Y17.6051 
G01 X88.6647 Y17.6458 
G01 X88.4836 Y17.6745 
G01 X86.7764 Y17.6745 
G01 X86.5953 Y17.6458 
G01 X86.4700 Y17.6051 
G01 X86.4438 Y17.6443 
G01 X86.4115 Y17.6928 
G01 X86.3693 Y17.7350 
G01 X86.3271 Y17.7772 
G01 X86.2794 Y17.8091 
G01 X86.2280 Y17.8436 
G01 X86.1748 Y17.8656 
G01 X86.1178 Y17.8893 
G01 X86.0836 Y17.9034 
G01 X86.0406 Y17.9212 
G01 X85.9235 Y17.9445 
G01 X59.0691 Y17.9445 
G01 X58.9521 Y17.9212 
G01 X58.8419 Y17.8756 
G01 X58.7427 Y17.8093 
G01 X58.6583 Y17.7249 
G01 X53.3107 Y12.3773 
G01 X53.2444 Y12.2781 
G01 X53.1988 Y12.1679 
G01 X53.1755 Y12.0509 
G01 X53.1755 Y10.1062 
G01 X53.1768 Y10.0995 
G01 X53.1988 Y9.9891 
G01 X53.2118 Y9.9578 
G01 X53.2444 Y9.8789 
G01 X53.3107 Y9.7797 
G01 X53.3951 Y9.6953 
G01 X53.4538 Y9.6561 
G01 X53.4943 Y9.6290 
G01 X53.5275 Y9.6153 
G01 X53.6045 Y9.5834 
G01 X53.7010 Y9.5642 
G01 X53.7215 Y9.5601 
G01 X53.8409 Y9.5601 
G01 X53.8475 Y9.5614 
G01 X53.9579 Y9.5834 
G01 X53.9961 Y9.5992 
G01 X54.0681 Y9.6290 
G01 X54.3396 Y9.7415 
G01 X54.8804 Y9.7415 
G01 X55.3801 Y9.5345 
G01 X55.4939 Y9.4207 
G01 X55.5931 Y9.3544 
G01 X55.7033 Y9.3088 
G01 X55.7725 Y9.2950 
G01 X55.8203 Y9.2855 
G01 X55.9397 Y9.2855 
G01 X56.0567 Y9.3088 
G01 X56.1203 Y9.3351 
G01 X56.1669 Y9.3544 
G01 X56.2661 Y9.4207 
G01 X56.3505 Y9.5051 
G01 X56.3799 Y9.5345 
G01 X56.8796 Y9.7415 
G01 X57.4204 Y9.7415 
G01 X57.9201 Y9.5345 
G01 X58.0339 Y9.4207 
G01 X58.1331 Y9.3544 
G01 X58.2433 Y9.3088 
G01 X58.3125 Y9.2950 
G01 X58.3603 Y9.2855 
G01 X58.4797 Y9.2855 
G01 X58.5967 Y9.3088 
G01 X58.6603 Y9.3351 
G01 X58.7069 Y9.3544 
G01 X58.8061 Y9.4207 
G01 X58.8905 Y9.5051 
G01 X58.9199 Y9.5345 
G01 X59.4196 Y9.7415 
G01 X59.9604 Y9.7415 
G01 X60.4601 Y9.5345 
G01 X60.5739 Y9.4207 
G01 X60.6731 Y9.3544 
G01 X60.7833 Y9.3088 
G01 X60.8525 Y9.2950 
G01 X60.9003 Y9.2855 
G01 X61.0197 Y9.2855 
G01 X61.1367 Y9.3088 
G01 X61.2003 Y9.3351 
G01 X61.2469 Y9.3544 
G01 X61.3461 Y9.4207 
G01 X61.4305 Y9.5051 
G01 X61.4599 Y9.5345 
G01 X61.9596 Y9.7415 
G01 X62.5004 Y9.7415 
G01 X63.0001 Y9.5345 
G01 X63.1139 Y9.4207 
G01 X63.2131 Y9.3544 
G01 X63.3233 Y9.3088 
G01 X63.3925 Y9.2950 
G01 X63.4403 Y9.2855 
G01 X63.5597 Y9.2855 
G01 X63.6767 Y9.3088 
G01 X63.7403 Y9.3351 
G01 X63.7869 Y9.3544 
G01 X63.8861 Y9.4207 
G01 X63.9705 Y9.5051 
G01 X63.9999 Y9.5345 
G01 X64.4996 Y9.7415 
G01 X65.0404 Y9.7415 
G01 X65.5401 Y9.5345 
G01 X65.6539 Y9.4207 
G01 X65.7531 Y9.3544 
G01 X65.8633 Y9.3088 
G01 X65.9325 Y9.2950 
G01 X65.9803 Y9.2855 
G01 X66.0997 Y9.2855 
G01 X66.2167 Y9.3088 
G01 X66.2803 Y9.3351 
G01 X66.3269 Y9.3544 
G01 X66.4261 Y9.4207 
G01 X66.5105 Y9.5051 
G01 X66.5399 Y9.5345 
G01 X67.0396 Y9.7415 
G01 X67.5804 Y9.7415 
G01 X68.0801 Y9.5345 
G01 X68.1939 Y9.4207 
G01 X68.2931 Y9.3544 
G01 X68.4033 Y9.3088 
G01 X68.4725 Y9.2950 
G01 X68.5203 Y9.2855 
G01 X68.6397 Y9.2855 
G01 X68.7567 Y9.3088 
G01 X68.8203 Y9.3351 
G01 X68.8669 Y9.3544 
G01 X68.9661 Y9.4207 
G01 X69.0505 Y9.5051 
G01 X69.0799 Y9.5345 
G01 X69.5796 Y9.7415 
G01 X70.1204 Y9.7415 
G01 X70.6201 Y9.5345 
G01 X70.7339 Y9.4207 
G01 X70.8331 Y9.3544 
G01 X70.9433 Y9.3088 
G01 X71.0125 Y9.2950 
G01 X71.0603 Y9.2855 
G01 X71.1797 Y9.2855 
G01 X71.2967 Y9.3088 
G01 X71.3603 Y9.3351 
G01 X71.4069 Y9.3544 
G01 X71.5061 Y9.4207 
G01 X71.5905 Y9.5051 
G01 X71.6199 Y9.5345 
G01 X72.1196 Y9.7415 
G01 X72.6604 Y9.7415 
G01 X73.1601 Y9.5345 
G01 X73.2739 Y9.4207 
G01 X73.3731 Y9.3544 
G01 X73.4833 Y9.3088 
G01 X73.5525 Y9.2950 
G01 X73.6003 Y9.2855 
G01 X73.7197 Y9.2855 
G01 X73.8367 Y9.3088 
G01 X73.9003 Y9.3351 
G01 X73.9469 Y9.3544 
G01 X74.0461 Y9.4207 
G01 X74.1305 Y9.5051 
G01 X74.1599 Y9.5345 
G01 X74.6596 Y9.7415 
G01 X75.2004 Y9.7415 
G01 X75.7001 Y9.5345 
G01 X75.7295 Y9.5051 
G01 X75.7757 Y9.4589 
G01 X75.8139 Y9.4207 
G01 X75.9131 Y9.3544 
G01 X76.0233 Y9.3088 
G01 X76.1400 Y9.2856 
G01 X76.2597 Y9.2855 
G01 X76.3767 Y9.3088 
G01 X76.4739 Y9.3491 
G01 X76.4869 Y9.3544 
G01 X76.5861 Y9.4207 
G01 X76.6521 Y9.4867 
G01 X76.6705 Y9.5051 
G01 X76.6999 Y9.5345 
G01 X77.1996 Y9.7415 
G01 X77.7404 Y9.7415 
G01 X78.2401 Y9.5345 
G01 X78.6225 Y9.1521 
G01 X78.8295 Y8.6524 
G01 X78.8295 Y6.5876 
G01 X78.6225 Y6.0879 
G01 X78.2401 Y5.7055 
G01 X77.7404 Y5.4985 
G01 X77.1996 Y5.4985 
G01 X76.6999 Y5.7055 
G01 X76.6705 Y5.7349 
G01 X76.5880 Y5.8174 
G01 X76.4869 Y5.8856 
G01 X76.4422 Y5.9041 
G01 X76.3767 Y5.9312 
G01 X76.2597 Y5.9545 
G01 X76.1403 Y5.9545 
G01 X76.0951 Y5.9455 
G01 X76.0233 Y5.9312 
G01 X75.9131 Y5.8856 
G01 X75.8139 Y5.8193 
G01 X75.7308 Y5.7362 
G01 X75.7001 Y5.7055 
G01 X75.2004 Y5.4985 
G01 X74.6596 Y5.4985 
G01 X74.1599 Y5.7055 
G01 X74.1305 Y5.7349 
G01 X74.0480 Y5.8174 
G01 X73.9469 Y5.8856 
G01 X73.9022 Y5.9041 
G01 X73.8367 Y5.9312 
G01 X73.7197 Y5.9545 
G01 X73.6003 Y5.9545 
G01 X73.5551 Y5.9455 
G01 X73.4833 Y5.9312 
G01 X73.3731 Y5.8856 
G01 X73.2739 Y5.8193 
G01 X73.1908 Y5.7362 
G01 X73.1601 Y5.7055 
G01 X72.6604 Y5.4985 
G01 X72.1196 Y5.4985 
G01 X71.6199 Y5.7055 
G01 X71.5905 Y5.7349 
G01 X71.5080 Y5.8174 
G01 X71.4069 Y5.8856 
G01 X71.3622 Y5.9041 
G01 X71.2967 Y5.9312 
G01 X71.1797 Y5.9545 
G01 X71.0603 Y5.9545 
G01 X71.0151 Y5.9455 
G01 X70.9433 Y5.9312 
G01 X70.8331 Y5.8856 
G01 X70.7339 Y5.8193 
G01 X70.6508 Y5.7362 
G01 X70.6201 Y5.7055 
G01 X70.1204 Y5.4985 
G01 X69.5796 Y5.4985 
G01 X69.0799 Y5.7055 
G01 X69.0505 Y5.7349 
G01 X68.9680 Y5.8174 
G01 X68.8669 Y5.8856 
G01 X68.8222 Y5.9041 
G01 X68.7567 Y5.9312 
G01 X68.6397 Y5.9545 
G01 X68.5203 Y5.9545 
G01 X68.4751 Y5.9455 
G01 X68.4033 Y5.9312 
G01 X68.2931 Y5.8856 
G01 X68.1939 Y5.8193 
G01 X68.1108 Y5.7362 
G01 X68.0801 Y5.7055 
G01 X67.5804 Y5.4985 
G01 X67.0396 Y5.4985 
G01 X66.5399 Y5.7055 
G01 X66.5105 Y5.7349 
G01 X66.4280 Y5.8174 
G01 X66.3269 Y5.8856 
G01 X66.2822 Y5.9041 
G01 X66.2167 Y5.9312 
G01 X66.0997 Y5.9545 
G01 X65.9803 Y5.9545 
G01 X65.9351 Y5.9455 
G01 X65.8633 Y5.9312 
G01 X65.7531 Y5.8856 
G01 X65.6539 Y5.8193 
G01 X65.5708 Y5.7362 
G01 X65.5401 Y5.7055 
G01 X65.0404 Y5.4985 
G01 X64.4996 Y5.4985 
G01 X63.9999 Y5.7055 
G01 X63.9705 Y5.7349 
G01 X63.8880 Y5.8174 
G01 X63.7869 Y5.8856 
G01 X63.7422 Y5.9041 
G01 X63.6767 Y5.9312 
G01 X63.5597 Y5.9545 
G01 X63.4403 Y5.9545 
G01 X63.3951 Y5.9455 
G01 X63.3233 Y5.9312 
G01 X63.2131 Y5.8856 
G01 X63.1139 Y5.8193 
G01 X63.0308 Y5.7362 
G01 X63.0001 Y5.7055 
G01 X62.5004 Y5.4985 
G01 X61.9596 Y5.4985 
G01 X61.4599 Y5.7055 
G01 X61.4305 Y5.7349 
G01 X61.3480 Y5.8174 
G01 X61.2469 Y5.8856 
G01 X61.2022 Y5.9041 
G01 X61.1367 Y5.9312 
G01 X61.0197 Y5.9545 
G01 X60.9003 Y5.9545 
G01 X60.8551 Y5.9455 
G01 X60.7833 Y5.9312 
G01 X60.6731 Y5.8856 
G01 X60.5739 Y5.8193 
G01 X60.4908 Y5.7362 
G01 X60.4601 Y5.7055 
G01 X59.9604 Y5.4985 
G01 X59.4196 Y5.4985 
G01 X58.9199 Y5.7055 
G01 X58.8905 Y5.7349 
G01 X58.8080 Y5.8174 
G01 X58.7069 Y5.8856 
G01 X58.6622 Y5.9041 
G01 X58.5967 Y5.9312 
G01 X58.4797 Y5.9545 
G01 X58.3603 Y5.9545 
G01 X58.3151 Y5.9455 
G01 X58.2433 Y5.9312 
G01 X58.1331 Y5.8856 
G01 X58.0339 Y5.8193 
G01 X57.9508 Y5.7362 
G01 X57.9201 Y5.7055 
G01 X57.4204 Y5.4985 
G01 X56.8796 Y5.4985 
G01 X56.3799 Y5.7055 
G01 X56.3505 Y5.7349 
G01 X56.2680 Y5.8174 
G01 X56.1669 Y5.8856 
G01 X56.1222 Y5.9041 
G01 X56.0567 Y5.9312 
G01 X55.9397 Y5.9545 
G01 X55.8203 Y5.9545 
G01 X55.7751 Y5.9455 
G01 X55.7033 Y5.9312 
G01 X55.5931 Y5.8856 
G01 X55.4939 Y5.8193 
G01 X55.4108 Y5.7362 
G01 X55.3801 Y5.7055 
G01 X54.8804 Y5.4985 
G01 X54.3396 Y5.4985 
G01 X53.8399 Y5.7055 
G01 X53.8105 Y5.7349 
G01 X53.7280 Y5.8174 
G01 X53.6269 Y5.8856 
G01 X53.5822 Y5.9041 
G01 X53.5167 Y5.9312 
G01 X53.3997 Y5.9545 
G01 X53.2803 Y5.9545 
G01 X53.2351 Y5.9455 
G01 X53.1633 Y5.9312 
G01 X53.0531 Y5.8856 
G01 X52.9539 Y5.8193 
G01 X52.8708 Y5.7362 
G01 X52.8401 Y5.7055 
G01 X52.3404 Y5.4985 
G01 X51.7996 Y5.4985 
G01 X51.2999 Y5.7055 
G01 X51.2705 Y5.7349 
G01 X51.1880 Y5.8174 
G01 X51.0869 Y5.8856 
G01 X51.0422 Y5.9041 
G01 X50.9767 Y5.9312 
G01 X50.8597 Y5.9545 
G01 X50.7403 Y5.9545 
G01 X50.6951 Y5.9455 
G01 X50.6233 Y5.9312 
G01 X50.5131 Y5.8856 
G01 X50.4139 Y5.8193 
G01 X50.3308 Y5.7362 
G01 X50.3001 Y5.7055 
G01 X49.8004 Y5.4985 
G01 X49.2596 Y5.4985 
G01 X48.7599 Y5.7055 
G01 X48.3775 Y6.0879 
G01 X48.3693 Y6.1076 
G01 X48.3450 Y6.1664 
G01 X48.3237 Y6.2177 
G01 X48.2888 Y6.2699 
G01 X48.2574 Y6.3169 
G01 X48.2150 Y6.3593 
G01 X48.1731 Y6.4012 
G01 X48.1244 Y6.4337 
G01 X48.0851 Y6.4600 
G01 X48.1258 Y6.5853 
G01 X48.1545 Y6.7664 
G01 X48.1545 Y8.4736 
G01 X48.1258 Y8.6547 
G01 X48.0851 Y8.7800 
G01 X48.1243 Y8.8062 
G01 X48.1728 Y8.8385 
G01 X48.2150 Y8.8807 
G01 X48.2572 Y8.9229 
G01 X48.2888 Y8.9700 
G01 X48.3236 Y9.0220 
G01 X48.3449 Y9.0735 
G01 X48.3693 Y9.1322 
G01 X48.3775 Y9.1521 
G01 X48.7599 Y9.5345 
G01 X49.2596 Y9.7415 
G01 X49.8004 Y9.7415 
G01 X50.0719 Y9.6291 
G01 X50.1416 Y9.6002 
G01 X50.1821 Y9.5834 
G01 X50.2991 Y9.5601 
G01 X50.4185 Y9.5601 
G01 X50.4368 Y9.5638 
G01 X50.5355 Y9.5834 
G01 X50.6144 Y9.6161 
G01 X50.6457 Y9.6290 
G01 X50.6847 Y9.6551 
G01 X50.7449 Y9.6953 
G01 X50.8293 Y9.7797 
G01 X50.8956 Y9.8789 
G01 X50.9275 Y9.9559 
G01 X50.9412 Y9.9891 
G01 X50.9645 Y10.1062 
G01 X50.9645 Y12.9199 
G01 X51.1328 Y13.3262 
G01 X57.2993 Y19.4927 
G01 X57.3656 Y19.5919 
G01 X57.4112 Y19.7021 
G01 X57.4345 Y19.8191 
G01 X57.4345 Y19.9385 
G01 X57.4112 Y20.0555 
G01 X57.3656 Y20.1657 
G01 X57.2993 Y20.2649 
G01 X57.2149 Y20.3493 
G01 X57.1157 Y20.4156 
G01 X57.0055 Y20.4612 
G01 X56.8885 Y20.4845 
G01 X45.0991 Y20.4845 
G01 X44.9821 Y20.4612 
G01 X44.8719 Y20.4156 
G01 X44.7727 Y20.3493 
G01 X44.6883 Y20.2649 
G01 X35.5307 Y11.1073 
G01 X35.4644 Y11.0081 
G01 X35.4188 Y10.8979 
G01 X35.3955 Y10.7809 
G01 X35.3955 Y10.1061 
G01 X35.4188 Y9.9891 
G01 X35.4451 Y9.9255 
G01 X35.4644 Y9.8789 
G01 X35.5307 Y9.7797 
G01 X35.6151 Y9.6953 
G01 X35.6624 Y9.6637 
G01 X35.7143 Y9.6290 
G01 X35.8245 Y9.5834 
G01 X35.8937 Y9.5696 
G01 X35.9415 Y9.5601 
G01 X36.0609 Y9.5601 
G01 X36.1779 Y9.5834 
G01 X36.2441 Y9.6108 
G01 X36.2881 Y9.6290 
G01 X36.5596 Y9.7415 
G01 X37.1004 Y9.7415 
G01 X37.6001 Y9.5345 
G01 X37.6295 Y9.5051 
G01 X37.7120 Y9.4226 
G01 X37.8131 Y9.3544 
G01 X37.8578 Y9.3359 
G01 X37.9233 Y9.3088 
G01 X38.0403 Y9.2855 
G01 X38.1597 Y9.2855 
G01 X38.2049 Y9.2945 
G01 X38.2767 Y9.3088 
G01 X38.3869 Y9.3544 
G01 X38.4861 Y9.4207 
G01 X38.5692 Y9.5038 
G01 X38.5999 Y9.5345 
G01 X39.0996 Y9.7415 
G01 X39.6404 Y9.7415 
G01 X40.1401 Y9.5345 
G01 X40.2539 Y9.4207 
G01 X40.3531 Y9.3544 
G01 X40.4633 Y9.3088 
G01 X40.5325 Y9.2950 
G01 X40.5803 Y9.2855 
G01 X40.6997 Y9.2855 
G01 X40.8167 Y9.3088 
G01 X40.8803 Y9.3351 
G01 X40.9269 Y9.3544 
G01 X41.0261 Y9.4207 
G01 X41.1105 Y9.5051 
G01 X41.1399 Y9.5345 
G01 X41.6396 Y9.7415 
G01 X42.1804 Y9.7415 
G01 X42.6801 Y9.5345 
G01 X42.7939 Y9.4207 
G01 X42.8931 Y9.3544 
G01 X43.0033 Y9.3088 
G01 X43.0725 Y9.2950 
G01 X43.1203 Y9.2855 
G01 X43.2397 Y9.2855 
G01 X43.3567 Y9.3088 
G01 X43.4203 Y9.3351 
G01 X43.4669 Y9.3544 
G01 X43.5661 Y9.4207 
G01 X43.6505 Y9.5051 
G01 X43.6799 Y9.5345 
G01 X44.1796 Y9.7415 
G01 X44.7204 Y9.7415 
G01 X45.2201 Y9.5345 
G01 X45.6025 Y9.1521 
G01 X45.6107 Y9.1324 
G01 X45.6350 Y9.0736 
G01 X45.6563 Y9.0223 
G01 X45.6912 Y8.9701 
G01 X45.7226 Y8.9231 
G01 X45.7649 Y8.8807 
G01 X45.8069 Y8.8388 
G01 X45.8556 Y8.8063 
G01 X45.8949 Y8.7800 
G01 X45.8542 Y8.6547 
G01 X45.8255 Y8.4736 
G01 X45.8255 Y6.7664 
G01 X45.8542 Y6.5853 
G01 X45.8949 Y6.4600 
G01 X45.8557 Y6.4338 
G01 X45.8072 Y6.4015 
G01 X45.7650 Y6.3593 
G01 X45.7228 Y6.3171 
G01 X45.6912 Y6.2700 
G01 X45.6564 Y6.2180 
G01 X45.6351 Y6.1665 
G01 X45.6107 Y6.1078 
G01 X45.6025 Y6.0879 
G01 X45.2201 Y5.7055 
G01 X44.7204 Y5.4985 
G01 X44.1796 Y5.4985 
G01 X43.6799 Y5.7055 
G01 X43.6505 Y5.7349 
G01 X43.5680 Y5.8174 
G01 X43.4669 Y5.8856 
G01 X43.4222 Y5.9041 
G01 X43.3567 Y5.9312 
G01 X43.2397 Y5.9545 
G01 X43.1203 Y5.9545 
G01 X43.0751 Y5.9455 
G01 X43.0033 Y5.9312 
G01 X42.8931 Y5.8856 
G01 X42.7939 Y5.8193 
G01 X42.7108 Y5.7362 
G01 X42.6801 Y5.7055 
G01 X42.1804 Y5.4985 
G01 X41.6396 Y5.4985 
G01 X41.1399 Y5.7055 
G01 X41.1105 Y5.7349 
G01 X41.0280 Y5.8174 
G01 X40.9269 Y5.8856 
G01 X40.8822 Y5.9041 
G01 X40.8167 Y5.9312 
G01 X40.6997 Y5.9545 
G01 X40.5803 Y5.9545 
G01 X40.5351 Y5.9455 
G01 X40.4633 Y5.9312 
G01 X40.3531 Y5.8856 
G01 X40.2539 Y5.8193 
G01 X40.1708 Y5.7362 
G01 X40.1401 Y5.7055 
G01 X39.6404 Y5.4985 
G01 X39.0996 Y5.4985 
G01 X38.5999 Y5.7055 
G01 X38.4861 Y5.8193 
G01 X38.3869 Y5.8856 
G01 X38.2767 Y5.9312 
G01 X38.2075 Y5.9450 
G01 X38.1597 Y5.9545 
G01 X38.0403 Y5.9545 
G01 X37.9233 Y5.9312 
G01 X37.8597 Y5.9049 
G01 X37.8131 Y5.8856 
G01 X37.7139 Y5.8193 
G01 X37.6295 Y5.7349 
G01 X37.6001 Y5.7055 
G01 X37.1004 Y5.4985 
G01 X36.5596 Y5.4985 
G01 X36.0599 Y5.7055 
G01 X36.0305 Y5.7349 
G01 X35.9480 Y5.8174 
G01 X35.8469 Y5.8856 
G01 X35.8022 Y5.9041 
G01 X35.7367 Y5.9312 
G01 X35.6197 Y5.9545 
G01 X35.5003 Y5.9545 
G01 X35.4551 Y5.9455 
G01 X35.3833 Y5.9312 
G01 X35.2731 Y5.8856 
G01 X35.1739 Y5.8193 
G01 X35.0908 Y5.7362 
G01 X35.0601 Y5.7055 
G01 X34.5604 Y5.4985 
G01 X34.0196 Y5.4985 
G01 X33.5199 Y5.7055 
G01 X33.1375 Y6.0879 
G01 X33.0837 Y6.2177 
G01 X33.0623 Y6.2497 
G01 X33.0174 Y6.3169 
G01 X32.9331 Y6.4012 
G01 X32.8451 Y6.4600 
G01 X32.8858 Y6.5853 
G01 X32.9145 Y6.7664 
G00 Z2.0000 
G00 X35.4545 Y6.7664 
G01 Z-0.1000 F50.00 
G01 X35.4545 Y8.4736 F100.00 
G01 X35.4258 Y8.6547 
G01 X35.3692 Y8.8290 
G01 X35.2860 Y8.9923 
G01 X35.2005 Y9.1100 
G01 X35.2005 Y11.0529 
G01 X44.8271 Y20.6795 
G01 X86.1400 Y20.6795 
G01 X86.2577 Y20.5940 
G01 X86.4210 Y20.5108 
G01 X86.5953 Y20.4542 
G01 X86.7764 Y20.4255 
G01 X88.4836 Y20.4255 
G01 X88.6647 Y20.4542 
G01 X88.8390 Y20.5108 
G01 X89.0023 Y20.5940 
G01 X89.1506 Y20.7018 
G01 X89.2802 Y20.8314 
G01 X89.3880 Y20.9797 
G01 X89.4712 Y21.1430 
G01 X89.5278 Y21.3173 
G01 X89.5565 Y21.4984 
G01 X89.5565 Y21.6816 
G01 X89.5278 Y21.8627 
G01 X89.4712 Y22.0370 
G01 X89.3880 Y22.2003 
G01 X89.2802 Y22.3486 
G01 X89.1506 Y22.4782 
G01 X89.0023 Y22.5860 
G01 X88.8390 Y22.6692 
G01 X88.6647 Y22.7258 
G01 X88.4836 Y22.7545 
G01 X86.7764 Y22.7545 
G01 X86.5953 Y22.7258 
G01 X86.4210 Y22.6692 
G01 X86.2577 Y22.5860 
G01 X86.1400 Y22.5005 
G01 X44.3603 Y22.5005 
G01 X44.1844 Y22.4655 
G01 X44.0187 Y22.3969 
G01 X43.8696 Y22.2972 
G01 X43.7428 Y22.1704 
G01 X33.5828 Y12.0104 
G01 X33.4831 Y11.8613 
G01 X33.4145 Y11.6956 
G01 X33.3795 Y11.5197 
G01 X33.3795 Y9.1100 
G01 X33.2940 Y8.9923 
G01 X33.2108 Y8.8290 
G01 X33.1542 Y8.6547 
G01 X33.1255 Y8.4736 
G01 X33.1255 Y6.7664 
G01 X33.1542 Y6.5853 
G01 X33.2108 Y6.4110 
G01 X33.2940 Y6.2477 
G01 X33.4018 Y6.0994 
G01 X33.5314 Y5.9698 
G01 X33.6797 Y5.8620 
G01 X33.8430 Y5.7788 
G01 X34.0173 Y5.7222 
G01 X34.1984 Y5.6935 
G01 X34.3816 Y5.6935 
G01 X34.5627 Y5.7222 
G01 X34.7370 Y5.7788 
G01 X34.9003 Y5.8620 
G01 X35.0486 Y5.9698 
G01 X35.1782 Y6.0994 
G01 X35.2860 Y6.2477 
G01 X35.3692 Y6.4110 
G01 X35.4258 Y6.5853 
G01 X35.4545 Y6.7664 
G00 Z2.0000 
G00 X37.9945 Y6.7664 
G01 Z-0.1000 F50.00 
G01 X37.9945 Y8.4736 F100.00 
G01 X37.9658 Y8.6547 
G01 X37.9092 Y8.8290 
G01 X37.8260 Y8.9923 
G01 X37.7182 Y9.1406 
G01 X37.5886 Y9.2702 
G01 X37.4403 Y9.3780 
G01 X37.2770 Y9.4612 
G01 X37.1027 Y9.5178 
G01 X36.9216 Y9.5465 
G01 X36.7384 Y9.5465 
G01 X36.5573 Y9.5178 
G01 X36.3830 Y9.4612 
G01 X36.2197 Y9.3780 
G01 X36.0714 Y9.2702 
G01 X35.9418 Y9.1406 
G01 X35.8340 Y8.9923 
G01 X35.7508 Y8.8290 
G01 X35.6942 Y8.6547 
G01 X35.6655 Y8.4736 
G01 X35.6655 Y6.7664 
G01 X35.6942 Y6.5853 
G01 X35.7508 Y6.4110 
G01 X35.8340 Y6.2477 
G01 X35.9418 Y6.0994 
G01 X36.0714 Y5.9698 
G01 X36.2197 Y5.8620 
G01 X36.3830 Y5.7788 
G01 X36.5573 Y5.7222 
G01 X36.7384 Y5.6935 
G01 X36.9216 Y5.6935 
G01 X37.1027 Y5.7222 
G01 X37.2770 Y5.7788 
G01 X37.4403 Y5.8620 
G01 X37.5886 Y5.9698 
G01 X37.7182 Y6.0994 
G01 X37.8260 Y6.2477 
G01 X37.9092 Y6.4110 
G01 X37.9658 Y6.5853 
G01 X37.9945 Y6.7664 
G00 Z2.0000 
G00 X40.5345 Y6.7664 
G01 Z-0.1000 F50.00 
G01 X40.5345 Y8.4736 F100.00 
G01 X40.5058 Y8.6547 
G01 X40.4492 Y8.8290 
G01 X40.3660 Y8.9923 
G01 X40.2582 Y9.1406 
G01 X40.1286 Y9.2702 
G01 X39.9803 Y9.3780 
G01 X39.8170 Y9.4612 
G01 X39.6427 Y9.5178 
G01 X39.4616 Y9.5465 
G01 X39.2784 Y9.5465 
G01 X39.0973 Y9.5178 
G01 X38.9230 Y9.4612 
G01 X38.7597 Y9.3780 
G01 X38.6114 Y9.2702 
G01 X38.4818 Y9.1406 
G01 X38.3740 Y8.9923 
G01 X38.2908 Y8.8290 
G01 X38.2342 Y8.6547 
G01 X38.2055 Y8.4736 
G01 X38.2055 Y6.7664 
G01 X38.2342 Y6.5853 
G01 X38.2908 Y6.4110 
G01 X38.3740 Y6.2477 
G01 X38.4818 Y6.0994 
G01 X38.6114 Y5.9698 
G01 X38.7597 Y5.8620 
G01 X38.9230 Y5.7788 
G01 X39.0973 Y5.7222 
G01 X39.2784 Y5.6935 
G01 X39.4616 Y5.6935 
G01 X39.6427 Y5.7222 
G01 X39.8170 Y5.7788 
G01 X39.9803 Y5.8620 
G01 X40.1286 Y5.9698 
G01 X40.2582 Y6.0994 
G01 X40.3660 Y6.2477 
G01 X40.4492 Y6.4110 
G01 X40.5058 Y6.5853 
G01 X40.5345 Y6.7664 
G00 Z2.0000 
G00 X43.0745 Y6.7664 
G01 Z-0.1000 F50.00 
G01 X43.0745 Y8.4736 F100.00 
G01 X43.0458 Y8.6547 
G01 X42.9892 Y8.8290 
G01 X42.9060 Y8.9923 
G01 X42.7982 Y9.1406 
G01 X42.6686 Y9.2702 
G01 X42.5203 Y9.3780 
G01 X42.3570 Y9.4612 
G01 X42.1827 Y9.5178 
G01 X42.0016 Y9.5465 
G01 X41.8184 Y9.5465 
G01 X41.6373 Y9.5178 
G01 X41.4630 Y9.4612 
G01 X41.2997 Y9.3780 
G01 X41.1514 Y9.2702 
G01 X41.0218 Y9.1406 
G01 X40.9140 Y8.9923 
G01 X40.8308 Y8.8290 
G01 X40.7742 Y8.6547 
G01 X40.7455 Y8.4736 
G01 X40.7455 Y6.7664 
G01 X40.7742 Y6.5853 
G01 X40.8308 Y6.4110 
G01 X40.9140 Y6.2477 
G01 X41.0218 Y6.0994 
G01 X41.1514 Y5.9698 
G01 X41.2997 Y5.8620 
G01 X41.4630 Y5.7788 
G01 X41.6373 Y5.7222 
G01 X41.8184 Y5.6935 
G01 X42.0016 Y5.6935 
G01 X42.1827 Y5.7222 
G01 X42.3570 Y5.7788 
G01 X42.5203 Y5.8620 
G01 X42.6686 Y5.9698 
G01 X42.7982 Y6.0994 
G01 X42.9060 Y6.2477 
G01 X42.9892 Y6.4110 
G01 X43.0458 Y6.5853 
G01 X43.0745 Y6.7664 
G00 Z2.0000 
G00 X45.6145 Y6.7664 
G01 Z-0.1000 F50.00 
G01 X45.6145 Y8.4736 F100.00 
G01 X45.5858 Y8.6547 
G01 X45.5292 Y8.8290 
G01 X45.4460 Y8.9923 
G01 X45.3382 Y9.1406 
G01 X45.2086 Y9.2702 
G01 X45.0603 Y9.3780 
G01 X44.8970 Y9.4612 
G01 X44.7227 Y9.5178 
G01 X44.5416 Y9.5465 
G01 X44.3584 Y9.5465 
G01 X44.1773 Y9.5178 
G01 X44.0030 Y9.4612 
G01 X43.8397 Y9.3780 
G01 X43.6914 Y9.2702 
G01 X43.5618 Y9.1406 
G01 X43.4540 Y8.9923 
G01 X43.3708 Y8.8290 
G01 X43.3142 Y8.6547 
G01 X43.2855 Y8.4736 
G01 X43.2855 Y6.7664 
G01 X43.3142 Y6.5853 
G01 X43.3708 Y6.4110 
G01 X43.4540 Y6.2477 
G01 X43.5618 Y6.0994 
G01 X43.6914 Y5.9698 
G01 X43.8397 Y5.8620 
G01 X44.0030 Y5.7788 
G01 X44.1773 Y5.7222 
G01 X44.3584 Y5.6935 
G01 X44.5416 Y5.6935 
G01 X44.7227 Y5.7222 
G01 X44.8970 Y5.7788 
G01 X45.0603 Y5.8620 
G01 X45.2086 Y5.9698 
G01 X45.3382 Y6.0994 
G01 X45.4460 Y6.2477 
G01 X45.5292 Y6.4110 
G01 X45.5858 Y6.5853 
G01 X45.6145 Y6.7664 
G00 Z2.0000 
G00 X50.6945 Y6.7664 
G01 Z-0.1000 F50.00 
G01 X50.6945 Y8.4736 F100.00 
G01 X50.6658 Y8.6547 
G01 X50.6092 Y8.8290 
G01 X50.5260 Y8.9923 
G01 X50.4182 Y9.1406 
G01 X50.2886 Y9.2702 
G01 X50.1403 Y9.3780 
G01 X49.9770 Y9.4612 
G01 X49.8027 Y9.5178 
G01 X49.6216 Y9.5465 
G01 X49.4383 Y9.5465 
G01 X49.2573 Y9.5178 
G01 X49.0830 Y9.4612 
G01 X48.9197 Y9.3780 
G01 X48.7714 Y9.2702 
G01 X48.6418 Y9.1406 
G01 X48.5340 Y8.9923 
G01 X48.4508 Y8.8290 
G01 X48.3942 Y8.6547 
G01 X48.3655 Y8.4736 
G01 X48.3655 Y6.7664 
G01 X48.3942 Y6.5853 
G01 X48.4508 Y6.4110 
G01 X48.5340 Y6.2477 
G01 X48.6418 Y6.0994 
G01 X48.7714 Y5.9698 
G01 X48.9197 Y5.8620 
G01 X49.0830 Y5.7788 
G01 X49.2573 Y5.7222 
G01 X49.4383 Y5.6935 
G01 X49.6216 Y5.6935 
G01 X49.8027 Y5.7222 
G01 X49.9770 Y5.7788 
G01 X50.1403 Y5.8620 
G01 X50.2886 Y5.9698 
G01 X50.4182 Y6.0994 
G01 X50.5260 Y6.2477 
G01 X50.6092 Y6.4110 
G01 X50.6658 Y6.5853 
G01 X50.6945 Y6.7664 
G00 Z2.0000 
G00 X55.7745 Y6.7664 
G01 Z-0.1000 F50.00 
G01 X55.7745 Y8.4736 F100.00 
G01 X55.7458 Y8.6547 
G01 X55.6892 Y8.8290 
G01 X55.6060 Y8.9923 
G01 X55.4982 Y9.1406 
G01 X55.3686 Y9.2702 
G01 X55.2203 Y9.3780 
G01 X55.0570 Y9.4612 
G01 X54.8827 Y9.5178 
G01 X54.7016 Y9.5465 
G01 X54.5184 Y9.5465 
G01 X54.3373 Y9.5178 
G01 X54.1630 Y9.4612 
G01 X53.9997 Y9.3780 
G01 X53.8514 Y9.2702 
G01 X53.7218 Y9.1406 
G01 X53.6140 Y8.9923 
G01 X53.5308 Y8.8290 
G01 X53.4742 Y8.6547 
G01 X53.4455 Y8.4736 
G01 X53.4455 Y6.7664 
G01 X53.4742 Y6.5853 
G01 X53.5308 Y6.4110 
G01 X53.6140 Y6.2477 
G01 X53.7218 Y6.0994 
G01 X53.8514 Y5.9698 
G01 X53.9997 Y5.8620 
G01 X54.1630 Y5.7788 
G01 X54.3373 Y5.7222 
G01 X54.5184 Y5.6935 
G01 X54.7016 Y5.6935 
G01 X54.8827 Y5.7222 
G01 X55.0570 Y5.7788 
G01 X55.2203 Y5.8620 
G01 X55.3686 Y5.9698 
G01 X55.4982 Y6.0994 
G01 X55.6060 Y6.2477 
G01 X55.6892 Y6.4110 
G01 X55.7458 Y6.5853 
G01 X55.7745 Y6.7664 
G00 Z2.0000 
G00 X58.3145 Y6.7664 
G01 Z-0.1000 F50.00 
G01 X58.3145 Y8.4736 F100.00 
G01 X58.2858 Y8.6547 
G01 X58.2292 Y8.8290 
G01 X58.1460 Y8.9923 
G01 X58.0382 Y9.1406 
G01 X57.9086 Y9.2702 
G01 X57.7603 Y9.3780 
G01 X57.5970 Y9.4612 
G01 X57.4227 Y9.5178 
G01 X57.2416 Y9.5465 
G01 X57.0584 Y9.5465 
G01 X56.8773 Y9.5178 
G01 X56.7030 Y9.4612 
G01 X56.5397 Y9.3780 
G01 X56.3914 Y9.2702 
G01 X56.2618 Y9.1406 
G01 X56.1540 Y8.9923 
G01 X56.0708 Y8.8290 
G01 X56.0142 Y8.6547 
G01 X55.9855 Y8.4736 
G01 X55.9855 Y6.7664 
G01 X56.0142 Y6.5853 
G01 X56.0708 Y6.4110 
G01 X56.1540 Y6.2477 
G01 X56.2618 Y6.0994 
G01 X56.3914 Y5.9698 
G01 X56.5397 Y5.8620 
G01 X56.7030 Y5.7788 
G01 X56.8773 Y5.7222 
G01 X57.0584 Y5.6935 
G01 X57.2416 Y5.6935 
G01 X57.4227 Y5.7222 
G01 X57.5970 Y5.7788 
G01 X57.7603 Y5.8620 
G01 X57.9086 Y5.9698 
G01 X58.0382 Y6.0994 
G01 X58.1460 Y6.2477 
G01 X58.2292 Y6.4110 
G01 X58.2858 Y6.5853 
G01 X58.3145 Y6.7664 
G00 Z2.0000 
G00 X60.8545 Y6.7664 
G01 Z-0.1000 F50.00 
G01 X60.8545 Y8.4736 F100.00 
G01 X60.8258 Y8.6547 
G01 X60.7692 Y8.8290 
G01 X60.6860 Y8.9923 
G01 X60.5782 Y9.1406 
G01 X60.4486 Y9.2702 
G01 X60.3003 Y9.3780 
G01 X60.1370 Y9.4612 
G01 X59.9627 Y9.5178 
G01 X59.7816 Y9.5465 
G01 X59.5984 Y9.5465 
G01 X59.4173 Y9.5178 
G01 X59.2430 Y9.4612 
G01 X59.0797 Y9.3780 
G01 X58.9314 Y9.2702 
G01 X58.8018 Y9.1406 
G01 X58.6940 Y8.9923 
G01 X58.6108 Y8.8290 
G01 X58.5542 Y8.6547 
G01 X58.5255 Y8.4736 
G01 X58.5255 Y6.7664 
G01 X58.5542 Y6.5853 
G01 X58.6108 Y6.4110 
G01 X58.6940 Y6.2477 
G01 X58.8018 Y6.0994 
G01 X58.9314 Y5.9698 
G01 X59.0797 Y5.8620 
G01 X59.2430 Y5.7788 
G01 X59.4173 Y5.7222 
G01 X59.5984 Y5.6935 
G01 X59.7816 Y5.6935 
G01 X59.9627 Y5.7222 
G01 X60.1370 Y5.7788 
G01 X60.3003 Y5.8620 
G01 X60.4486 Y5.9698 
G01 X60.5782 Y6.0994 
G01 X60.6860 Y6.2477 
G01 X60.7692 Y6.4110 
G01 X60.8258 Y6.5853 
G01 X60.8545 Y6.7664 
G00 Z2.0000 
G00 X63.3945 Y6.7664 
G01 Z-0.1000 F50.00 
G01 X63.3945 Y8.4736 F100.00 
G01 X63.3658 Y8.6547 
G01 X63.3092 Y8.8290 
G01 X63.2260 Y8.9923 
G01 X63.1182 Y9.1406 
G01 X62.9886 Y9.2702 
G01 X62.8403 Y9.3780 
G01 X62.6770 Y9.4612 
G01 X62.5027 Y9.5178 
G01 X62.3216 Y9.5465 
G01 X62.1384 Y9.5465 
G01 X61.9573 Y9.5178 
G01 X61.7830 Y9.4612 
G01 X61.6197 Y9.3780 
G01 X61.4714 Y9.2702 
G01 X61.3418 Y9.1406 
G01 X61.2340 Y8.9923 
G01 X61.1508 Y8.8290 
G01 X61.0942 Y8.6547 
G01 X61.0655 Y8.4736 
G01 X61.0655 Y6.7664 
G01 X61.0942 Y6.5853 
G01 X61.1508 Y6.4110 
G01 X61.2340 Y6.2477 
G01 X61.3418 Y6.0994 
G01 X61.4714 Y5.9698 
G01 X61.6197 Y5.8620 
G01 X61.7830 Y5.7788 
G01 X61.9573 Y5.7222 
G01 X62.1384 Y5.6935 
G01 X62.3216 Y5.6935 
G01 X62.5027 Y5.7222 
G01 X62.6770 Y5.7788 
G01 X62.8403 Y5.8620 
G01 X62.9886 Y5.9698 
G01 X63.1182 Y6.0994 
G01 X63.2260 Y6.2477 
G01 X63.3092 Y6.4110 
G01 X63.3658 Y6.5853 
G01 X63.3945 Y6.7664 
G00 Z2.0000 
G00 X65.9345 Y6.7664 
G01 Z-0.1000 F50.00 
G01 X65.9345 Y8.4736 F100.00 
G01 X65.9058 Y8.6547 
G01 X65.8492 Y8.8290 
G01 X65.7660 Y8.9923 
G01 X65.6582 Y9.1406 
G01 X65.5286 Y9.2702 
G01 X65.3803 Y9.3780 
G01 X65.2170 Y9.4612 
G01 X65.0427 Y9.5178 
G01 X64.8616 Y9.5465 
G01 X64.6784 Y9.5465 
G01 X64.4973 Y9.5178 
G01 X64.3230 Y9.4612 
G01 X64.1597 Y9.3780 
G01 X64.0114 Y9.2702 
G01 X63.8818 Y9.1406 
G01 X63.7740 Y8.9923 
G01 X63.6908 Y8.8290 
G01 X63.6342 Y8.6547 
G01 X63.6055 Y8.4736 
G01 X63.6055 Y6.7664 
G01 X63.6342 Y6.5853 
G01 X63.6908 Y6.4110 
G01 X63.7740 Y6.2477 
G01 X63.8818 Y6.0994 
G01 X64.0114 Y5.9698 
G01 X64.1597 Y5.8620 
G01 X64.3230 Y5.7788 
G01 X64.4973 Y5.7222 
G01 X64.6784 Y5.6935 
G01 X64.8616 Y5.6935 
G01 X65.0427 Y5.7222 
G01 X65.2170 Y5.7788 
G01 X65.3803 Y5.8620 
G01 X65.5286 Y5.9698 
G01 X65.6582 Y6.0994 
G01 X65.7660 Y6.2477 
G01 X65.8492 Y6.4110 
G01 X65.9058 Y6.5853 
G01 X65.9345 Y6.7664 
G00 Z2.0000 
G00 X68.4745 Y6.7664 
G01 Z-0.1000 F50.00 
G01 X68.4745 Y8.4736 F100.00 
G01 X68.4458 Y8.6547 
G01 X68.3892 Y8.8290 
G01 X68.3060 Y8.9923 
G01 X68.1982 Y9.1406 
G01 X68.0686 Y9.2702 
G01 X67.9203 Y9.3780 
G01 X67.7570 Y9.4612 
G01 X67.5827 Y9.5178 
G01 X67.4016 Y9.5465 
G01 X67.2184 Y9.5465 
G01 X67.0373 Y9.5178 
G01 X66.8630 Y9.4612 
G01 X66.6997 Y9.3780 
G01 X66.5514 Y9.2702 
G01 X66.4218 Y9.1406 
G01 X66.3140 Y8.9923 
G01 X66.2308 Y8.8290 
G01 X66.1742 Y8.6547 
G01 X66.1455 Y8.4736 
G01 X66.1455 Y6.7664 
G01 X66.1742 Y6.5853 
G01 X66.2308 Y6.4110 
G01 X66.3140 Y6.2477 
G01 X66.4218 Y6.0994 
G01 X66.5514 Y5.9698 
G01 X66.6997 Y5.8620 
G01 X66.8630 Y5.7788 
G01 X67.0373 Y5.7222 
G01 X67.2184 Y5.6935 
G01 X67.4016 Y5.6935 
G01 X67.5827 Y5.7222 
G01 X67.7570 Y5.7788 
G01 X67.9203 Y5.8620 
G01 X68.0686 Y5.9698 
G01 X68.1982 Y6.0994 
G01 X68.3060 Y6.2477 
G01 X68.3892 Y6.4110 
G01 X68.4458 Y6.5853 
G01 X68.4745 Y6.7664 
G00 Z2.0000 
G00 X71.0145 Y6.7664 
G01 Z-0.1000 F50.00 
G01 X71.0145 Y8.4736 F100.00 
G01 X70.9858 Y8.6547 
G01 X70.9292 Y8.8290 
G01 X70.8460 Y8.9923 
G01 X70.7382 Y9.1406 
G01 X70.6086 Y9.2702 
G01 X70.4603 Y9.3780 
G01 X70.2970 Y9.4612 
G01 X70.1227 Y9.5178 
G01 X69.9416 Y9.5465 
G01 X69.7584 Y9.5465 
G01 X69.5773 Y9.5178 
G01 X69.4030 Y9.4612 
G01 X69.2397 Y9.3780 
G01 X69.0914 Y9.2702 
G01 X68.9618 Y9.1406 
G01 X68.8540 Y8.9923 
G01 X68.7708 Y8.8290 
G01 X68.7142 Y8.6547 
G01 X68.6855 Y8.4736 
G01 X68.6855 Y6.7664 
G01 X68.7142 Y6.5853 
G01 X68.7708 Y6.4110 
G01 X68.8540 Y6.2477 
G01 X68.9618 Y6.0994 
G01 X69.0914 Y5.9698 
G01 X69.2397 Y5.8620 
G01 X69.4030 Y5.7788 
G01 X69.5773 Y5.7222 
G01 X69.7584 Y5.6935 
G01 X69.9416 Y5.6935 
G01 X70.1227 Y5.7222 
G01 X70.2970 Y5.7788 
G01 X70.4603 Y5.8620 
G01 X70.6086 Y5.9698 
G01 X70.7382 Y6.0994 
G01 X70.8460 Y6.2477 
G01 X70.9292 Y6.4110 
G01 X70.9858 Y6.5853 
G01 X71.0145 Y6.7664 
G00 Z2.0000 
G00 X73.5545 Y6.7664 
G01 Z-0.1000 F50.00 
G01 X73.5545 Y8.4736 F100.00 
G01 X73.5258 Y8.6547 
G01 X73.4692 Y8.8290 
G01 X73.3860 Y8.9923 
G01 X73.2782 Y9.1406 
G01 X73.1486 Y9.2702 
G01 X73.0003 Y9.3780 
G01 X72.8370 Y9.4612 
G01 X72.6627 Y9.5178 
G01 X72.4816 Y9.5465 
G01 X72.2983 Y9.5465 
G01 X72.1173 Y9.5178 
G01 X71.9430 Y9.4612 
G01 X71.7797 Y9.3780 
G01 X71.6314 Y9.2702 
G01 X71.5018 Y9.1406 
G01 X71.3940 Y8.9923 
G01 X71.3108 Y8.8290 
G01 X71.2542 Y8.6547 
G01 X71.2255 Y8.4736 
G01 X71.2255 Y6.7664 
G01 X71.2542 Y6.5853 
G01 X71.3108 Y6.4110 
G01 X71.3940 Y6.2477 
G01 X71.5018 Y6.0994 
G01 X71.6314 Y5.9698 
G01 X71.7797 Y5.8620 
G01 X71.9430 Y5.7788 
G01 X72.1173 Y5.7222 
G01 X72.2983 Y5.6935 
G01 X72.4816 Y5.6935 
G01 X72.6627 Y5.7222 
G01 X72.8370 Y5.7788 
G01 X73.0003 Y5.8620 
G01 X73.1486 Y5.9698 
G01 X73.2782 Y6.0994 
G01 X73.3860 Y6.2477 
G01 X73.4692 Y6.4110 
G01 X73.5258 Y6.5853 
G01 X73.5545 Y6.7664 
G00 Z2.0000 
G00 X76.0945 Y6.7664 
G01 Z-0.1000 F50.00 
G01 X76.0945 Y8.4736 F100.00 
G01 X76.0658 Y8.6547 
G01 X76.0092 Y8.8290 
G01 X75.9260 Y8.9923 
G01 X75.8182 Y9.1406 
G01 X75.6886 Y9.2702 
G01 X75.5403 Y9.3780 
G01 X75.3770 Y9.4612 
G01 X75.2027 Y9.5178 
G01 X75.0216 Y9.5465 
G01 X74.8384 Y9.5465 
G01 X74.6573 Y9.5178 
G01 X74.4830 Y9.4612 
G01 X74.3197 Y9.3780 
G01 X74.1714 Y9.2702 
G01 X74.0418 Y9.1406 
G01 X73.9340 Y8.9923 
G01 X73.8508 Y8.8290 
G01 X73.7942 Y8.6547 
G01 X73.7655 Y8.4736 
G01 X73.7655 Y6.7664 
G01 X73.7942 Y6.5853 
G01 X73.8508 Y6.4110 
G01 X73.9340 Y6.2477 
G01 X74.0418 Y6.0994 
G01 X74.1714 Y5.9698 
G01 X74.3197 Y5.8620 
G01 X74.4830 Y5.7788 
G01 X74.6573 Y5.7222 
G01 X74.8384 Y5.6935 
G01 X75.0216 Y5.6935 
G01 X75.2027 Y5.7222 
G01 X75.3770 Y5.7788 
G01 X75.5403 Y5.8620 
G01 X75.6886 Y5.9698 
G01 X75.8182 Y6.0994 
G01 X75.9260 Y6.2477 
G01 X76.0092 Y6.4110 
G01 X76.0658 Y6.5853 
G01 X76.0945 Y6.7664 
G00 Z2.0000 
G00 X78.6345 Y6.7664 
G01 Z-0.1000 F50.00 
G01 X78.6345 Y8.4736 F100.00 
G01 X78.6058 Y8.6547 
G01 X78.5492 Y8.8290 
G01 X78.4660 Y8.9923 
G01 X78.3582 Y9.1406 
G01 X78.2286 Y9.2702 
G01 X78.0803 Y9.3780 
G01 X77.9170 Y9.4612 
G01 X77.7427 Y9.5178 
G01 X77.5616 Y9.5465 
G01 X77.3783 Y9.5465 
G01 X77.1973 Y9.5178 
G01 X77.0230 Y9.4612 
G01 X76.8597 Y9.3780 
G01 X76.7114 Y9.2702 
G01 X76.5818 Y9.1406 
G01 X76.4740 Y8.9923 
G01 X76.3908 Y8.8290 
G01 X76.3342 Y8.6547 
G01 X76.3055 Y8.4736 
G01 X76.3055 Y6.7664 
G01 X76.3342 Y6.5853 
G01 X76.3908 Y6.4110 
G01 X76.4740 Y6.2477 
G01 X76.5818 Y6.0994 
G01 X76.7114 Y5.9698 
G01 X76.8597 Y5.8620 
G01 X77.0230 Y5.7788 
G01 X77.1973 Y5.7222 
G01 X77.3783 Y5.6935 
G01 X77.5616 Y5.6935 
G01 X77.7427 Y5.7222 
G01 X77.9170 Y5.7788 
G01 X78.0803 Y5.8620 
G01 X78.2286 Y5.9698 
G01 X78.3582 Y6.0994 
G01 X78.4660 Y6.2477 
G01 X78.5492 Y6.4110 
G01 X78.6058 Y6.5853 
G01 X78.6345 Y6.7664 
G00 Z2.0000 
G00 X76.0945 Y32.1664 
G01 Z-0.1000 F50.00 
G01 X76.0945 Y33.8736 F100.00 
G01 X76.0658 Y34.0547 
G01 X76.0092 Y34.2290 
G01 X75.9260 Y34.3923 
G01 X75.8182 Y34.5406 
G01 X75.6886 Y34.6702 
G01 X75.5403 Y34.7780 
G01 X75.3770 Y34.8612 
G01 X75.2027 Y34.9178 
G01 X75.0216 Y34.9465 
G01 X74.8384 Y34.9465 
G01 X74.6573 Y34.9178 
G01 X74.4830 Y34.8612 
G01 X74.3197 Y34.7780 
G01 X74.1714 Y34.6702 
G01 X74.0418 Y34.5406 
G01 X73.9340 Y34.3923 
G01 X73.8508 Y34.2290 
G01 X73.7942 Y34.0547 
G01 X73.7655 Y33.8736 
G01 X73.7655 Y32.1664 
G01 X73.7942 Y31.9853 
G01 X73.8508 Y31.8110 
G01 X73.9340 Y31.6477 
G01 X74.0418 Y31.4994 
G01 X74.1714 Y31.3698 
G01 X74.3197 Y31.2620 
G01 X74.4830 Y31.1788 
G01 X74.6573 Y31.1222 
G01 X74.8384 Y31.0935 
G01 X75.0216 Y31.0935 
G01 X75.2027 Y31.1222 
G01 X75.3770 Y31.1788 
G01 X75.5403 Y31.2620 
G01 X75.6886 Y31.3698 
G01 X75.8182 Y31.4994 
G01 X75.9260 Y31.6477 
G01 X76.0092 Y31.8110 
G01 X76.0658 Y31.9853 
G01 X76.0945 Y32.1664 
G00 Z2.0000 
G00 X73.5545 Y32.1664 
G01 Z-0.1000 F50.00 
G01 X73.5545 Y33.8736 F100.00 
G01 X73.5258 Y34.0547 
G01 X73.4692 Y34.2290 
G01 X73.3860 Y34.3923 
G01 X73.2782 Y34.5406 
G01 X73.1486 Y34.6702 
G01 X73.0003 Y34.7780 
G01 X72.8370 Y34.8612 
G01 X72.6627 Y34.9178 
G01 X72.4816 Y34.9465 
G01 X72.2983 Y34.9465 
G01 X72.1173 Y34.9178 
G01 X71.9430 Y34.8612 
G01 X71.7797 Y34.7780 
G01 X71.6314 Y34.6702 
G01 X71.5018 Y34.5406 
G01 X71.3940 Y34.3923 
G01 X71.3108 Y34.2290 
G01 X71.2542 Y34.0547 
G01 X71.2255 Y33.8736 
G01 X71.2255 Y32.1664 
G01 X71.2542 Y31.9853 
G01 X71.3108 Y31.8110 
G01 X71.3940 Y31.6477 
G01 X71.5018 Y31.4994 
G01 X71.6314 Y31.3698 
G01 X71.7797 Y31.2620 
G01 X71.9430 Y31.1788 
G01 X72.1173 Y31.1222 
G01 X72.2983 Y31.0935 
G01 X72.4816 Y31.0935 
G01 X72.6627 Y31.1222 
G01 X72.8370 Y31.1788 
G01 X73.0003 Y31.2620 
G01 X73.1486 Y31.3698 
G01 X73.2782 Y31.4994 
G01 X73.3860 Y31.6477 
G01 X73.4692 Y31.8110 
G01 X73.5258 Y31.9853 
G01 X73.5545 Y32.1664 
G00 Z2.0000 
G00 X71.0145 Y32.1664 
G01 Z-0.1000 F50.00 
G01 X71.0145 Y33.8736 F100.00 
G01 X70.9858 Y34.0547 
G01 X70.9292 Y34.2290 
G01 X70.8460 Y34.3923 
G01 X70.7382 Y34.5406 
G01 X70.6086 Y34.6702 
G01 X70.4603 Y34.7780 
G01 X70.2970 Y34.8612 
G01 X70.1227 Y34.9178 
G01 X69.9416 Y34.9465 
G01 X69.7584 Y34.9465 
G01 X69.5773 Y34.9178 
G01 X69.4030 Y34.8612 
G01 X69.2397 Y34.7780 
G01 X69.0914 Y34.6702 
G01 X68.9618 Y34.5406 
G01 X68.8540 Y34.3923 
G01 X68.7708 Y34.2290 
G01 X68.7142 Y34.0547 
G01 X68.6855 Y33.8736 
G01 X68.6855 Y32.1664 
G01 X68.7142 Y31.9853 
G01 X68.7708 Y31.8110 
G01 X68.8540 Y31.6477 
G01 X68.9618 Y31.4994 
G01 X69.0914 Y31.3698 
G01 X69.2397 Y31.2620 
G01 X69.4030 Y31.1788 
G01 X69.5773 Y31.1222 
G01 X69.7584 Y31.0935 
G01 X69.9416 Y31.0935 
G01 X70.1227 Y31.1222 
G01 X70.2970 Y31.1788 
G01 X70.4603 Y31.2620 
G01 X70.6086 Y31.3698 
G01 X70.7382 Y31.4994 
G01 X70.8460 Y31.6477 
G01 X70.9292 Y31.8110 
G01 X70.9858 Y31.9853 
G01 X71.0145 Y32.1664 
G00 Z2.0000 
G00 X68.4745 Y32.1664 
G01 Z-0.1000 F50.00 
G01 X68.4745 Y33.8736 F100.00 
G01 X68.4458 Y34.0547 
G01 X68.3892 Y34.2290 
G01 X68.3060 Y34.3923 
G01 X68.1982 Y34.5406 
G01 X68.0686 Y34.6702 
G01 X67.9203 Y34.7780 
G01 X67.7570 Y34.8612 
G01 X67.5827 Y34.9178 
G01 X67.4016 Y34.9465 
G01 X67.2184 Y34.9465 
G01 X67.0373 Y34.9178 
G01 X66.8630 Y34.8612 
G01 X66.6997 Y34.7780 
G01 X66.5514 Y34.6702 
G01 X66.4218 Y34.5406 
G01 X66.3140 Y34.3923 
G01 X66.2308 Y34.2290 
G01 X66.1742 Y34.0547 
G01 X66.1455 Y33.8736 
G01 X66.1455 Y32.1664 
G01 X66.1742 Y31.9853 
G01 X66.2308 Y31.8110 
G01 X66.3140 Y31.6477 
G01 X66.4218 Y31.4994 
G01 X66.5514 Y31.3698 
G01 X66.6997 Y31.2620 
G01 X66.8630 Y31.1788 
G01 X67.0373 Y31.1222 
G01 X67.2184 Y31.0935 
G01 X67.4016 Y31.0935 
G01 X67.5827 Y31.1222 
G01 X67.7570 Y31.1788 
G01 X67.9203 Y31.2620 
G01 X68.0686 Y31.3698 
G01 X68.1982 Y31.4994 
G01 X68.3060 Y31.6477 
G01 X68.3892 Y31.8110 
G01 X68.4458 Y31.9853 
G01 X68.4745 Y32.1664 
G00 Z2.0000 
G00 X63.3945 Y32.1664 
G01 Z-0.1000 F50.00 
G01 X63.3945 Y33.8736 F100.00 
G01 X63.3658 Y34.0547 
G01 X63.3092 Y34.2290 
G01 X63.2260 Y34.3923 
G01 X63.1182 Y34.5406 
G01 X62.9886 Y34.6702 
G01 X62.8403 Y34.7780 
G01 X62.6770 Y34.8612 
G01 X62.5027 Y34.9178 
G01 X62.3216 Y34.9465 
G01 X62.1384 Y34.9465 
G01 X61.9573 Y34.9178 
G01 X61.7830 Y34.8612 
G01 X61.6197 Y34.7780 
G01 X61.4714 Y34.6702 
G01 X61.3418 Y34.5406 
G01 X61.2340 Y34.3923 
G01 X61.1508 Y34.2290 
G01 X61.0942 Y34.0547 
G01 X61.0655 Y33.8736 
G01 X61.0655 Y32.1664 
G01 X61.0942 Y31.9853 
G01 X61.1508 Y31.8110 
G01 X61.2340 Y31.6477 
G01 X61.3418 Y31.4994 
G01 X61.4714 Y31.3698 
G01 X61.6197 Y31.2620 
G01 X61.7830 Y31.1788 
G01 X61.9573 Y31.1222 
G01 X62.1384 Y31.0935 
G01 X62.3216 Y31.0935 
G01 X62.5027 Y31.1222 
G01 X62.6770 Y31.1788 
G01 X62.8403 Y31.2620 
G01 X62.9886 Y31.3698 
G01 X63.1182 Y31.4994 
G01 X63.2260 Y31.6477 
G01 X63.3092 Y31.8110 
G01 X63.3658 Y31.9853 
G01 X63.3945 Y32.1664 
G00 Z2.0000 
G00 X60.8545 Y32.1664 
G01 Z-0.1000 F50.00 
G01 X60.8545 Y33.8736 F100.00 
G01 X60.8258 Y34.0547 
G01 X60.7692 Y34.2290 
G01 X60.6860 Y34.3923 
G01 X60.5782 Y34.5406 
G01 X60.4486 Y34.6702 
G01 X60.3003 Y34.7780 
G01 X60.1370 Y34.8612 
G01 X59.9627 Y34.9178 
G01 X59.7816 Y34.9465 
G01 X59.5984 Y34.9465 
G01 X59.4173 Y34.9178 
G01 X59.2430 Y34.8612 
G01 X59.0797 Y34.7780 
G01 X58.9314 Y34.6702 
G01 X58.8018 Y34.5406 
G01 X58.6940 Y34.3923 
G01 X58.6108 Y34.2290 
G01 X58.5542 Y34.0547 
G01 X58.5255 Y33.8736 
G01 X58.5255 Y32.1664 
G01 X58.5542 Y31.9853 
G01 X58.6108 Y31.8110 
G01 X58.6940 Y31.6477 
G01 X58.8018 Y31.4994 
G01 X58.9314 Y31.3698 
G01 X59.0797 Y31.2620 
G01 X59.2430 Y31.1788 
G01 X59.4173 Y31.1222 
G01 X59.5984 Y31.0935 
G01 X59.7816 Y31.0935 
G01 X59.9627 Y31.1222 
G01 X60.1370 Y31.1788 
G01 X60.3003 Y31.2620 
G01 X60.4486 Y31.3698 
G01 X60.5782 Y31.4994 
G01 X60.6860 Y31.6477 
G01 X60.7692 Y31.8110 
G01 X60.8258 Y31.9853 
G01 X60.8545 Y32.1664 
G00 Z2.0000 
G00 X58.3145 Y32.1664 
G01 Z-0.1000 F50.00 
G01 X58.3145 Y33.8736 F100.00 
G01 X58.2858 Y34.0547 
G01 X58.2292 Y34.2290 
G01 X58.1460 Y34.3923 
G01 X58.0382 Y34.5406 
G01 X57.9086 Y34.6702 
G01 X57.7603 Y34.7780 
G01 X57.5970 Y34.8612 
G01 X57.4227 Y34.9178 
G01 X57.2416 Y34.9465 
G01 X57.0584 Y34.9465 
G01 X56.8773 Y34.9178 
G01 X56.7030 Y34.8612 
G01 X56.5397 Y34.7780 
G01 X56.3914 Y34.6702 
G01 X56.2618 Y34.5406 
G01 X56.1540 Y34.3923 
G01 X56.0708 Y34.2290 
G01 X56.0142 Y34.0547 
G01 X55.9855 Y33.8736 
G01 X55.9855 Y32.1664 
G01 X56.0142 Y31.9853 
G01 X56.0708 Y31.8110 
G01 X56.1540 Y31.6477 
G01 X56.2618 Y31.4994 
G01 X56.3914 Y31.3698 
G01 X56.5397 Y31.2620 
G01 X56.7030 Y31.1788 
G01 X56.8773 Y31.1222 
G01 X57.0584 Y31.0935 
G01 X57.2416 Y31.0935 
G01 X57.4227 Y31.1222 
G01 X57.5970 Y31.1788 
G01 X57.7603 Y31.2620 
G01 X57.9086 Y31.3698 
G01 X58.0382 Y31.4994 
G01 X58.1460 Y31.6477 
G01 X58.2292 Y31.8110 
G01 X58.2858 Y31.9853 
G01 X58.3145 Y32.1664 
G00 Z2.0000 
G00 X55.7745 Y32.1664 
G01 Z-0.1000 F50.00 
G01 X55.7745 Y33.8736 F100.00 
G01 X55.7458 Y34.0547 
G01 X55.6892 Y34.2290 
G01 X55.6060 Y34.3923 
G01 X55.4982 Y34.5406 
G01 X55.3686 Y34.6702 
G01 X55.2203 Y34.7780 
G01 X55.0570 Y34.8612 
G01 X54.8827 Y34.9178 
G01 X54.7016 Y34.9465 
G01 X54.5184 Y34.9465 
G01 X54.3373 Y34.9178 
G01 X54.1630 Y34.8612 
G01 X53.9997 Y34.7780 
G01 X53.8514 Y34.6702 
G01 X53.7218 Y34.5406 
G01 X53.6140 Y34.3923 
G01 X53.5308 Y34.2290 
G01 X53.4742 Y34.0547 
G01 X53.4455 Y33.8736 
G01 X53.4455 Y32.1664 
G01 X53.4742 Y31.9853 
G01 X53.5308 Y31.8110 
G01 X53.6140 Y31.6477 
G01 X53.7218 Y31.4994 
G01 X53.8514 Y31.3698 
G01 X53.9997 Y31.2620 
G01 X54.1630 Y31.1788 
G01 X54.3373 Y31.1222 
G01 X54.5184 Y31.0935 
G01 X54.7016 Y31.0935 
G01 X54.8827 Y31.1222 
G01 X55.0570 Y31.1788 
G01 X55.2203 Y31.2620 
G01 X55.3686 Y31.3698 
G01 X55.4982 Y31.4994 
G01 X55.6060 Y31.6477 
G01 X55.6892 Y31.8110 
G01 X55.7458 Y31.9853 
G01 X55.7745 Y32.1664 
G00 Z2.0000 
G00 X53.2345 Y32.1664 
G01 Z-0.1000 F50.00 
G01 X53.2345 Y33.8736 F100.00 
G01 X53.2058 Y34.0547 
G01 X53.1492 Y34.2290 
G01 X53.0660 Y34.3923 
G01 X52.9582 Y34.5406 
G01 X52.8286 Y34.6702 
G01 X52.6803 Y34.7780 
G01 X52.5170 Y34.8612 
G01 X52.3427 Y34.9178 
G01 X52.1616 Y34.9465 
G01 X51.9783 Y34.9465 
G01 X51.7973 Y34.9178 
G01 X51.6230 Y34.8612 
G01 X51.4597 Y34.7780 
G01 X51.3114 Y34.6702 
G01 X51.1818 Y34.5406 
G01 X51.0740 Y34.3923 
G01 X50.9908 Y34.2290 
G01 X50.9342 Y34.0547 
G01 X50.9055 Y33.8736 
G01 X50.9055 Y32.1664 
G01 X50.9342 Y31.9853 
G01 X50.9908 Y31.8110 
G01 X51.0740 Y31.6477 
G01 X51.1818 Y31.4994 
G01 X51.3114 Y31.3698 
G01 X51.4597 Y31.2620 
G01 X51.6230 Y31.1788 
G01 X51.7973 Y31.1222 
G01 X51.9783 Y31.0935 
G01 X52.1616 Y31.0935 
G01 X52.3427 Y31.1222 
G01 X52.5170 Y31.1788 
G01 X52.6803 Y31.2620 
G01 X52.8286 Y31.3698 
G01 X52.9582 Y31.4994 
G01 X53.0660 Y31.6477 
G01 X53.1492 Y31.8110 
G01 X53.2058 Y31.9853 
G01 X53.2345 Y32.1664 
G00 Z2.0000 
G00 X50.6945 Y32.1664 
G01 Z-0.1000 F50.00 
G01 X50.6945 Y33.8736 F100.00 
G01 X50.6658 Y34.0547 
G01 X50.6092 Y34.2290 
G01 X50.5260 Y34.3923 
G01 X50.4182 Y34.5406 
G01 X50.2886 Y34.6702 
G01 X50.1403 Y34.7780 
G01 X49.9770 Y34.8612 
G01 X49.8027 Y34.9178 
G01 X49.6216 Y34.9465 
G01 X49.4383 Y34.9465 
G01 X49.2573 Y34.9178 
G01 X49.0830 Y34.8612 
G01 X48.9197 Y34.7780 
G01 X48.7714 Y34.6702 
G01 X48.6418 Y34.5406 
G01 X48.5340 Y34.3923 
G01 X48.4508 Y34.2290 
G01 X48.3942 Y34.0547 
G01 X48.3655 Y33.8736 
G01 X48.3655 Y32.1664 
G01 X48.3942 Y31.9853 
G01 X48.4508 Y31.8110 
G01 X48.5340 Y31.6477 
G01 X48.6195 Y31.5300 
G01 X48.6195 Y29.5871 
G01 X46.6129 Y27.5805 
G01 X21.9671 Y27.5805 
G01 X18.4872 Y31.0604 
G01 X18.3604 Y31.1872 
G01 X18.2113 Y31.2869 
G01 X18.0456 Y31.3555 
G01 X17.8697 Y31.3905 
G01 X10.3800 Y31.3905 
G01 X10.2623 Y31.4760 
G01 X10.0990 Y31.5592 
G01 X9.9247 Y31.6158 
G01 X9.8005 Y31.6355 
G01 X9.8005 Y36.2373 
G01 X9.9529 Y36.3897 
G01 X9.9529 Y37.2703 
G01 X9.3303 Y37.8929 
G01 X8.4497 Y37.8929 
G01 X7.8271 Y37.2703 
G01 X7.8271 Y36.3897 
G01 X7.9795 Y36.2373 
G01 X7.9795 Y31.6355 
G01 X7.8553 Y31.6158 
G01 X7.6810 Y31.5592 
G01 X7.5177 Y31.4760 
G01 X7.3694 Y31.3682 
G01 X7.2398 Y31.2386 
G01 X7.1320 Y31.0903 
G01 X7.0488 Y30.9270 
G01 X6.9922 Y30.7527 
G01 X6.9635 Y30.5716 
G01 X6.9635 Y30.3884 
G01 X6.9922 Y30.2073 
G01 X7.0488 Y30.0330 
G01 X7.1320 Y29.8697 
G01 X7.2398 Y29.7214 
G01 X7.3694 Y29.5918 
G01 X7.5177 Y29.4840 
G01 X7.6810 Y29.4008 
G01 X7.8553 Y29.3442 
G01 X8.0364 Y29.3155 
G01 X9.7436 Y29.3155 
G01 X9.9247 Y29.3442 
G01 X10.0990 Y29.4008 
G01 X10.2623 Y29.4840 
G01 X10.3800 Y29.5695 
G01 X17.4029 Y29.5695 
G01 X21.0096 Y25.9628 
G01 X21.1587 Y25.8631 
G01 X21.3244 Y25.7945 
G01 X21.5003 Y25.7595 
G01 X47.0797 Y25.7595 
G01 X47.2556 Y25.7945 
G01 X47.4213 Y25.8631 
G01 X47.5704 Y25.9628 
G01 X47.6972 Y26.0896 
G01 X50.2372 Y28.6296 
G01 X50.3369 Y28.7787 
G01 X50.4055 Y28.9444 
G01 X50.4405 Y29.1203 
G01 X50.4405 Y31.5300 
G01 X50.5260 Y31.6477 
G01 X50.6092 Y31.8110 
G01 X50.6658 Y31.9853 
G01 X50.6945 Y32.1664 
G00 Z2.0000 
G00 X48.1545 Y32.1664 
G01 Z-0.1000 F50.00 
G01 X48.1545 Y33.8736 F100.00 
G01 X48.1258 Y34.0547 
G01 X48.0692 Y34.2290 
G01 X47.9860 Y34.3923 
G01 X47.8782 Y34.5406 
G01 X47.7486 Y34.6702 
G01 X47.6003 Y34.7780 
G01 X47.4370 Y34.8612 
G01 X47.2627 Y34.9178 
G01 X47.0816 Y34.9465 
G01 X46.8984 Y34.9465 
G01 X46.7173 Y34.9178 
G01 X46.5430 Y34.8612 
G01 X46.3797 Y34.7780 
G01 X46.2314 Y34.6702 
G01 X46.1018 Y34.5406 
G01 X45.9940 Y34.3923 
G01 X45.9108 Y34.2290 
G01 X45.8542 Y34.0547 
G01 X45.8255 Y33.8736 
G01 X45.8255 Y32.1664 
G01 X45.8542 Y31.9853 
G01 X45.9108 Y31.8110 
G01 X45.9940 Y31.6477 
G01 X46.1018 Y31.4994 
G01 X46.2314 Y31.3698 
G01 X46.3797 Y31.2620 
G01 X46.5430 Y31.1788 
G01 X46.7173 Y31.1222 
G01 X46.8984 Y31.0935 
G01 X47.0816 Y31.0935 
G01 X47.2627 Y31.1222 
G01 X47.4370 Y31.1788 
G01 X47.6003 Y31.2620 
G01 X47.7486 Y31.3698 
G01 X47.8782 Y31.4994 
G01 X47.9860 Y31.6477 
G01 X48.0692 Y31.8110 
G01 X48.1258 Y31.9853 
G01 X48.1545 Y32.1664 
G00 Z2.0000 
G00 X45.6145 Y32.1664 
G01 Z-0.1000 F50.00 
G01 X45.6145 Y33.8736 F100.00 
G01 X45.5858 Y34.0547 
G01 X45.5292 Y34.2290 
G01 X45.4460 Y34.3923 
G01 X45.3382 Y34.5406 
G01 X45.2086 Y34.6702 
G01 X45.0603 Y34.7780 
G01 X44.8970 Y34.8612 
G01 X44.7227 Y34.9178 
G01 X44.5416 Y34.9465 
G01 X44.3584 Y34.9465 
G01 X44.1773 Y34.9178 
G01 X44.0030 Y34.8612 
G01 X43.8397 Y34.7780 
G01 X43.6914 Y34.6702 
G01 X43.5618 Y34.5406 
G01 X43.4540 Y34.3923 
G01 X43.3708 Y34.2290 
G01 X43.3142 Y34.0547 
G01 X43.2855 Y33.8736 
G01 X43.2855 Y32.1664 
G01 X43.3142 Y31.9853 
G01 X43.3708 Y31.8110 
G01 X43.4540 Y31.6477 
G01 X43.5618 Y31.4994 
G01 X43.6914 Y31.3698 
G01 X43.8397 Y31.2620 
G01 X44.0030 Y31.1788 
G01 X44.1773 Y31.1222 
G01 X44.3584 Y31.0935 
G01 X44.5416 Y31.0935 
G01 X44.7227 Y31.1222 
G01 X44.8970 Y31.1788 
G01 X45.0603 Y31.2620 
G01 X45.2086 Y31.3698 
G01 X45.3382 Y31.4994 
G01 X45.4460 Y31.6477 
G01 X45.5292 Y31.8110 
G01 X45.5858 Y31.9853 
G01 X45.6145 Y32.1664 
G00 Z2.0000 
G00 X43.0745 Y32.1664 
G01 Z-0.1000 F50.00 
G01 X43.0745 Y33.8736 F100.00 
G01 X43.0458 Y34.0547 
G01 X42.9892 Y34.2290 
G01 X42.9060 Y34.3923 
G01 X42.7982 Y34.5406 
G01 X42.6686 Y34.6702 
G01 X42.5203 Y34.7780 
G01 X42.3570 Y34.8612 
G01 X42.1827 Y34.9178 
G01 X42.0016 Y34.9465 
G01 X41.8184 Y34.9465 
G01 X41.6373 Y34.9178 
G01 X41.4630 Y34.8612 
G01 X41.2997 Y34.7780 
G01 X41.1514 Y34.6702 
G01 X41.0218 Y34.5406 
G01 X40.9140 Y34.3923 
G01 X40.8308 Y34.2290 
G01 X40.7742 Y34.0547 
G01 X40.7455 Y33.8736 
G01 X40.7455 Y32.1664 
G01 X40.7742 Y31.9853 
G01 X40.8308 Y31.8110 
G01 X40.9140 Y31.6477 
G01 X41.0218 Y31.4994 
G01 X41.1514 Y31.3698 
G01 X41.2997 Y31.2620 
G01 X41.4630 Y31.1788 
G01 X41.6373 Y31.1222 
G01 X41.8184 Y31.0935 
G01 X42.0016 Y31.0935 
G01 X42.1827 Y31.1222 
G01 X42.3570 Y31.1788 
G01 X42.5203 Y31.2620 
G01 X42.6686 Y31.3698 
G01 X42.7982 Y31.4994 
G01 X42.9060 Y31.6477 
G01 X42.9892 Y31.8110 
G01 X43.0458 Y31.9853 
G01 X43.0745 Y32.1664 
G00 Z2.0000 
G00 X40.5345 Y32.1664 
G01 Z-0.1000 F50.00 
G01 X40.5345 Y33.8736 F100.00 
G01 X40.5058 Y34.0547 
G01 X40.4492 Y34.2290 
G01 X40.3660 Y34.3923 
G01 X40.2582 Y34.5406 
G01 X40.1286 Y34.6702 
G01 X39.9803 Y34.7780 
G01 X39.8170 Y34.8612 
G01 X39.6427 Y34.9178 
G01 X39.4616 Y34.9465 
G01 X39.2784 Y34.9465 
G01 X39.0973 Y34.9178 
G01 X38.9230 Y34.8612 
G01 X38.7597 Y34.7780 
G01 X38.6114 Y34.6702 
G01 X38.4818 Y34.5406 
G01 X38.3740 Y34.3923 
G01 X38.2908 Y34.2290 
G01 X38.2342 Y34.0547 
G01 X38.2055 Y33.8736 
G01 X38.2055 Y32.1664 
G01 X38.2342 Y31.9853 
G01 X38.2908 Y31.8110 
G01 X38.3740 Y31.6477 
G01 X38.4818 Y31.4994 
G01 X38.6114 Y31.3698 
G01 X38.7597 Y31.2620 
G01 X38.9230 Y31.1788 
G01 X39.0973 Y31.1222 
G01 X39.2784 Y31.0935 
G01 X39.4616 Y31.0935 
G01 X39.6427 Y31.1222 
G01 X39.8170 Y31.1788 
G01 X39.9803 Y31.2620 
G01 X40.1286 Y31.3698 
G01 X40.2582 Y31.4994 
G01 X40.3660 Y31.6477 
G01 X40.4492 Y31.8110 
G01 X40.5058 Y31.9853 
G01 X40.5345 Y32.1664 
G00 Z2.0000 
G00 X37.9945 Y32.1664 
G01 Z-0.1000 F50.00 
G01 X37.9945 Y33.8736 F100.00 
G01 X37.9658 Y34.0547 
G01 X37.9092 Y34.2290 
G01 X37.8260 Y34.3923 
G01 X37.7182 Y34.5406 
G01 X37.5886 Y34.6702 
G01 X37.4403 Y34.7780 
G01 X37.2770 Y34.8612 
G01 X37.1027 Y34.9178 
G01 X36.9216 Y34.9465 
G01 X36.7384 Y34.9465 
G01 X36.5573 Y34.9178 
G01 X36.3830 Y34.8612 
G01 X36.2197 Y34.7780 
G01 X36.0714 Y34.6702 
G01 X35.9418 Y34.5406 
G01 X35.8340 Y34.3923 
G01 X35.7508 Y34.2290 
G01 X35.6942 Y34.0547 
G01 X35.6655 Y33.8736 
G01 X35.6655 Y32.1664 
G01 X35.6942 Y31.9853 
G01 X35.7508 Y31.8110 
G01 X35.8340 Y31.6477 
G01 X35.9418 Y31.4994 
G01 X36.0714 Y31.3698 
G01 X36.2197 Y31.2620 
G01 X36.3830 Y31.1788 
G01 X36.5573 Y31.1222 
G01 X36.7384 Y31.0935 
G01 X36.9216 Y31.0935 
G01 X37.1027 Y31.1222 
G01 X37.2770 Y31.1788 
G01 X37.4403 Y31.2620 
G01 X37.5886 Y31.3698 
G01 X37.7182 Y31.4994 
G01 X37.8260 Y31.6477 
G01 X37.9092 Y31.8110 
G01 X37.9658 Y31.9853 
G01 X37.9945 Y32.1664 
G00 Z2.0000 
G00 X35.4545 Y32.1664 
G01 Z-0.1000 F50.00 
G01 X35.4545 Y33.8736 F100.00 
G01 X35.4258 Y34.0547 
G01 X35.3692 Y34.2290 
G01 X35.2860 Y34.3923 
G01 X35.1782 Y34.5406 
G01 X35.0486 Y34.6702 
G01 X34.9003 Y34.7780 
G01 X34.7370 Y34.8612 
G01 X34.5627 Y34.9178 
G01 X34.3816 Y34.9465 
G01 X34.1984 Y34.9465 
G01 X34.0173 Y34.9178 
G01 X33.8430 Y34.8612 
G01 X33.6797 Y34.7780 
G01 X33.5314 Y34.6702 
G01 X33.4018 Y34.5406 
G01 X33.2940 Y34.3923 
G01 X33.2108 Y34.2290 
G01 X33.1542 Y34.0547 
G01 X33.1255 Y33.8736 
G01 X33.1255 Y32.1664 
G01 X33.1542 Y31.9853 
G01 X33.2108 Y31.8110 
G01 X33.2940 Y31.6477 
G01 X33.4018 Y31.4994 
G01 X33.5314 Y31.3698 
G01 X33.6797 Y31.2620 
G01 X33.8430 Y31.1788 
G01 X34.0173 Y31.1222 
G01 X34.1984 Y31.0935 
G01 X34.3816 Y31.0935 
G01 X34.5627 Y31.1222 
G01 X34.7370 Y31.1788 
G01 X34.9003 Y31.2620 
G01 X35.0486 Y31.3698 
G01 X35.1782 Y31.4994 
G01 X35.2860 Y31.6477 
G01 X35.3692 Y31.8110 
G01 X35.4258 Y31.9853 
G01 X35.4545 Y32.1664 
G00 Z2.0000 
G00 X32.9145 Y32.1763 
G01 Z-0.1000 F50.00 
G01 X32.9145 Y33.8836 F100.00 
G01 X32.8858 Y34.0647 
G01 X32.8292 Y34.2390 
G01 X32.7460 Y34.4023 
G01 X32.6382 Y34.5506 
G01 X32.5086 Y34.6802 
G01 X32.3603 Y34.7880 
G01 X32.1970 Y34.8712 
G01 X32.0227 Y34.9278 
G01 X31.8416 Y34.9565 
G01 X31.6584 Y34.9565 
G01 X31.4773 Y34.9278 
G01 X31.3905 Y34.8996 
G01 X31.3905 Y42.9600 
G01 X31.4760 Y43.0777 
G01 X31.5592 Y43.2410 
G01 X31.6158 Y43.4153 
G01 X31.6445 Y43.5964 
G01 X31.6445 Y45.3036 
G01 X31.6158 Y45.4847 
G01 X31.5592 Y45.6590 
G01 X31.4760 Y45.8223 
G01 X31.3682 Y45.9706 
G01 X31.2386 Y46.1002 
G01 X31.0903 Y46.2080 
G01 X30.9270 Y46.2912 
G01 X30.7527 Y46.3478 
G01 X30.5716 Y46.3765 
G01 X30.3884 Y46.3765 
G01 X30.2073 Y46.3478 
G01 X30.0330 Y46.2912 
G01 X29.8697 Y46.2080 
G01 X29.7214 Y46.1002 
G01 X29.5918 Y45.9706 
G01 X29.4840 Y45.8223 
G01 X29.4008 Y45.6590 
G01 X29.3442 Y45.4847 
G01 X29.3155 Y45.3036 
G01 X29.3155 Y43.5964 
G01 X29.3442 Y43.4153 
G01 X29.4008 Y43.2410 
G01 X29.4840 Y43.0777 
G01 X29.5695 Y42.9600 
G01 X29.5695 Y36.4981 
G01 X22.1804 Y43.8872 
G01 X22.0313 Y43.9869 
G01 X21.8656 Y44.0555 
G01 X21.6897 Y44.0905 
G01 X17.1027 Y44.0905 
G01 X16.9503 Y44.2429 
G01 X16.0697 Y44.2429 
G01 X15.9173 Y44.0905 
G01 X7.5303 Y44.0905 
G01 X7.3544 Y44.0555 
G01 X7.1887 Y43.9869 
G01 X7.0396 Y43.8872 
G01 X6.9128 Y43.7604 
G01 X4.4996 Y41.3472 
G01 X4.3728 Y41.2204 
G01 X4.2731 Y41.0713 
G01 X4.2045 Y40.9056 
G01 X4.1695 Y40.7297 
G01 X4.1695 Y29.1203 
G01 X4.2045 Y28.9444 
G01 X4.2731 Y28.7787 
G01 X4.3728 Y28.6296 
G01 X5.6428 Y27.3596 
G01 X5.7696 Y27.2328 
G01 X5.9187 Y27.1331 
G01 X6.0844 Y27.0645 
G01 X6.2603 Y27.0295 
G01 X7.4000 Y27.0295 
G01 X7.5177 Y26.9440 
G01 X7.6810 Y26.8608 
G01 X7.8553 Y26.8042 
G01 X8.0364 Y26.7755 
G01 X9.7436 Y26.7755 
G01 X9.9247 Y26.8042 
G01 X10.0990 Y26.8608 
G01 X10.2623 Y26.9440 
G01 X10.4106 Y27.0518 
G01 X10.5402 Y27.1814 
G01 X10.6480 Y27.3297 
G01 X10.7312 Y27.4930 
G01 X10.7878 Y27.6673 
G01 X10.8165 Y27.8483 
G01 X10.8165 Y28.0316 
G01 X10.7878 Y28.2127 
G01 X10.7312 Y28.3870 
G01 X10.6480 Y28.5503 
G01 X10.5402 Y28.6986 
G01 X10.4106 Y28.8282 
G01 X10.2623 Y28.9360 
G01 X10.0990 Y29.0192 
G01 X9.9247 Y29.0758 
G01 X9.7436 Y29.1045 
G01 X8.0364 Y29.1045 
G01 X7.8553 Y29.0758 
G01 X7.6810 Y29.0192 
G01 X7.5177 Y28.9360 
G01 X7.4000 Y28.8505 
G01 X6.7271 Y28.8505 
G01 X5.9905 Y29.5871 
G01 X5.9905 Y40.2629 
G01 X7.9971 Y42.2695 
G01 X15.9173 Y42.2695 
G01 X16.0697 Y42.1171 
G01 X16.9503 Y42.1171 
G01 X17.1027 Y42.2695 
G01 X21.2229 Y42.2695 
G01 X30.5855 Y32.9069 
G01 X30.5855 Y32.1763 
G01 X30.6142 Y31.9953 
G01 X30.6708 Y31.8210 
G01 X30.7540 Y31.6577 
G01 X30.8618 Y31.5094 
G01 X30.9914 Y31.3798 
G01 X31.1397 Y31.2720 
G01 X31.3030 Y31.1888 
G01 X31.4773 Y31.1322 
G01 X31.6584 Y31.1035 
G01 X31.8416 Y31.1035 
G01 X32.0227 Y31.1322 
G01 X32.1970 Y31.1888 
G01 X32.3603 Y31.2720 
G01 X32.5086 Y31.3798 
G01 X32.6382 Y31.5094 
G01 X32.7460 Y31.6577 
G01 X32.8292 Y31.8210 
G01 X32.8858 Y31.9953 
G01 X32.9145 Y32.1763 
G00 Z2.0000 
G00 X88.4836 Y20.2145 
G01 Z-0.1000 F50.00 
G01 X86.7764 Y20.2145 F100.00 
G01 X86.5953 Y20.1858 
G01 X86.4210 Y20.1292 
G01 X86.2577 Y20.0460 
G01 X86.1400 Y19.9605 
G01 X58.3303 Y19.9605 
G01 X58.1544 Y19.9255 
G01 X57.9887 Y19.8569 
G01 X57.8396 Y19.7572 
G01 X57.7128 Y19.6304 
G01 X51.3628 Y13.2804 
G01 X51.2631 Y13.1313 
G01 X51.1945 Y12.9656 
G01 X51.1595 Y12.7897 
G01 X51.1595 Y9.1100 
G01 X51.0740 Y8.9923 
G01 X50.9908 Y8.8290 
G01 X50.9342 Y8.6547 
G01 X50.9055 Y8.4736 
G01 X50.9055 Y6.7664 
G01 X50.9342 Y6.5853 
G01 X50.9908 Y6.4110 
G01 X51.0740 Y6.2477 
G01 X51.1818 Y6.0994 
G01 X51.3114 Y5.9698 
G01 X51.4597 Y5.8620 
G01 X51.6230 Y5.7788 
G01 X51.7973 Y5.7222 
G01 X51.9783 Y5.6935 
G01 X52.1616 Y5.6935 
G01 X52.3427 Y5.7222 
G01 X52.5170 Y5.7788 
G01 X52.6803 Y5.8620 
G01 X52.8286 Y5.9698 
G01 X52.9582 Y6.0994 
G01 X53.0660 Y6.2477 
G01 X53.1492 Y6.4110 
G01 X53.2058 Y6.5853 
G01 X53.2345 Y6.7664 
G01 X53.2345 Y8.4736 
G01 X53.2058 Y8.6547 
G01 X53.1492 Y8.8290 
G01 X53.0660 Y8.9923 
G01 X52.9805 Y9.1100 
G01 X52.9805 Y12.3229 
G01 X58.7971 Y18.1395 
G01 X86.1400 Y18.1395 
G01 X86.2577 Y18.0540 
G01 X86.4210 Y17.9708 
G01 X86.5953 Y17.9142 
G01 X86.7764 Y17.8855 
G01 X88.4836 Y17.8855 
G01 X88.6647 Y17.9142 
G01 X88.8390 Y17.9708 
G01 X89.0023 Y18.0540 
G01 X89.1506 Y18.1618 
G01 X89.2802 Y18.2914 
G01 X89.3880 Y18.4397 
G01 X89.4712 Y18.6030 
G01 X89.5278 Y18.7773 
G01 X89.5565 Y18.9583 
G01 X89.5565 Y19.1416 
G01 X89.5278 Y19.3227 
G01 X89.4712 Y19.4970 
G01 X89.3880 Y19.6603 
G01 X89.2802 Y19.8086 
G01 X89.1506 Y19.9382 
G01 X89.0023 Y20.0460 
G01 X88.8390 Y20.1292 
G01 X88.6647 Y20.1858 
G01 X88.4836 Y20.2145 
G00 Z2.0000 
G00 X62.3355 Y45.3036 
G01 Z-0.1000 F50.00 
G01 X62.3355 Y43.5964 F100.00 
G01 X62.3642 Y43.4153 
G01 X62.4208 Y43.2410 
G01 X62.5040 Y43.0777 
G01 X62.5975 Y42.9490 
G01 X62.5975 Y39.2811 
G01 X62.6322 Y39.1067 
G01 X62.7002 Y38.9425 
G01 X62.7990 Y38.7947 
G01 X62.9247 Y38.6690 
G01 X64.1947 Y37.3990 
G01 X64.3425 Y37.3002 
G01 X64.5067 Y37.2322 
G01 X64.6811 Y37.1975 
G01 X67.3989 Y37.1975 
G01 X67.5733 Y37.2322 
G01 X67.7375 Y37.3002 
G01 X67.8853 Y37.3990 
G01 X68.0110 Y37.5247 
G01 X74.0258 Y43.5395 
G01 X75.6073 Y43.5395 
G01 X75.7597 Y43.3871 
G01 X75.9753 Y43.3871 
G01 X76.5595 Y42.8029 
G01 X76.5595 Y34.5100 
G01 X76.4740 Y34.3923 
G01 X76.3908 Y34.2290 
G01 X76.3342 Y34.0547 
G01 X76.3055 Y33.8736 
G01 X76.3055 Y32.1664 
G01 X76.3342 Y31.9853 
G01 X76.3908 Y31.8110 
G01 X76.4740 Y31.6477 
G01 X76.5818 Y31.4994 
G01 X76.7114 Y31.3698 
G01 X76.8597 Y31.2620 
G01 X77.0230 Y31.1788 
G01 X77.1973 Y31.1222 
G01 X77.3783 Y31.0935 
G01 X77.5616 Y31.0935 
G01 X77.7427 Y31.1222 
G01 X77.9170 Y31.1788 
G01 X78.0803 Y31.2620 
G01 X78.2286 Y31.3698 
G01 X78.3582 Y31.4994 
G01 X78.4660 Y31.6477 
G01 X78.5492 Y31.8110 
G01 X78.6058 Y31.9853 
G01 X78.6255 Y32.1095 
G01 X82.1729 Y32.1095 
G01 X86.7195 Y27.5629 
G01 X86.7195 Y25.2855 
G01 X86.5953 Y25.2658 
G01 X86.4210 Y25.2092 
G01 X86.2577 Y25.1260 
G01 X86.1094 Y25.0182 
G01 X85.9798 Y24.8886 
G01 X85.8720 Y24.7403 
G01 X85.7888 Y24.5770 
G01 X85.7322 Y24.4027 
G01 X85.7035 Y24.2216 
G01 X85.7035 Y24.0384 
G01 X85.7322 Y23.8573 
G01 X85.7888 Y23.6830 
G01 X85.8720 Y23.5197 
G01 X85.9798 Y23.3714 
G01 X86.1094 Y23.2418 
G01 X86.2577 Y23.1340 
G01 X86.4210 Y23.0508 
G01 X86.5953 Y22.9942 
G01 X86.7764 Y22.9655 
G01 X88.4836 Y22.9655 
G01 X88.6647 Y22.9942 
G01 X88.8390 Y23.0508 
G01 X89.0023 Y23.1340 
G01 X89.1506 Y23.2418 
G01 X89.2802 Y23.3714 
G01 X89.3880 Y23.5197 
G01 X89.4712 Y23.6830 
G01 X89.5278 Y23.8573 
G01 X89.5565 Y24.0384 
G01 X89.5565 Y24.2216 
G01 X89.5278 Y24.4027 
G01 X89.4712 Y24.5770 
G01 X89.3880 Y24.7403 
G01 X89.2802 Y24.8886 
G01 X89.1506 Y25.0182 
G01 X89.0023 Y25.1260 
G01 X88.8390 Y25.2092 
G01 X88.6647 Y25.2658 
G01 X88.5405 Y25.2855 
G01 X88.5405 Y28.0297 
G01 X88.5055 Y28.2056 
G01 X88.4369 Y28.3713 
G01 X88.3372 Y28.5204 
G01 X83.2572 Y33.6004 
G01 X83.1304 Y33.7272 
G01 X82.9813 Y33.8269 
G01 X82.8156 Y33.8955 
G01 X82.6397 Y33.9305 
G01 X78.6255 Y33.9305 
G01 X78.6058 Y34.0547 
G01 X78.5492 Y34.2290 
G01 X78.4660 Y34.3923 
G01 X78.3805 Y34.5100 
G01 X78.3805 Y43.2697 
G01 X78.3455 Y43.4456 
G01 X78.2769 Y43.6113 
G01 X78.1772 Y43.7604 
G01 X77.2629 Y44.6747 
G01 X77.2629 Y44.8903 
G01 X76.6403 Y45.5129 
G01 X75.7597 Y45.5129 
G01 X75.6073 Y45.3605 
G01 X73.5703 Y45.3605 
G01 X73.3944 Y45.3255 
G01 X73.2287 Y45.2569 
G01 X73.0796 Y45.1572 
G01 X72.9528 Y45.0304 
G01 X72.9300 Y44.9963 
G01 X66.9362 Y39.0025 
G01 X65.1438 Y39.0025 
G01 X64.4025 Y39.7438 
G01 X64.4025 Y42.9490 
G01 X64.4960 Y43.0777 
G01 X64.5792 Y43.2410 
G01 X64.6358 Y43.4153 
G01 X64.6645 Y43.5964 
G01 X64.6645 Y45.3036 
G01 X64.6358 Y45.4847 
G01 X64.5792 Y45.6590 
G01 X64.4960 Y45.8223 
G01 X64.3882 Y45.9706 
G01 X64.2586 Y46.1002 
G01 X64.1103 Y46.2080 
G01 X63.9470 Y46.2912 
G01 X63.7727 Y46.3478 
G01 X63.5916 Y46.3765 
G01 X63.4084 Y46.3765 
G01 X63.2273 Y46.3478 
G01 X63.0530 Y46.2912 
G01 X62.8897 Y46.2080 
G01 X62.7414 Y46.1002 
G01 X62.6118 Y45.9706 
G01 X62.5040 Y45.8223 
G01 X62.4208 Y45.6590 
G01 X62.3642 Y45.4847 
G01 X62.3355 Y45.3036 
G00 Z2.0000 
G00 X41.0803 Y49.3229 
G01 Z-0.1000 F50.00 
G01 X40.1997 Y49.3229 F100.00 
G01 X40.0473 Y49.1705 
G01 X29.1203 Y49.1705 
G01 X28.9444 Y49.1355 
G01 X28.7787 Y49.0669 
G01 X28.6296 Y48.9672 
G01 X27.3596 Y47.6972 
G01 X27.2328 Y47.5704 
G01 X27.1331 Y47.4213 
G01 X27.0645 Y47.2556 
G01 X27.0295 Y47.0797 
G01 X27.0295 Y45.9400 
G01 X26.9440 Y45.8223 
G01 X26.8608 Y45.6590 
G01 X26.8042 Y45.4847 
G01 X26.7755 Y45.3036 
G01 X26.7755 Y43.5964 
G01 X26.8042 Y43.4153 
G01 X26.8608 Y43.2410 
G01 X26.9440 Y43.0777 
G01 X27.0518 Y42.9294 
G01 X27.1814 Y42.7998 
G01 X27.3297 Y42.6920 
G01 X27.4930 Y42.6088 
G01 X27.6673 Y42.5522 
G01 X27.8483 Y42.5235 
G01 X28.0316 Y42.5235 
G01 X28.2127 Y42.5522 
G01 X28.3870 Y42.6088 
G01 X28.5503 Y42.6920 
G01 X28.6986 Y42.7998 
G01 X28.8282 Y42.9294 
G01 X28.9360 Y43.0777 
G01 X29.0192 Y43.2410 
G01 X29.0758 Y43.4153 
G01 X29.1045 Y43.5964 
G01 X29.1045 Y45.3036 
G01 X29.0758 Y45.4847 
G01 X29.0192 Y45.6590 
G01 X28.9360 Y45.8223 
G01 X28.8505 Y45.9400 
G01 X28.8505 Y46.6129 
G01 X29.5871 Y47.3495 
G01 X40.0473 Y47.3495 
G01 X40.1997 Y47.1971 
G01 X41.0803 Y47.1971 
G01 X41.2327 Y47.3495 
G01 X44.0729 Y47.3495 
G01 X48.9496 Y42.4728 
G01 X49.0987 Y42.3731 
G01 X49.2644 Y42.3045 
G01 X49.4403 Y42.2695 
G01 X51.4773 Y42.2695 
G01 X51.6297 Y42.1171 
G01 X51.8453 Y42.1171 
G01 X53.9028 Y40.0596 
G01 X54.0296 Y39.9328 
G01 X54.1787 Y39.8331 
G01 X54.3444 Y39.7645 
G01 X54.5203 Y39.7295 
G01 X59.7797 Y39.7295 
G01 X59.9556 Y39.7645 
G01 X60.1213 Y39.8331 
G01 X60.2704 Y39.9328 
G01 X60.3972 Y40.0596 
G01 X61.6672 Y41.3296 
G01 X61.7669 Y41.4787 
G01 X61.8355 Y41.6444 
G01 X61.8705 Y41.8203 
G01 X61.8705 Y42.9600 
G01 X61.9560 Y43.0777 
G01 X62.0392 Y43.2410 
G01 X62.0958 Y43.4153 
G01 X62.1245 Y43.5964 
G01 X62.1245 Y45.3036 
G01 X62.0958 Y45.4847 
G01 X62.0392 Y45.6590 
G01 X61.9560 Y45.8223 
G01 X61.8705 Y45.9400 
G01 X61.8705 Y49.1529 
G01 X62.6071 Y49.8895 
G01 X80.9029 Y49.8895 
G01 X84.5096 Y46.2828 
G01 X84.6587 Y46.1831 
G01 X84.8244 Y46.1145 
G01 X85.0003 Y46.0795 
G01 X86.1400 Y46.0795 
G01 X86.2577 Y45.9940 
G01 X86.4210 Y45.9108 
G01 X86.5953 Y45.8542 
G01 X86.7764 Y45.8255 
G01 X88.4836 Y45.8255 
G01 X88.6647 Y45.8542 
G01 X88.8390 Y45.9108 
G01 X89.0023 Y45.9940 
G01 X89.1506 Y46.1018 
G01 X89.2802 Y46.2314 
G01 X89.3880 Y46.3797 
G01 X89.4712 Y46.5430 
G01 X89.5278 Y46.7173 
G01 X89.5565 Y46.8984 
G01 X89.5565 Y47.0816 
G01 X89.5278 Y47.2627 
G01 X89.4712 Y47.4370 
G01 X89.3880 Y47.6003 
G01 X89.2802 Y47.7486 
G01 X89.1506 Y47.8782 
G01 X89.0023 Y47.9860 
G01 X88.8390 Y48.0692 
G01 X88.6647 Y48.1258 
G01 X88.4836 Y48.1545 
G01 X86.7764 Y48.1545 
G01 X86.5953 Y48.1258 
G01 X86.4210 Y48.0692 
G01 X86.2577 Y47.9860 
G01 X86.1400 Y47.9005 
G01 X85.4671 Y47.9005 
G01 X81.9872 Y51.3804 
G01 X81.8604 Y51.5072 
G01 X81.7113 Y51.6069 
G01 X81.5456 Y51.6755 
G01 X81.3697 Y51.7105 
G01 X62.1403 Y51.7105 
G01 X61.9644 Y51.6755 
G01 X61.7987 Y51.6069 
G01 X61.6496 Y51.5072 
G01 X61.5228 Y51.3804 
G01 X60.3796 Y50.2372 
G01 X60.2528 Y50.1104 
G01 X60.1531 Y49.9613 
G01 X60.0845 Y49.7956 
G01 X60.0495 Y49.6197 
G01 X60.0495 Y45.9400 
G01 X59.9640 Y45.8223 
G01 X59.8808 Y45.6590 
G01 X59.8242 Y45.4847 
G01 X59.7955 Y45.3036 
G01 X59.7955 Y43.5964 
G01 X59.8242 Y43.4153 
G01 X59.8808 Y43.2410 
G01 X59.9640 Y43.0777 
G01 X60.0495 Y42.9600 
G01 X60.0495 Y42.2871 
G01 X59.3129 Y41.5505 
G01 X54.9871 Y41.5505 
G01 X53.1329 Y43.4047 
G01 X53.1329 Y43.6203 
G01 X52.5103 Y44.2429 
G01 X51.6297 Y44.2429 
G01 X51.4773 Y44.0905 
G01 X49.9071 Y44.0905 
G01 X45.1572 Y48.8404 
G01 X45.0304 Y48.9672 
G01 X44.8813 Y49.0669 
G01 X44.7156 Y49.1355 
G01 X44.5397 Y49.1705 
G01 X41.2327 Y49.1705 
G01 X41.0803 Y49.3229 
G00 Z2.0000 
G00 X124.3865 Y93.8405 
G01 Z-0.1000 F50.00 
G01 X124.3632 Y93.9575 F100.00 
G01 X124.3176 Y94.0677 
G01 X124.2513 Y94.1669 
G01 X124.1669 Y94.2513 
G01 X124.0677 Y94.3176 
G01 X123.9575 Y94.3632 
G01 X123.8405 Y94.3865 
G01 X-23.8405 Y94.3865 
G01 X-23.9575 Y94.3632 
G01 X-24.0677 Y94.3176 
G01 X-24.1669 Y94.2513 
G01 X-24.2513 Y94.1669 
G01 X-24.3176 Y94.0677 
G01 X-24.3632 Y93.9575 
G01 X-24.3865 Y93.8405 
G01 X-24.3865 Y-23.8405 
G01 X-24.3632 Y-23.9575 
G01 X-24.3176 Y-24.0677 
G01 X-24.2513 Y-24.1669 
G01 X-24.1669 Y-24.2513 
G01 X-24.0677 Y-24.3176 
G01 X-23.9575 Y-24.3632 
G01 X-23.8405 Y-24.3865 
G01 X123.8405 Y-24.3865 
G01 X123.9575 Y-24.3632 
G01 X124.0677 Y-24.3176 
G01 X124.1669 Y-24.2513 
G01 X124.2513 Y-24.1669 
G01 X124.3176 Y-24.0677 
G01 X124.3632 Y-23.9575 
G01 X124.3865 Y-23.8405 
G01 X124.3865 Y-23.7211 
G01 X124.3865 Y93.8405 
G00 Z2.0000 
G00 Z25.0000 
M05
M02
